( pcb2gcode 2.5.0 )
( Software-independent Gcode )

G94 ( Millimeters per minute feed rate. )
G21 ( Units == Millimeters. )

G90 ( Absolute coordinates. )
G00 S11000 ( RPM spindle speed. )
G01 F150.00000 ( Feedrate. )


G00 Z3.00000 (Retract to tool change height)
M3 ( Spindle on clockwise. )
G04 P1.00000 (Wait for spindle to get up to speed)
G04 P0 ( dwell for no time -- G64 should not smooth over this point )
G00 Z3.00000 ( retract )

G00 X47.21522 Y70.35837 ( rapid move to begin. )
G01 F75.00000
( Mill infeed pass 1/1 )
G01 Z-0.90000
G04 P0 ( dwell for no time -- G64 should not smooth over this point )
G01 F150.00000
G01 X47.21522 Y70.35837
G01 X47.21441 Y70.36343
G01 X47.20948 Y70.42601
G01 X47.21441 Y70.48862
G01 X47.23394 Y70.61191
G01 X47.24862 Y70.67295
G01 X47.27265 Y70.73096
G01 X47.32061 Y70.82502
G01 X47.56737 Y70.82505
G01 X47.63254 Y70.89022
G01 X47.65642 Y70.91062
G01 X47.68319 Y70.92703
G01 X47.79442 Y70.98369
G01 X47.82340 Y70.99571
G01 X47.85391 Y71.00305
G01 X47.97720 Y71.02258
G01 X48.00849 Y71.02505
G01 X48.60973 Y71.02505
G01 X48.62548 Y71.02441
G01 X48.68791 Y71.01948
G01 X48.71121 Y71.01626
G01 X48.73396 Y71.01031
G01 X48.85268 Y70.97176
G01 X48.88169 Y70.95974
G01 X48.90846 Y70.94336
G01 X49.00945 Y70.86998
G01 X49.03330 Y70.84958
G01 X49.05787 Y70.82502
G01 X49.17501 Y70.82502
G01 X49.17501 Y70.70788
G01 X49.11644 Y70.76645
G01 X49.05787 Y70.82502
G01 X49.11644 Y70.76645
G01 X49.17501 Y70.70788
G01 X49.19957 Y70.68331
G01 X49.21027 Y70.67178
G01 X49.25093 Y70.62416
G01 X49.26513 Y70.60539
G01 X49.27702 Y70.58507
G01 X49.33368 Y70.47384
G01 X49.34570 Y70.44486
G01 X49.35304 Y70.41435
G01 X49.37257 Y70.29106
G01 X49.37503 Y70.25974
G01 X49.37503 Y1.39028
G01 X49.37440 Y1.37464
G01 X49.36950 Y1.31223
G01 X49.36627 Y1.28889
G01 X49.36033 Y1.26608
G01 X49.32175 Y1.14733
G01 X49.30973 Y1.11835
G01 X49.29335 Y1.09158
G01 X49.21997 Y0.99059
G01 X49.19957 Y0.96674
G01 X49.17501 Y0.94218
G01 X49.17501 Y0.82501
G01 X49.05787 Y0.82501
G01 X49.17501 Y0.94218
G01 X49.05787 Y0.82501
G01 X49.03330 Y0.80047
G01 X49.02180 Y0.78983
G01 X48.97420 Y0.74916
G01 X48.95540 Y0.73494
G01 X48.93508 Y0.72303
G01 X48.82385 Y0.66636
G01 X48.79487 Y0.65435
G01 X48.76434 Y0.64700
G01 X48.64103 Y0.62747
G01 X48.60973 Y0.62501
G01 X1.74028 Y0.62501
G01 X1.72456 Y0.62564
G01 X1.66215 Y0.63057
G01 X1.63886 Y0.63380
G01 X1.61610 Y0.63974
G01 X1.49738 Y0.67830
G01 X1.46837 Y0.69029
G01 X1.44163 Y0.70669
G01 X1.34061 Y0.78008
G01 X1.31674 Y0.80047
G01 X1.29217 Y0.82501
G01 X1.17500 Y0.82501
G01 X1.17500 Y0.94218
G01 X1.29217 Y0.82501
G01 X1.17500 Y0.94218
G01 X1.15047 Y0.96674
G01 X1.13977 Y0.97827
G01 X1.09911 Y1.02590
G01 X1.08491 Y1.04467
G01 X1.07302 Y1.06499
G01 X1.01636 Y1.17621
G01 X1.00434 Y1.20520
G01 X0.99700 Y1.23570
G01 X0.97747 Y1.35899
G01 X0.97500 Y1.39028
G01 X0.97500 Y70.25974
G01 X0.97564 Y70.27549
G01 X0.98057 Y70.33790
G01 X0.98379 Y70.36119
G01 X0.98974 Y70.38395
G01 X1.02829 Y70.50267
G01 X1.04028 Y70.53168
G01 X1.05669 Y70.55842
G01 X1.13007 Y70.65944
G01 X1.15047 Y70.68331
G01 X1.17503 Y70.70788
G01 X1.17500 Y70.82502
G01 X1.29217 Y70.82502
G01 X1.23360 Y70.76645
G01 X1.17503 Y70.70788
G01 X1.23360 Y70.76645
G01 X1.29217 Y70.82502
G01 X1.31674 Y70.84958
G01 X1.32827 Y70.86028
G01 X1.37589 Y70.90094
G01 X1.39466 Y70.91514
G01 X1.41498 Y70.92703
G01 X1.52621 Y70.98369
G01 X1.55519 Y70.99571
G01 X1.58570 Y71.00305
G01 X1.70899 Y71.02258
G01 X1.74028 Y71.02505
G01 X10.38852 Y71.02505
G01 X10.41984 Y71.02258
G01 X10.54313 Y71.00305
G01 X10.57364 Y70.99571
G01 X10.60262 Y70.98369
G01 X10.71385 Y70.92703
G01 X10.74062 Y70.91062
G01 X10.76449 Y70.89022
G01 X10.82967 Y70.82505
G01 X11.07643 Y70.82505
G01 X11.30092 Y70.82505
G01 X11.30257 Y70.82179
G01 X11.33864 Y70.73472
G01 X11.36063 Y70.64308
G01 X11.38014 Y70.51979
G01 X11.38164 Y70.50071
G01 X11.32223 Y70.38126
G01 X11.38164 Y70.50071
G01 X11.43191 Y70.52759
G01 X11.48512 Y70.55276
G01 X11.54057 Y70.57260
G01 X11.70003 Y70.62096
G01 X11.81537 Y70.64392
G01 X11.98121 Y70.66025
G01 X12.04001 Y70.66312
G01 X13.34000 Y70.66312
G01 X13.39883 Y70.66025
G01 X13.56464 Y70.64392
G01 X13.68001 Y70.62096
G01 X13.83947 Y70.57260
G01 X13.89489 Y70.55276
G01 X13.94813 Y70.52759
G01 X14.09510 Y70.44902
G01 X14.14559 Y70.41877
G01 X14.19289 Y70.38370
G01 X14.32169 Y70.27798
G01 X14.38654 Y70.21313
G01 X14.38196 Y70.20079
G01 X14.38654 Y70.21313
G01 X14.80457 Y70.21316
G01 X14.80830 Y70.20231
G01 X14.80457 Y70.21316
G01 X14.84605 Y70.25075
G01 X14.97485 Y70.35644
G01 X15.07267 Y70.42180
G01 X15.21960 Y70.50033
G01 X15.27284 Y70.52553
G01 X15.32829 Y70.54537
G01 X15.48773 Y70.59373
G01 X15.60309 Y70.61666
G01 X15.76893 Y70.63300
G01 X15.82773 Y70.63589
G01 X17.12773 Y70.63589
G01 X17.18655 Y70.63300
G01 X17.35237 Y70.61666
G01 X17.46773 Y70.59373
G01 X17.62719 Y70.54537
G01 X17.68262 Y70.52553
G01 X17.73586 Y70.50033
G01 X17.76507 Y70.48471
G01 X17.82064 Y70.38814
G01 X17.76507 Y70.48471
G01 X17.76783 Y70.51992
G01 X17.78737 Y70.64321
G01 X17.80936 Y70.73472
G01 X17.84538 Y70.82169
G01 X17.84708 Y70.82505
G01 X17.63095 Y70.82505
G01 X17.61914 Y70.79652
G01 X17.61025 Y70.75949
G01 X17.64510 Y70.70074
G01 X17.61025 Y70.75949
G01 X17.52580 Y70.78512
G01 X17.37197 Y70.81570
G01 X17.27731 Y70.82502
G01 X15.67815 Y70.82502
G01 X15.58348 Y70.81570
G01 X15.42969 Y70.78512
G01 X15.27023 Y70.73673
G01 X15.19631 Y70.71029
G01 X15.12534 Y70.67674
G01 X14.97838 Y70.59817
G01 X14.84798 Y70.51105
G01 X14.72870 Y70.41313
G01 X14.73203 Y70.40308
G01 X14.72870 Y70.41313
G01 X14.46799 Y70.41316
G01 X14.46390 Y70.40160
G01 X14.46799 Y70.41316
G01 X14.44856 Y70.43259
G01 X14.31976 Y70.53828
G01 X14.25672 Y70.58507
G01 X14.18935 Y70.62543
G01 X14.04242 Y70.70396
G01 X13.97145 Y70.73754
G01 X13.89751 Y70.76398
G01 X13.73807 Y70.81235
G01 X13.67432 Y70.82505
G01 X14.24018 Y70.82505
G01 X14.28364 Y70.80180
G01 X14.36782 Y70.75136
G01 X14.44663 Y70.69289
G01 X14.54381 Y70.61316
G01 X14.54003 Y70.60216
G01 X14.54381 Y70.61316
G01 X14.65712 Y70.61316
G01 X14.65966 Y70.60473
G01 X14.65712 Y70.61316
G01 X14.72110 Y70.66566
G01 X14.88410 Y70.77455
G01 X14.97853 Y70.82505
G01 X14.60137 Y70.82505
G01 X14.60111 Y70.82484
G01 X14.60089 Y70.82505
G01 X14.60137 Y70.82505
G01 X14.60089 Y70.82505
G01 X14.24018 Y70.82505
G01 X13.67432 Y70.82505
G01 X11.70572 Y70.82505
G01 X11.64196 Y70.81235
G01 X11.53300 Y70.77930
G01 X11.49894 Y70.71517
G01 X11.53300 Y70.77930
G01 X11.52886 Y70.79652
G01 X11.51705 Y70.82505
G01 X11.52886 Y70.79652
G01 X11.53300 Y70.77930
G01 X11.64196 Y70.81235
G01 X11.70572 Y70.82505
G01 X11.51705 Y70.82505
G01 X11.30092 Y70.82505
G01 X11.07643 Y70.82505
G01 X11.30092 Y70.82505
G01 X11.51705 Y70.82505
G01 X11.70572 Y70.82505
G01 X13.67432 Y70.82505
G01 X14.24018 Y70.82505
G01 X14.60089 Y70.82505
G01 X14.60137 Y70.82505
G01 X14.97853 Y70.82505
G01 X17.63095 Y70.82505
G01 X17.84708 Y70.82505
G01 X18.07154 Y70.82505
G01 X18.31830 Y70.82505
G01 X18.38348 Y70.89022
G01 X18.31830 Y70.82505
G01 X18.07154 Y70.82505
G01 X18.02359 Y70.73089
G01 X17.99956 Y70.67293
G01 X17.98490 Y70.61191
G01 X17.96537 Y70.48862
G01 X17.96044 Y70.42601
G01 X17.96537 Y70.36343
G01 X17.98490 Y70.24013
G01 X17.99956 Y70.17912
G01 X18.02359 Y70.12116
G01 X18.08025 Y70.00993
G01 X18.09496 Y69.98591
G01 X18.08295 Y69.98591
G01 X18.07540 Y69.96884
G01 X18.08295 Y69.98591
G01 X18.09496 Y69.98591
G01 X18.24688 Y69.89149
G01 X18.09496 Y69.98591
G01 X18.08295 Y69.98591
G01 X18.03799 Y70.04069
G01 X17.98254 Y70.09614
G01 X17.85374 Y70.20186
G01 X17.82219 Y70.22522
G01 X17.78853 Y70.24542
G01 X17.64157 Y70.32395
G01 X17.60609 Y70.34074
G01 X17.56913 Y70.35398
G01 X17.40967 Y70.40234
G01 X17.33276 Y70.41763
G01 X17.16695 Y70.43396
G01 X17.12773 Y70.43589
G01 X15.82773 Y70.43589
G01 X15.78851 Y70.43396
G01 X15.62270 Y70.41763
G01 X15.54579 Y70.40234
G01 X15.38633 Y70.35398
G01 X15.34937 Y70.34074
G01 X15.31389 Y70.32395
G01 X15.16695 Y70.24542
G01 X15.10175 Y70.20186
G01 X14.97294 Y70.09614
G01 X14.94386 Y70.06978
G01 X14.91750 Y70.04069
G01 X14.89253 Y70.01029
G01 X14.89974 Y69.99355
G01 X14.89253 Y70.01029
G01 X14.87201 Y70.01192
G01 X14.84051 Y70.01316
G01 X14.29522 Y70.01313
G01 X14.28773 Y69.99632
G01 X14.29522 Y70.01313
G01 X14.25026 Y70.06792
G01 X14.19482 Y70.12337
G01 X14.06601 Y70.22909
G01 X14.03447 Y70.25248
G01 X14.00081 Y70.27265
G01 X13.85385 Y70.35121
G01 X13.81836 Y70.36797
G01 X13.78141 Y70.38121
G01 X13.62194 Y70.42957
G01 X13.54506 Y70.44488
G01 X13.37922 Y70.46122
G01 X13.34000 Y70.46312
G01 X12.04001 Y70.46312
G01 X12.00081 Y70.46122
G01 X11.83498 Y70.44488
G01 X11.75807 Y70.42957
G01 X11.59861 Y70.38121
G01 X11.56165 Y70.36797
G01 X11.52616 Y70.35121
G01 X11.37923 Y70.27265
G01 X11.31402 Y70.22909
G01 X11.18522 Y70.12337
G01 X11.15614 Y70.09701
G01 X11.12977 Y70.06792
G01 X11.08481 Y70.01313
G01 X11.09236 Y69.99607
G01 X11.08481 Y70.01313
G01 X11.06937 Y70.01316
G01 X11.08481 Y70.01313
G01 X11.06937 Y70.01316
G01 X10.92177 Y69.91999
G01 X11.06937 Y70.01316
G01 X11.12439 Y70.12108
G01 X11.14844 Y70.17912
G01 X11.16310 Y70.24021
G01 X11.18260 Y70.36350
G01 X11.18753 Y70.42601
G01 X11.18260 Y70.48855
G01 X11.16310 Y70.61184
G01 X11.14844 Y70.67293
G01 X11.12439 Y70.73096
G01 X11.07643 Y70.82505
G01 X10.82967 Y70.82505
G01 X10.85276 Y70.80193
G01 X10.87313 Y70.77811
G01 X10.88951 Y70.75136
G01 X10.94621 Y70.64013
G01 X10.95822 Y70.61113
G01 X10.96556 Y70.58057
G01 X10.98507 Y70.45728
G01 X10.98753 Y70.42601
G01 X10.98507 Y70.39477
G01 X10.96556 Y70.27148
G01 X10.95822 Y70.24092
G01 X10.94621 Y70.21192
G01 X10.88951 Y70.10069
G01 X10.87313 Y70.07397
G01 X10.79988 Y69.97313
G01 X10.71837 Y69.81314
G01 X11.17940 Y69.81316
G01 X11.28438 Y69.94105
G01 X11.29754 Y69.95560
G01 X11.31209 Y69.96879
G01 X11.44090 Y70.07448
G01 X11.47351 Y70.09627
G01 X11.62045 Y70.17481
G01 X11.63820 Y70.18321
G01 X11.65667 Y70.18982
G01 X11.81613 Y70.23818
G01 X11.85459 Y70.24585
G01 X12.02040 Y70.26218
G01 X12.04001 Y70.26312
G01 X13.34000 Y70.26312
G01 X13.35961 Y70.26218
G01 X13.52545 Y70.24585
G01 X13.56391 Y70.23818
G01 X13.72334 Y70.18982
G01 X13.75956 Y70.17481
G01 X13.90653 Y70.09627
G01 X13.92337 Y70.08619
G01 X13.93911 Y70.07448
G01 X14.06794 Y69.96879
G01 X14.09565 Y69.94105
G01 X14.20063 Y69.81316
G01 X14.84051 Y69.81316
G01 X14.85626 Y69.81253
G01 X14.91867 Y69.80760
G01 X14.94196 Y69.80437
G01 X14.96472 Y69.79843
G01 X14.97475 Y69.79518
G01 X15.07208 Y69.91382
G01 X15.08526 Y69.92835
G01 X15.09982 Y69.94153
G01 X15.22862 Y70.04725
G01 X15.26121 Y70.06901
G01 X15.40817 Y70.14758
G01 X15.42590 Y70.15596
G01 X15.44439 Y70.16259
G01 X15.60386 Y70.21095
G01 X15.64231 Y70.21860
G01 X15.80812 Y70.23493
G01 X15.82773 Y70.23589
G01 X17.12773 Y70.23589
G01 X17.14734 Y70.23493
G01 X17.31317 Y70.21860
G01 X17.35160 Y70.21095
G01 X17.51107 Y70.16259
G01 X17.54729 Y70.14758
G01 X17.69425 Y70.06901
G01 X17.71109 Y70.05893
G01 X17.72684 Y70.04725
G01 X17.85564 Y69.94153
G01 X17.88338 Y69.91382
G01 X17.98836 Y69.78591
G01 X18.44942 Y69.78588
G01 X18.36788 Y69.94590
G01 X18.27484 Y70.07394
G01 X18.25846 Y70.10071
G01 X18.20179 Y70.21194
G01 X18.18978 Y70.24092
G01 X18.18244 Y70.27143
G01 X18.16291 Y70.39472
G01 X18.16044 Y70.42601
G01 X18.16291 Y70.45733
G01 X18.18244 Y70.58062
G01 X18.18978 Y70.61113
G01 X18.20179 Y70.64011
G01 X18.25846 Y70.75133
G01 X18.27484 Y70.77808
G01 X18.29521 Y70.80193
G01 X18.38348 Y70.89022
G01 X18.40735 Y70.91062
G01 X18.43413 Y70.92703
G01 X18.54535 Y70.98369
G01 X18.57433 Y70.99571
G01 X18.60484 Y71.00305
G01 X18.72813 Y71.02258
G01 X18.75942 Y71.02505
G01 X39.59540 Y71.02505
G01 X39.62669 Y71.02258
G01 X39.75001 Y71.00305
G01 X39.78054 Y70.99571
G01 X39.80952 Y70.98369
G01 X39.92075 Y70.92703
G01 X39.94752 Y70.91062
G01 X39.97140 Y70.89022
G01 X40.03657 Y70.82505
G01 X40.28336 Y70.82502
G01 X40.50782 Y70.82502
G01 X40.66489 Y70.82502
G01 X40.50782 Y70.82502
G01 X40.50950 Y70.82169
G01 X40.54551 Y70.73472
G01 X40.56639 Y70.64786
G01 X40.52415 Y70.57280
G01 X40.52189 Y70.56853
G01 X40.52148 Y70.56772
G01 X40.42583 Y70.40617
G01 X40.42326 Y70.40249
G01 X40.42080 Y70.39878
G01 X40.38661 Y70.34504
G01 X40.38951 Y70.36343
G01 X40.39443 Y70.42601
G01 X40.38951 Y70.48862
G01 X40.36997 Y70.61191
G01 X40.35532 Y70.67293
G01 X40.33129 Y70.73089
G01 X40.28336 Y70.82502
G01 X40.03657 Y70.82505
G01 X40.05966 Y70.80193
G01 X40.08003 Y70.77808
G01 X40.09642 Y70.75133
G01 X40.15308 Y70.64011
G01 X40.16510 Y70.61113
G01 X40.17244 Y70.58062
G01 X40.19197 Y70.45733
G01 X40.19443 Y70.42601
G01 X40.19197 Y70.39472
G01 X40.17244 Y70.27143
G01 X40.16510 Y70.24092
G01 X40.15308 Y70.21194
G01 X40.09642 Y70.10071
G01 X40.08003 Y70.07394
G01 X39.98717 Y69.94613
G01 X39.88349 Y69.74268
G01 X39.81298 Y69.52556
G01 X39.77726 Y69.30003
G01 X39.77724 Y69.07176
G01 X39.81298 Y68.84623
G01 X39.88349 Y68.62914
G01 X39.98717 Y68.42569
G01 X40.10172 Y68.26800
G01 X40.11813 Y68.24123
G01 X40.17480 Y68.13000
G01 X40.18681 Y68.10102
G01 X40.19415 Y68.07049
G01 X40.21369 Y67.94717
G01 X40.21615 Y67.91588
G01 X40.21369 Y67.88459
G01 X40.19415 Y67.76130
G01 X40.18681 Y67.73079
G01 X40.17480 Y67.70181
G01 X40.11813 Y67.59058
G01 X40.10172 Y67.56381
G01 X39.98717 Y67.40613
G01 X39.88349 Y67.20268
G01 X39.81298 Y66.98556
G01 X39.77726 Y66.76003
G01 X39.77724 Y66.53176
G01 X39.81298 Y66.30626
G01 X39.88349 Y66.08914
G01 X39.98717 Y65.88569
G01 X40.10172 Y65.72800
G01 X40.11813 Y65.70123
G01 X40.17480 Y65.59000
G01 X40.18681 Y65.56102
G01 X40.19415 Y65.53049
G01 X40.21369 Y65.40717
G01 X40.21615 Y65.37588
G01 X40.21369 Y65.34459
G01 X40.19415 Y65.22130
G01 X40.18681 Y65.19079
G01 X40.17480 Y65.16181
G01 X40.11813 Y65.05058
G01 X40.10172 Y65.02381
G01 X39.98717 Y64.86613
G01 X39.88349 Y64.66268
G01 X39.81298 Y64.44556
G01 X39.77726 Y64.22003
G01 X39.77724 Y63.99176
G01 X39.81298 Y63.76623
G01 X39.88349 Y63.54914
G01 X39.98717 Y63.34569
G01 X40.10172 Y63.18800
G01 X40.11813 Y63.16123
G01 X40.17480 Y63.05000
G01 X40.18681 Y63.02102
G01 X40.19415 Y62.99049
G01 X40.21369 Y62.86717
G01 X40.21615 Y62.83588
G01 X40.21369 Y62.80459
G01 X40.19415 Y62.68130
G01 X40.18681 Y62.65079
G01 X40.17480 Y62.62181
G01 X40.11813 Y62.51058
G01 X40.10172 Y62.48381
G01 X39.98717 Y62.32613
G01 X39.88349 Y62.12268
G01 X39.81298 Y61.90556
G01 X39.77726 Y61.68003
G01 X39.77724 Y61.45176
G01 X39.81298 Y61.22626
G01 X39.88349 Y61.00914
G01 X39.98717 Y60.80569
G01 X40.10172 Y60.64800
G01 X40.11813 Y60.62123
G01 X40.17480 Y60.51000
G01 X40.18681 Y60.48102
G01 X40.19415 Y60.45049
G01 X40.21369 Y60.32717
G01 X40.21615 Y60.29588
G01 X40.21369 Y60.26459
G01 X40.19415 Y60.14130
G01 X40.18681 Y60.11079
G01 X40.17480 Y60.08181
G01 X40.11813 Y59.97058
G01 X40.10172 Y59.94381
G01 X39.98717 Y59.78613
G01 X39.88349 Y59.58268
G01 X39.81298 Y59.36556
G01 X39.77726 Y59.14003
G01 X39.77724 Y58.91176
G01 X39.81298 Y58.68623
G01 X39.88349 Y58.46914
G01 X39.98717 Y58.26569
G01 X40.10172 Y58.10800
G01 X40.11813 Y58.08123
G01 X40.17480 Y57.97000
G01 X40.18681 Y57.94102
G01 X40.19415 Y57.91049
G01 X40.21369 Y57.78717
G01 X40.21615 Y57.75588
G01 X40.21369 Y57.72459
G01 X40.19415 Y57.60130
G01 X40.18681 Y57.57079
G01 X40.17480 Y57.54181
G01 X40.11813 Y57.43058
G01 X40.10172 Y57.40381
G01 X39.98717 Y57.24613
G01 X39.88349 Y57.04268
G01 X39.81298 Y56.82556
G01 X39.77726 Y56.60003
G01 X39.77724 Y56.37176
G01 X39.81298 Y56.14623
G01 X39.88349 Y55.92914
G01 X39.98717 Y55.72569
G01 X40.10172 Y55.56800
G01 X40.11813 Y55.54123
G01 X40.17480 Y55.43000
G01 X40.18681 Y55.40102
G01 X40.19415 Y55.37049
G01 X40.21369 Y55.24717
G01 X40.21615 Y55.21588
G01 X40.21369 Y55.18459
G01 X40.19415 Y55.06130
G01 X40.18681 Y55.03079
G01 X40.17480 Y55.00181
G01 X40.11813 Y54.89058
G01 X40.10172 Y54.86381
G01 X39.98717 Y54.70613
G01 X39.88349 Y54.50268
G01 X39.86921 Y54.45873
G01 X39.86380 Y54.44405
G01 X39.83985 Y54.38619
G01 X39.82956 Y54.36498
G01 X39.81686 Y54.34512
G01 X39.74348 Y54.24413
G01 X39.72309 Y54.22028
G01 X39.71191 Y54.20910
G01 X39.70038 Y54.19841
G01 X39.65275 Y54.15774
G01 X39.63398 Y54.14354
G01 X39.61366 Y54.13166
G01 X39.50244 Y54.07499
G01 X39.47345 Y54.06298
G01 X39.44295 Y54.05564
G01 X39.31966 Y54.03610
G01 X39.28834 Y54.03364
G01 X28.95440 Y54.03364
G01 X28.79885 Y54.00900
G01 X28.64909 Y53.96033
G01 X28.50873 Y53.88883
G01 X28.38138 Y53.79630
G01 X22.63689 Y48.05181
G01 X22.54433 Y47.92441
G01 X22.47283 Y47.78410
G01 X22.42416 Y47.63431
G01 X22.39955 Y47.47876
G01 X22.39955 Y18.54715
G01 X22.42416 Y18.39162
G01 X22.47283 Y18.24181
G01 X22.54433 Y18.10150
G01 X22.63689 Y17.97410
G01 X26.87201 Y13.73898
G01 X26.88270 Y13.72742
G01 X26.92334 Y13.67982
G01 X26.93754 Y13.66105
G01 X26.94943 Y13.64076
G01 X27.00609 Y13.52953
G01 X27.01811 Y13.50055
G01 X27.03477 Y13.44924
G01 X27.13845 Y13.24581
G01 X27.25303 Y13.08810
G01 X27.26941 Y13.06133
G01 X27.32608 Y12.95010
G01 X27.33810 Y12.92112
G01 X27.34544 Y12.89062
G01 X27.36497 Y12.76733
G01 X27.36743 Y12.73601
G01 X27.36497 Y12.70471
G01 X27.34544 Y12.58142
G01 X27.33810 Y12.55092
G01 X27.32608 Y12.52194
G01 X27.26941 Y12.41071
G01 X27.25303 Y12.38394
G01 X27.13843 Y12.22623
G01 X27.03477 Y12.02280
G01 X26.96426 Y11.80568
G01 X26.92855 Y11.58018
G01 X26.92855 Y11.35186
G01 X26.96426 Y11.12636
G01 X27.03477 Y10.90924
G01 X27.13843 Y10.70581
G01 X27.25303 Y10.54810
G01 X27.26941 Y10.52133
G01 X27.32608 Y10.41010
G01 X27.33810 Y10.38112
G01 X27.34544 Y10.35062
G01 X27.36497 Y10.22733
G01 X27.36743 Y10.19601
G01 X27.36497 Y10.16471
G01 X27.34544 Y10.04142
G01 X27.33810 Y10.01092
G01 X27.32608 Y9.98194
G01 X27.26941 Y9.87071
G01 X27.25303 Y9.84394
G01 X27.13845 Y9.68623
G01 X27.03477 Y9.48280
G01 X26.96426 Y9.26568
G01 X26.92855 Y9.04018
G01 X26.92855 Y8.81186
G01 X26.96426 Y8.58636
G01 X27.03477 Y8.36924
G01 X27.13845 Y8.16579
G01 X27.25334 Y8.00770
G01 X27.26972 Y7.98092
G01 X27.32639 Y7.86970
G01 X27.33840 Y7.84072
G01 X27.34574 Y7.81021
G01 X27.36527 Y7.68692
G01 X27.36774 Y7.65563
G01 X27.36527 Y7.62433
G01 X27.34574 Y7.50102
G01 X27.33840 Y7.47049
G01 X27.32639 Y7.44150
G01 X27.26972 Y7.33028
G01 X27.25334 Y7.30351
G01 X27.13888 Y7.14598
G01 X27.05738 Y6.98603
G01 X27.26238 Y6.98603
G01 X27.41516 Y7.18603
G01 X27.44793 Y7.23950
G01 X27.50459 Y7.35073
G01 X27.52862 Y7.40869
G01 X27.54328 Y7.46972
G01 X27.56281 Y7.59304
G01 X27.56774 Y7.65563
G01 X27.56281 Y7.71821
G01 X27.55710 Y7.75405
G01 X27.58229 Y7.71504
G01 X27.58483 Y7.71128
G01 X27.60586 Y7.68174
G01 X27.65839 Y7.60132
G01 X27.66853 Y7.58829
G01 X27.68069 Y7.57712
G01 X27.69451 Y7.56807
G01 X27.68725 Y7.55743
G01 X27.69451 Y7.56807
G01 X27.70962 Y7.56144
G01 X27.72565 Y7.55738
G01 X27.74211 Y7.55601
G01 X27.74191 Y7.55448
G01 X27.74211 Y7.55601
G01 X27.94404 Y7.55603
G01 X27.93761 Y7.55408
G01 X27.90066 Y7.54087
G01 X27.86517 Y7.52408
G01 X27.71821 Y7.44552
G01 X27.65303 Y7.40196
G01 X27.52420 Y7.29627
G01 X27.46878 Y7.24082
G01 X27.42380 Y7.18601
G01 X27.41516 Y7.18603
G01 X27.26238 Y6.98603
G01 X27.51839 Y6.98603
G01 X27.62336 Y7.11392
G01 X27.65110 Y7.14166
G01 X27.77990 Y7.24737
G01 X27.81249 Y7.26914
G01 X27.95946 Y7.34770
G01 X27.97719 Y7.35608
G01 X27.99568 Y7.36269
G01 X28.15514 Y7.41108
G01 X28.19359 Y7.41872
G01 X28.35941 Y7.43505
G01 X28.37901 Y7.43602
G01 X29.67901 Y7.43602
G01 X29.69862 Y7.43505
G01 X29.86443 Y7.41872
G01 X29.90289 Y7.41108
G01 X30.06235 Y7.36269
G01 X30.08084 Y7.35608
G01 X30.09857 Y7.34770
G01 X30.24553 Y7.26914
G01 X30.27812 Y7.24737
G01 X30.40692 Y7.14166
G01 X30.43466 Y7.11392
G01 X30.53964 Y6.98603
G01 X30.79570 Y6.98603
G01 X30.64289 Y7.18603
G01 X30.63423 Y7.18601
G01 X30.58925 Y7.24082
G01 X30.53382 Y7.29627
G01 X30.40499 Y7.40196
G01 X30.33982 Y7.44552
G01 X30.19285 Y7.52408
G01 X30.15737 Y7.54087
G01 X30.12041 Y7.55408
G01 X30.11409 Y7.55601
G01 X30.31594 Y7.55601
G01 X30.31614 Y7.55448
G01 X30.31594 Y7.55601
G01 X30.33240 Y7.55738
G01 X30.34843 Y7.56144
G01 X30.36354 Y7.56807
G01 X30.37083 Y7.55740
G01 X30.36354 Y7.56807
G01 X30.37736 Y7.57712
G01 X30.38953 Y7.58829
G01 X30.39966 Y7.60132
G01 X30.45216 Y7.68171
G01 X30.47322 Y7.71128
G01 X30.47576 Y7.71504
G01 X30.50093 Y7.75403
G01 X30.49524 Y7.71816
G01 X30.49031 Y7.65558
G01 X30.49524 Y7.59299
G01 X30.51477 Y7.46970
G01 X30.52943 Y7.40869
G01 X30.55346 Y7.35073
G01 X30.61012 Y7.23950
G01 X30.64289 Y7.18603
G01 X30.79570 Y6.98603
G01 X31.00068 Y6.98603
G01 X30.91917 Y7.14598
G01 X30.80471 Y7.30351
G01 X30.78833 Y7.33028
G01 X30.73166 Y7.44150
G01 X30.71965 Y7.47049
G01 X30.71231 Y7.50099
G01 X30.69278 Y7.62428
G01 X30.69031 Y7.65558
G01 X30.69278 Y7.68687
G01 X30.71231 Y7.81019
G01 X30.71965 Y7.84072
G01 X30.73166 Y7.86970
G01 X30.78833 Y7.98092
G01 X30.80471 Y8.00770
G01 X30.91960 Y8.16579
G01 X31.02328 Y8.36924
G01 X31.09379 Y8.58636
G01 X31.12950 Y8.81186
G01 X31.12950 Y9.04018
G01 X31.09379 Y9.26568
G01 X31.06913 Y9.34168
G01 X31.06179 Y9.37216
G01 X31.04225 Y9.49545
G01 X31.03979 Y9.52674
G01 X31.04225 Y9.55806
G01 X31.06179 Y9.68135
G01 X31.06913 Y9.71186
G01 X31.08114 Y9.74084
G01 X31.13781 Y9.85207
G01 X31.15419 Y9.87884
G01 X31.17459 Y9.90269
G01 X31.26288 Y9.99098
G01 X31.28673 Y10.01138
G01 X31.31350 Y10.02776
G01 X31.42473 Y10.08443
G01 X31.45371 Y10.09644
G01 X31.48421 Y10.10378
G01 X31.60751 Y10.12331
G01 X31.63880 Y10.12578
G01 X31.67012 Y10.12331
G01 X31.79341 Y10.10378
G01 X31.82397 Y10.09641
G01 X31.85841 Y10.08521
G01 X32.08386 Y10.04953
G01 X33.61218 Y10.04953
G01 X33.83768 Y10.08524
G01 X34.05485 Y10.15580
G01 X34.25825 Y10.25943
G01 X34.44296 Y10.39367
G01 X34.60440 Y10.55509
G01 X34.73862 Y10.73982
G01 X34.84225 Y10.94320
G01 X34.91281 Y11.16037
G01 X34.94852 Y11.38587
G01 X34.94852 Y11.61419
G01 X34.91281 Y11.83969
G01 X34.84225 Y12.05686
G01 X34.73864 Y12.26024
G01 X34.60440 Y12.44497
G01 X34.44296 Y12.60639
G01 X34.25828 Y12.74061
G01 X34.05482 Y12.84426
G01 X33.83768 Y12.91480
G01 X33.61218 Y12.95051
G01 X32.08386 Y12.95051
G01 X31.85833 Y12.91480
G01 X31.84860 Y12.91165
G01 X31.81810 Y12.90431
G01 X31.69478 Y12.88478
G01 X31.66349 Y12.88231
G01 X31.63220 Y12.88478
G01 X31.50890 Y12.90431
G01 X31.47840 Y12.91165
G01 X31.44942 Y12.92366
G01 X31.33819 Y12.98033
G01 X31.31142 Y12.99671
G01 X31.28757 Y13.01711
G01 X31.19930 Y13.10537
G01 X31.17891 Y13.12923
G01 X31.16252 Y13.15600
G01 X31.10586 Y13.26722
G01 X31.09384 Y13.29620
G01 X31.08650 Y13.32674
G01 X31.06697 Y13.45005
G01 X31.06451 Y13.48135
G01 X31.06697 Y13.51264
G01 X31.08650 Y13.63593
G01 X31.09379 Y13.66628
G01 X31.12950 Y13.89186
G01 X31.12950 Y14.12018
G01 X31.09379 Y14.34568
G01 X31.02328 Y14.56280
G01 X30.91960 Y14.76623
G01 X30.80502 Y14.92394
G01 X30.78864 Y14.95071
G01 X30.73197 Y15.06194
G01 X30.71995 Y15.09092
G01 X30.71261 Y15.12142
G01 X30.69308 Y15.24471
G01 X30.69062 Y15.27601
G01 X30.69308 Y15.30733
G01 X30.71261 Y15.43062
G01 X30.71995 Y15.46112
G01 X30.73197 Y15.49010
G01 X30.78864 Y15.60133
G01 X30.80502 Y15.62810
G01 X30.91960 Y15.78581
G01 X31.02328 Y15.98924
G01 X31.09379 Y16.20636
G01 X31.12950 Y16.43186
G01 X31.12950 Y16.66021
G01 X31.09382 Y16.88568
G01 X31.02326 Y17.10283
G01 X30.91960 Y17.30623
G01 X30.80502 Y17.46394
G01 X30.78864 Y17.49071
G01 X30.73197 Y17.60194
G01 X30.71995 Y17.63092
G01 X30.71261 Y17.66142
G01 X30.69308 Y17.78471
G01 X30.69062 Y17.81601
G01 X30.69308 Y17.84733
G01 X30.71261 Y17.97062
G01 X30.71995 Y18.00112
G01 X30.73197 Y18.03010
G01 X30.78864 Y18.14133
G01 X30.80502 Y18.16810
G01 X30.91960 Y18.32581
G01 X31.02328 Y18.52924
G01 X31.09379 Y18.74636
G01 X31.12950 Y18.97186
G01 X31.12950 Y19.20018
G01 X31.09379 Y19.42568
G01 X31.02328 Y19.64280
G01 X30.91960 Y19.84623
G01 X30.78538 Y20.03099
G01 X30.62397 Y20.19241
G01 X30.43928 Y20.32659
G01 X30.23583 Y20.43025
G01 X30.01869 Y20.50081
G01 X29.79318 Y20.53653
G01 X28.25707 Y20.53653
G01 X28.24940 Y20.53592
G01 X28.23761 Y20.53602
G01 X28.21521 Y20.53426
G01 X28.19166 Y20.53381
G01 X28.16822 Y20.53609
G01 X28.04493 Y20.55563
G01 X28.01442 Y20.56297
G01 X27.98544 Y20.57498
G01 X27.87421 Y20.63165
G01 X27.84747 Y20.64803
G01 X27.82362 Y20.66840
G01 X27.73533 Y20.75667
G01 X27.71493 Y20.78054
G01 X27.69852 Y20.80731
G01 X27.64186 Y20.91854
G01 X27.62984 Y20.94752
G01 X27.62250 Y20.97805
G01 X27.60297 Y21.10137
G01 X27.60050 Y21.13264
G01 X27.60050 Y45.41199
G01 X27.60114 Y45.42774
G01 X27.60607 Y45.49015
G01 X27.60929 Y45.51344
G01 X27.61521 Y45.53617
G01 X27.65377 Y45.65492
G01 X27.66578 Y45.68395
G01 X27.68219 Y45.71072
G01 X27.75557 Y45.81171
G01 X27.77597 Y45.83556
G01 X30.59760 Y48.65720
G01 X30.60913 Y48.66789
G01 X30.65676 Y48.70855
G01 X30.67553 Y48.72275
G01 X30.69585 Y48.73464
G01 X30.80708 Y48.79131
G01 X30.83606 Y48.80332
G01 X30.86656 Y48.81066
G01 X30.98985 Y48.83020
G01 X31.02115 Y48.83266
G01 X39.23881 Y48.83266
G01 X39.25448 Y48.83202
G01 X39.31691 Y48.82712
G01 X39.34026 Y48.82390
G01 X39.36307 Y48.81795
G01 X39.48179 Y48.77937
G01 X39.51079 Y48.76736
G01 X39.53754 Y48.75097
G01 X39.63853 Y48.67759
G01 X39.66238 Y48.65720
G01 X39.72070 Y48.59888
G01 X39.73139 Y48.58735
G01 X39.77206 Y48.53972
G01 X39.78623 Y48.52095
G01 X39.79814 Y48.50066
G01 X39.85484 Y48.38943
G01 X39.86688 Y48.36037
G01 X39.88351 Y48.30911
G01 X39.98717 Y48.10569
G01 X40.10172 Y47.94800
G01 X40.11813 Y47.92123
G01 X40.17480 Y47.81000
G01 X40.18681 Y47.78102
G01 X40.19415 Y47.75049
G01 X40.21369 Y47.62717
G01 X40.21615 Y47.59588
G01 X40.21369 Y47.56459
G01 X40.19415 Y47.44130
G01 X40.18681 Y47.41079
G01 X40.17480 Y47.38181
G01 X40.11813 Y47.27058
G01 X40.10172 Y47.24381
G01 X39.98717 Y47.08613
G01 X39.88349 Y46.88268
G01 X39.81298 Y46.66556
G01 X39.77726 Y46.44003
G01 X39.77724 Y46.21176
G01 X39.81298 Y45.98623
G01 X39.88349 Y45.76914
G01 X39.98717 Y45.56569
G01 X40.10172 Y45.40800
G01 X40.11813 Y45.38123
G01 X40.17480 Y45.27000
G01 X40.18681 Y45.24102
G01 X40.19415 Y45.21049
G01 X40.21369 Y45.08717
G01 X40.21615 Y45.05588
G01 X40.21369 Y45.02459
G01 X40.19415 Y44.90130
G01 X40.18681 Y44.87079
G01 X40.17480 Y44.84181
G01 X40.11813 Y44.73058
G01 X40.10172 Y44.70381
G01 X39.98717 Y44.54613
G01 X39.88349 Y44.34268
G01 X39.81298 Y44.12556
G01 X39.77726 Y43.90003
G01 X39.77724 Y43.67176
G01 X39.81298 Y43.44623
G01 X39.88349 Y43.22914
G01 X39.98717 Y43.02569
G01 X40.10172 Y42.86800
G01 X40.11813 Y42.84123
G01 X40.17480 Y42.73000
G01 X40.18681 Y42.70102
G01 X40.19415 Y42.67049
G01 X40.21369 Y42.54717
G01 X40.21615 Y42.51588
G01 X40.21369 Y42.48459
G01 X40.19415 Y42.36130
G01 X40.18681 Y42.33079
G01 X40.17480 Y42.30181
G01 X40.11813 Y42.19058
G01 X40.10172 Y42.16381
G01 X39.98717 Y42.00613
G01 X39.88349 Y41.80268
G01 X39.81298 Y41.58556
G01 X39.77726 Y41.36003
G01 X39.77724 Y41.13176
G01 X39.81298 Y40.90626
G01 X39.88349 Y40.68914
G01 X39.98717 Y40.48569
G01 X40.10172 Y40.32800
G01 X40.11813 Y40.30123
G01 X40.17480 Y40.19000
G01 X40.18681 Y40.16102
G01 X40.19415 Y40.13049
G01 X40.21369 Y40.00717
G01 X40.21615 Y39.97588
G01 X40.21369 Y39.94459
G01 X40.19415 Y39.82130
G01 X40.18681 Y39.79079
G01 X40.17480 Y39.76181
G01 X40.11813 Y39.65058
G01 X40.10172 Y39.62381
G01 X39.98717 Y39.46613
G01 X39.88349 Y39.26268
G01 X39.81298 Y39.04556
G01 X39.77726 Y38.82003
G01 X39.77724 Y38.59176
G01 X39.81298 Y38.36623
G01 X39.88349 Y38.14914
G01 X39.98717 Y37.94569
G01 X40.10205 Y37.78757
G01 X40.11844 Y37.76080
G01 X40.17510 Y37.64957
G01 X40.18712 Y37.62059
G01 X40.19446 Y37.59009
G01 X40.21399 Y37.46679
G01 X40.21646 Y37.43548
G01 X40.21399 Y37.40418
G01 X40.19446 Y37.28089
G01 X40.18712 Y37.25041
G01 X40.17513 Y37.22143
G01 X40.11846 Y37.11018
G01 X40.10205 Y37.08338
G01 X39.98760 Y36.92585
G01 X39.90609 Y36.76591
G01 X40.36710 Y36.76588
G01 X40.47208 Y36.89382
G01 X40.48526 Y36.90835
G01 X40.49982 Y36.92153
G01 X40.62862 Y37.02725
G01 X40.66121 Y37.04901
G01 X40.80817 Y37.12758
G01 X40.82590 Y37.13596
G01 X40.84439 Y37.14259
G01 X41.00386 Y37.19095
G01 X41.04231 Y37.19860
G01 X41.20812 Y37.21493
G01 X41.22773 Y37.21589
G01 X42.52773 Y37.21589
G01 X42.54734 Y37.21493
G01 X42.71317 Y37.19860
G01 X42.75160 Y37.19095
G01 X42.91107 Y37.14259
G01 X42.94729 Y37.12758
G01 X43.09425 Y37.04901
G01 X43.11109 Y37.03893
G01 X43.12684 Y37.02725
G01 X43.25564 Y36.92153
G01 X43.28338 Y36.89382
G01 X43.38836 Y36.76588
G01 X43.39890 Y36.76591
G01 X43.39994 Y36.76616
G01 X43.52323 Y36.78569
G01 X43.55455 Y36.78816
G01 X44.19940 Y36.78813
G01 X44.30438 Y36.91605
G01 X44.31754 Y36.93060
G01 X44.33209 Y36.94378
G01 X44.46090 Y37.04947
G01 X44.49351 Y37.07127
G01 X44.64045 Y37.14980
G01 X44.65820 Y37.15821
G01 X44.67667 Y37.16481
G01 X44.83613 Y37.21320
G01 X44.87459 Y37.22085
G01 X45.04040 Y37.23718
G01 X45.06001 Y37.23814
G01 X46.36000 Y37.23814
G01 X46.37961 Y37.23718
G01 X46.54545 Y37.22085
G01 X46.58391 Y37.21320
G01 X46.74334 Y37.16481
G01 X46.77956 Y37.14980
G01 X46.92653 Y37.07127
G01 X46.94337 Y37.06118
G01 X46.95911 Y37.04947
G01 X47.08794 Y36.94378
G01 X47.11565 Y36.91605
G01 X47.22063 Y36.78813
G01 X47.47839 Y36.78813
G01 X47.32388 Y36.98813
G01 X47.31522 Y36.98816
G01 X47.27026 Y37.04292
G01 X47.21482 Y37.09837
G01 X47.08601 Y37.20408
G01 X47.05447 Y37.22748
G01 X47.02081 Y37.24764
G01 X46.87385 Y37.32620
G01 X46.83836 Y37.34299
G01 X46.80141 Y37.35620
G01 X46.79508 Y37.35813
G01 X46.99693 Y37.35813
G01 X46.99782 Y37.35389
G01 X46.99693 Y37.35813
G01 X47.01339 Y37.35950
G01 X47.02942 Y37.36357
G01 X47.04453 Y37.37020
G01 X47.05838 Y37.37924
G01 X47.07052 Y37.39042
G01 X47.07540 Y37.38447
G01 X47.07052 Y37.39042
G01 X47.08068 Y37.40347
G01 X47.13318 Y37.48384
G01 X47.15424 Y37.51343
G01 X47.15678 Y37.51719
G01 X47.18192 Y37.55613
G01 X47.17623 Y37.52031
G01 X47.17131 Y37.45770
G01 X47.17623 Y37.39512
G01 X47.19577 Y37.27182
G01 X47.21042 Y37.21081
G01 X47.23445 Y37.15285
G01 X47.29112 Y37.04162
G01 X47.32388 Y36.98813
G01 X47.47839 Y36.78813
G01 X47.68169 Y36.78813
G01 X47.60018 Y36.94810
G01 X47.48573 Y37.10563
G01 X47.46932 Y37.13240
G01 X47.41266 Y37.24363
G01 X47.40064 Y37.27261
G01 X47.39330 Y37.30312
G01 X47.37377 Y37.42641
G01 X47.37131 Y37.45770
G01 X47.37377 Y37.48902
G01 X47.39330 Y37.61231
G01 X47.40064 Y37.64282
G01 X47.41266 Y37.67182
G01 X47.46935 Y37.78307
G01 X47.48573 Y37.80982
G01 X47.60062 Y37.96791
G01 X47.70427 Y38.17136
G01 X47.77484 Y38.38853
G01 X47.81055 Y38.61401
G01 X47.81055 Y38.84228
G01 X47.77484 Y39.06776
G01 X47.70427 Y39.28493
G01 X47.60059 Y39.48841
G01 X47.48604 Y39.64606
G01 X47.46965 Y39.67281
G01 X47.41296 Y39.78404
G01 X47.40095 Y39.81304
G01 X47.39361 Y39.84360
G01 X47.37410 Y39.96689
G01 X47.37164 Y39.99813
G01 X47.37410 Y40.02940
G01 X47.39361 Y40.15269
G01 X47.40095 Y40.18325
G01 X47.41296 Y40.21225
G01 X47.46965 Y40.32348
G01 X47.48604 Y40.35023
G01 X47.60059 Y40.50789
G01 X47.70427 Y40.71136
G01 X47.77484 Y40.92853
G01 X47.81055 Y41.15401
G01 X47.81055 Y41.38228
G01 X47.77484 Y41.60776
G01 X47.70427 Y41.82493
G01 X47.60062 Y42.02838
G01 X47.48604 Y42.18606
G01 X47.46965 Y42.21281
G01 X47.41296 Y42.32404
G01 X47.40095 Y42.35304
G01 X47.39361 Y42.38360
G01 X47.37410 Y42.50689
G01 X47.37164 Y42.53813
G01 X47.37410 Y42.56940
G01 X47.39361 Y42.69269
G01 X47.40095 Y42.72325
G01 X47.41296 Y42.75225
G01 X47.46965 Y42.86348
G01 X47.48604 Y42.89023
G01 X47.60062 Y43.04791
G01 X47.70427 Y43.25136
G01 X47.77484 Y43.46853
G01 X47.81055 Y43.69401
G01 X47.81055 Y43.92228
G01 X47.77484 Y44.14776
G01 X47.70427 Y44.36493
G01 X47.60059 Y44.56841
G01 X47.48604 Y44.72606
G01 X47.46965 Y44.75281
G01 X47.41296 Y44.86404
G01 X47.40095 Y44.89304
G01 X47.39361 Y44.92360
G01 X47.37410 Y45.04689
G01 X47.37164 Y45.07813
G01 X47.37410 Y45.10940
G01 X47.39361 Y45.23269
G01 X47.40095 Y45.26325
G01 X47.41296 Y45.29225
G01 X47.46965 Y45.40348
G01 X47.48604 Y45.43023
G01 X47.60059 Y45.58789
G01 X47.70427 Y45.79136
G01 X47.77484 Y46.00853
G01 X47.81055 Y46.23401
G01 X47.81055 Y46.46228
G01 X47.77484 Y46.68776
G01 X47.70427 Y46.90493
G01 X47.60059 Y47.10841
G01 X47.48604 Y47.26606
G01 X47.46965 Y47.29281
G01 X47.41296 Y47.40404
G01 X47.40095 Y47.43304
G01 X47.39361 Y47.46360
G01 X47.37410 Y47.58689
G01 X47.37164 Y47.61813
G01 X47.37410 Y47.64940
G01 X47.39361 Y47.77269
G01 X47.40095 Y47.80325
G01 X47.41296 Y47.83225
G01 X47.46965 Y47.94348
G01 X47.48604 Y47.97023
G01 X47.60062 Y48.12791
G01 X47.70427 Y48.33136
G01 X47.77484 Y48.54853
G01 X47.81055 Y48.77401
G01 X47.81055 Y49.00228
G01 X47.77484 Y49.22776
G01 X47.70427 Y49.44493
G01 X47.60062 Y49.64838
G01 X47.48604 Y49.80606
G01 X47.46965 Y49.83281
G01 X47.41296 Y49.94404
G01 X47.40095 Y49.97304
G01 X47.39361 Y50.00360
G01 X47.37410 Y50.12689
G01 X47.37164 Y50.15813
G01 X47.37410 Y50.18940
G01 X47.39361 Y50.31269
G01 X47.40095 Y50.34325
G01 X47.41296 Y50.37225
G01 X47.46965 Y50.48348
G01 X47.48604 Y50.51023
G01 X47.60059 Y50.66789
G01 X47.70427 Y50.87136
G01 X47.77484 Y51.08853
G01 X47.81055 Y51.31401
G01 X47.81055 Y51.54228
G01 X47.77484 Y51.76776
G01 X47.70427 Y51.98493
G01 X47.60059 Y52.18841
G01 X47.48604 Y52.34606
G01 X47.46965 Y52.37281
G01 X47.41296 Y52.48404
G01 X47.40095 Y52.51304
G01 X47.39361 Y52.54360
G01 X47.37410 Y52.66689
G01 X47.37164 Y52.69813
G01 X47.37410 Y52.72940
G01 X47.39361 Y52.85269
G01 X47.40095 Y52.88325
G01 X47.41296 Y52.91225
G01 X47.46965 Y53.02348
G01 X47.48604 Y53.05023
G01 X47.60059 Y53.20789
G01 X47.70427 Y53.41136
G01 X47.77484 Y53.62853
G01 X47.81055 Y53.85401
G01 X47.81055 Y54.08228
G01 X47.77484 Y54.30776
G01 X47.70427 Y54.52493
G01 X47.60062 Y54.72838
G01 X47.48604 Y54.88606
G01 X47.46965 Y54.91281
G01 X47.41296 Y55.02404
G01 X47.40095 Y55.05304
G01 X47.39361 Y55.08360
G01 X47.37410 Y55.20689
G01 X47.37164 Y55.23813
G01 X47.37410 Y55.26940
G01 X47.39361 Y55.39269
G01 X47.40095 Y55.42325
G01 X47.41296 Y55.45225
G01 X47.46965 Y55.56348
G01 X47.48604 Y55.59023
G01 X47.60062 Y55.74791
G01 X47.70427 Y55.95136
G01 X47.77484 Y56.16853
G01 X47.81055 Y56.39401
G01 X47.81055 Y56.62228
G01 X47.77484 Y56.84776
G01 X47.70427 Y57.06493
G01 X47.60059 Y57.26841
G01 X47.48604 Y57.42606
G01 X47.46965 Y57.45281
G01 X47.41296 Y57.56404
G01 X47.40095 Y57.59304
G01 X47.39361 Y57.62360
G01 X47.37410 Y57.74689
G01 X47.37164 Y57.77813
G01 X47.37410 Y57.80940
G01 X47.39361 Y57.93269
G01 X47.40095 Y57.96325
G01 X47.41296 Y57.99225
G01 X47.46965 Y58.10348
G01 X47.48604 Y58.13023
G01 X47.60059 Y58.28789
G01 X47.70427 Y58.49136
G01 X47.77484 Y58.70853
G01 X47.81055 Y58.93401
G01 X47.81055 Y59.16228
G01 X47.77484 Y59.38776
G01 X47.70427 Y59.60493
G01 X47.60059 Y59.80841
G01 X47.48604 Y59.96606
G01 X47.46965 Y59.99281
G01 X47.41296 Y60.10404
G01 X47.40095 Y60.13304
G01 X47.39361 Y60.16360
G01 X47.37410 Y60.28689
G01 X47.37164 Y60.31813
G01 X47.37410 Y60.34940
G01 X47.39361 Y60.47269
G01 X47.40095 Y60.50325
G01 X47.41296 Y60.53225
G01 X47.46965 Y60.64348
G01 X47.48604 Y60.67023
G01 X47.60062 Y60.82791
G01 X47.70427 Y61.03136
G01 X47.77484 Y61.24853
G01 X47.81055 Y61.47401
G01 X47.81055 Y61.70228
G01 X47.77484 Y61.92776
G01 X47.70427 Y62.14493
G01 X47.60062 Y62.34838
G01 X47.48604 Y62.50606
G01 X47.46965 Y62.53281
G01 X47.41296 Y62.64404
G01 X47.40095 Y62.67304
G01 X47.39361 Y62.70360
G01 X47.37410 Y62.82689
G01 X47.37164 Y62.85813
G01 X47.37410 Y62.88940
G01 X47.39361 Y63.01269
G01 X47.40095 Y63.04325
G01 X47.41296 Y63.07225
G01 X47.46965 Y63.18348
G01 X47.48604 Y63.21023
G01 X47.60059 Y63.36789
G01 X47.70427 Y63.57136
G01 X47.77484 Y63.78853
G01 X47.81055 Y64.01401
G01 X47.81055 Y64.24228
G01 X47.77484 Y64.46776
G01 X47.70427 Y64.68493
G01 X47.60059 Y64.88841
G01 X47.48604 Y65.04606
G01 X47.46965 Y65.07281
G01 X47.41296 Y65.18404
G01 X47.40095 Y65.21304
G01 X47.39361 Y65.24360
G01 X47.37410 Y65.36689
G01 X47.37164 Y65.39813
G01 X47.37410 Y65.42940
G01 X47.39361 Y65.55269
G01 X47.40095 Y65.58325
G01 X47.41296 Y65.61225
G01 X47.46965 Y65.72348
G01 X47.48604 Y65.75023
G01 X47.60059 Y65.90789
G01 X47.70427 Y66.11136
G01 X47.77484 Y66.32853
G01 X47.81055 Y66.55401
G01 X47.81055 Y66.78228
G01 X47.77484 Y67.00776
G01 X47.70427 Y67.22493
G01 X47.60062 Y67.42838
G01 X47.48604 Y67.58606
G01 X47.46965 Y67.61281
G01 X47.41296 Y67.72404
G01 X47.40095 Y67.75304
G01 X47.39361 Y67.78360
G01 X47.37410 Y67.90689
G01 X47.37164 Y67.93813
G01 X47.37410 Y67.96940
G01 X47.39361 Y68.09269
G01 X47.40095 Y68.12325
G01 X47.41296 Y68.15225
G01 X47.46965 Y68.26348
G01 X47.48604 Y68.29023
G01 X47.60062 Y68.44791
G01 X47.70427 Y68.65136
G01 X47.77484 Y68.86853
G01 X47.81055 Y69.09401
G01 X47.81055 Y69.32228
G01 X47.77484 Y69.54776
G01 X47.70427 Y69.76493
G01 X47.60062 Y69.96838
G01 X47.52391 Y70.07394
G01 X47.50753 Y70.10069
G01 X47.45083 Y70.21192
G01 X47.43882 Y70.24092
G01 X47.43148 Y70.27143
G01 X47.41195 Y70.39472
G01 X47.40948 Y70.42601
G01 X47.41195 Y70.45733
G01 X47.43148 Y70.58062
G01 X47.43882 Y70.61113
G01 X47.45083 Y70.64013
G01 X47.50753 Y70.75136
G01 X47.52391 Y70.77811
G01 X47.54428 Y70.80193
G01 X47.63254 Y70.89022
G01 X47.56737 Y70.82505
G01 X47.32061 Y70.82502
G01 X47.09612 Y70.82502
G01 X47.09447 Y70.82179
G01 X47.05840 Y70.73477
G01 X47.04095 Y70.66205
G01 X47.05840 Y70.73477
G01 X47.09447 Y70.82179
G01 X47.09612 Y70.82502
G01 X46.95203 Y70.82502
G01 X46.98881 Y70.75423
G01 X47.01421 Y70.71113
G01 X47.01591 Y70.70813
G01 X47.04095 Y70.66205
G01 X47.07324 Y70.60262
G01 X47.07494 Y70.59937
G01 X47.08980 Y70.56945
G01 X47.16699 Y70.43439
G01 X47.18888 Y70.40109
G01 X47.19051 Y70.39855
G01 X47.21522 Y70.35837
G01 X47.22515 Y70.34222
G01 X47.22675 Y70.33955
G01 X47.25937 Y70.28260
G01 X47.31497 Y70.19728
G01 X47.33440 Y70.17100
G01 X47.33605 Y70.16868
G01 X47.36348 Y70.12924
G01 X47.36508 Y70.12685
G01 X47.40654 Y70.06350
G01 X47.44105 Y70.01499
G01 X47.45581 Y69.99589
G01 X47.45873 Y69.99193
G01 X47.50377 Y69.92731
G01 X47.50646 Y69.92322
G01 X47.51161 Y69.91499
G01 X47.51187 Y69.91514
G01 X47.51161 Y69.91499
G01 X47.51553 Y69.90818
G01 X47.58815 Y69.76902
G01 X47.58926 Y69.76683
G01 X47.60666 Y69.73142
G01 X47.60732 Y69.73170
G01 X47.60666 Y69.73142
G01 X47.61154 Y69.71964
G01 X47.62429 Y69.68230
G01 X47.62505 Y69.67996
G01 X47.67209 Y69.53020
G01 X47.67415 Y69.52261
G01 X47.67631 Y69.51319
G01 X47.67715 Y69.51339
G01 X47.67631 Y69.51319
G01 X47.67727 Y69.50839
G01 X47.69114 Y69.43087
G01 X47.69188 Y69.42601
G01 X47.70562 Y69.31895
G01 X47.70631 Y69.31115
G01 X47.70920 Y69.25238
G01 X47.70930 Y69.24748
G01 X47.71024 Y69.24750
G01 X47.70930 Y69.24748
G01 X47.70930 Y69.16881
G01 X47.70920 Y69.16391
G01 X47.70631 Y69.10516
G01 X47.70562 Y69.09734
G01 X47.69188 Y68.99028
G01 X47.69114 Y68.98543
G01 X47.69213 Y68.98527
G01 X47.69114 Y68.98543
G01 X47.67727 Y68.90790
G01 X47.67631 Y68.90310
G01 X47.67415 Y68.89368
G01 X47.67209 Y68.88609
G01 X47.62505 Y68.73633
G01 X47.62429 Y68.73399
G01 X47.61154 Y68.69665
G01 X47.61253 Y68.69625
G01 X47.61154 Y68.69665
G01 X47.60666 Y68.68487
G01 X47.58926 Y68.64946
G01 X47.58815 Y68.64728
G01 X47.51553 Y68.50811
G01 X47.51161 Y68.50130
G01 X47.50646 Y68.49307
G01 X47.50689 Y68.49282
G01 X47.50646 Y68.49307
G01 X47.50377 Y68.48898
G01 X47.45873 Y68.42436
G01 X47.45581 Y68.42040
G01 X47.40148 Y68.35004
G01 X47.36714 Y68.30181
G01 X47.36115 Y68.29267
G01 X47.35835 Y68.28860
G01 X47.30984 Y68.22188
G01 X47.30687 Y68.21802
G01 X47.28954 Y68.19648
G01 X47.21398 Y68.08596
G01 X47.21329 Y68.08477
G01 X47.21080 Y68.08070
G01 X47.18223 Y68.03638
G01 X47.17656 Y68.00067
G01 X47.17164 Y67.93813
G01 X47.17656 Y67.87562
G01 X47.18223 Y67.83991
G01 X47.17656 Y67.87562
G01 X47.17164 Y67.93813
G01 X47.17656 Y68.00067
G01 X47.18223 Y68.03638
G01 X47.15688 Y67.99709
G01 X47.15431 Y67.99330
G01 X47.13359 Y67.96419
G01 X47.11659 Y67.93816
G01 X47.13359 Y67.91210
G01 X47.15431 Y67.88299
G01 X47.15688 Y67.87920
G01 X47.18223 Y67.83991
G01 X47.21080 Y67.79559
G01 X47.21329 Y67.79152
G01 X47.21400 Y67.79030
G01 X47.28954 Y67.67981
G01 X47.30687 Y67.65828
G01 X47.30984 Y67.65441
G01 X47.35835 Y67.58769
G01 X47.36115 Y67.58362
G01 X47.36696 Y67.57473
G01 X47.40148 Y67.52625
G01 X47.45581 Y67.45589
G01 X47.45873 Y67.45193
G01 X47.50377 Y67.38731
G01 X47.50646 Y67.38322
G01 X47.50686 Y67.38345
G01 X47.50646 Y67.38322
G01 X47.51161 Y67.37499
G01 X47.51553 Y67.36818
G01 X47.58815 Y67.22902
G01 X47.58926 Y67.22683
G01 X47.60666 Y67.19142
G01 X47.60735 Y67.19170
G01 X47.60666 Y67.19142
G01 X47.61154 Y67.17964
G01 X47.62429 Y67.14230
G01 X47.62505 Y67.13996
G01 X47.67209 Y66.99020
G01 X47.67415 Y66.98261
G01 X47.67631 Y66.97319
G01 X47.67715 Y66.97339
G01 X47.67631 Y66.97319
G01 X47.67727 Y66.96839
G01 X47.69114 Y66.89087
G01 X47.69188 Y66.88601
G01 X47.70562 Y66.77895
G01 X47.70631 Y66.77115
G01 X47.70920 Y66.71238
G01 X47.70930 Y66.70748
G01 X47.71040 Y66.70748
G01 X47.70930 Y66.70748
G01 X47.70930 Y66.62881
G01 X47.70920 Y66.62391
G01 X47.70631 Y66.56514
G01 X47.70562 Y66.55731
G01 X47.69188 Y66.45028
G01 X47.69140 Y66.44687
G01 X47.68248 Y66.39242
G01 X47.68355 Y66.39221
G01 X47.68248 Y66.39242
G01 X47.68157 Y66.38759
G01 X47.67661 Y66.36453
G01 X47.67631 Y66.36310
G01 X47.67415 Y66.35368
G01 X47.67209 Y66.34611
G01 X47.62505 Y66.19633
G01 X47.62429 Y66.19399
G01 X47.61154 Y66.15665
G01 X47.61233 Y66.15632
G01 X47.61154 Y66.15665
G01 X47.60666 Y66.14487
G01 X47.58926 Y66.10946
G01 X47.58815 Y66.10728
G01 X47.51553 Y65.96811
G01 X47.51161 Y65.96130
G01 X47.50646 Y65.95307
G01 X47.50689 Y65.95282
G01 X47.50646 Y65.95307
G01 X47.50377 Y65.94898
G01 X47.45873 Y65.88436
G01 X47.45581 Y65.88040
G01 X47.40166 Y65.81032
G01 X47.36696 Y65.76153
G01 X47.36115 Y65.75267
G01 X47.35835 Y65.74860
G01 X47.30984 Y65.68188
G01 X47.30687 Y65.67802
G01 X47.28954 Y65.65648
G01 X47.21398 Y65.54596
G01 X47.21329 Y65.54477
G01 X47.21080 Y65.54070
G01 X47.18223 Y65.49638
G01 X47.17656 Y65.46067
G01 X47.17164 Y65.39813
G01 X47.17656 Y65.33562
G01 X47.18223 Y65.29991
G01 X47.17656 Y65.33562
G01 X47.17164 Y65.39813
G01 X47.17656 Y65.46067
G01 X47.18223 Y65.49638
G01 X47.15688 Y65.45709
G01 X47.15431 Y65.45330
G01 X47.13343 Y65.42394
G01 X47.11659 Y65.39813
G01 X47.13343 Y65.37235
G01 X47.15431 Y65.34299
G01 X47.15688 Y65.33920
G01 X47.18223 Y65.29991
G01 X47.21080 Y65.25559
G01 X47.21329 Y65.25152
G01 X47.21405 Y65.25020
G01 X47.28954 Y65.13981
G01 X47.30687 Y65.11828
G01 X47.30984 Y65.11441
G01 X47.35835 Y65.04769
G01 X47.36115 Y65.04362
G01 X47.36696 Y65.03476
G01 X47.40166 Y64.98597
G01 X47.45581 Y64.91589
G01 X47.45873 Y64.91193
G01 X47.50377 Y64.84731
G01 X47.50646 Y64.84322
G01 X47.50686 Y64.84345
G01 X47.50646 Y64.84322
G01 X47.51161 Y64.83499
G01 X47.51553 Y64.82818
G01 X47.58815 Y64.68902
G01 X47.58926 Y64.68683
G01 X47.60666 Y64.65142
G01 X47.60735 Y64.65170
G01 X47.60666 Y64.65142
G01 X47.61154 Y64.63964
G01 X47.62429 Y64.60230
G01 X47.62505 Y64.59996
G01 X47.67209 Y64.45020
G01 X47.67415 Y64.44261
G01 X47.67631 Y64.43319
G01 X47.67715 Y64.43339
G01 X47.67631 Y64.43319
G01 X47.67727 Y64.42839
G01 X47.69114 Y64.35087
G01 X47.69188 Y64.34601
G01 X47.70562 Y64.23895
G01 X47.70631 Y64.23115
G01 X47.70920 Y64.17238
G01 X47.70930 Y64.16748
G01 X47.71029 Y64.16750
G01 X47.70930 Y64.16748
G01 X47.70930 Y64.08881
G01 X47.70920 Y64.08391
G01 X47.70631 Y64.02516
G01 X47.70562 Y64.01734
G01 X47.69188 Y63.91028
G01 X47.69175 Y63.90941
G01 X47.68987 Y63.89562
G01 X47.68908 Y63.89079
G01 X47.69010 Y63.89062
G01 X47.68908 Y63.89079
G01 X47.67712 Y63.82704
G01 X47.67631 Y63.82310
G01 X47.67415 Y63.81368
G01 X47.67209 Y63.80609
G01 X47.62505 Y63.65633
G01 X47.62429 Y63.65399
G01 X47.61154 Y63.61665
G01 X47.61248 Y63.61627
G01 X47.61154 Y63.61665
G01 X47.60666 Y63.60487
G01 X47.58926 Y63.56946
G01 X47.58815 Y63.56728
G01 X47.51553 Y63.42811
G01 X47.51161 Y63.42130
G01 X47.50646 Y63.41307
G01 X47.50689 Y63.41282
G01 X47.50646 Y63.41307
G01 X47.50377 Y63.40898
G01 X47.45873 Y63.34436
G01 X47.45581 Y63.34040
G01 X47.40148 Y63.27004
G01 X47.36696 Y63.22156
G01 X47.36115 Y63.21267
G01 X47.35835 Y63.20860
G01 X47.30984 Y63.14188
G01 X47.30687 Y63.13802
G01 X47.28954 Y63.11648
G01 X47.21400 Y63.00599
G01 X47.21329 Y63.00477
G01 X47.21080 Y63.00070
G01 X47.18223 Y62.95638
G01 X47.17656 Y62.92067
G01 X47.17164 Y62.85813
G01 X47.17656 Y62.79562
G01 X47.18223 Y62.75991
G01 X47.17656 Y62.79562
G01 X47.17164 Y62.85813
G01 X47.17656 Y62.92067
G01 X47.18223 Y62.95638
G01 X47.15688 Y62.91709
G01 X47.15431 Y62.91330
G01 X47.13359 Y62.88419
G01 X47.11659 Y62.85816
G01 X47.13359 Y62.83210
G01 X47.15431 Y62.80299
G01 X47.15688 Y62.79920
G01 X47.18223 Y62.75991
G01 X47.21080 Y62.71559
G01 X47.21329 Y62.71152
G01 X47.21398 Y62.71033
G01 X47.28954 Y62.59981
G01 X47.30687 Y62.57828
G01 X47.30984 Y62.57441
G01 X47.35835 Y62.50769
G01 X47.36115 Y62.50362
G01 X47.36714 Y62.49448
G01 X47.40148 Y62.44625
G01 X47.45581 Y62.37589
G01 X47.45873 Y62.37193
G01 X47.50377 Y62.30731
G01 X47.50646 Y62.30322
G01 X47.50686 Y62.30345
G01 X47.50646 Y62.30322
G01 X47.51161 Y62.29499
G01 X47.51553 Y62.28818
G01 X47.58815 Y62.14902
G01 X47.58926 Y62.14683
G01 X47.60666 Y62.11142
G01 X47.60735 Y62.11170
G01 X47.60666 Y62.11142
G01 X47.61154 Y62.09964
G01 X47.62429 Y62.06230
G01 X47.62505 Y62.05996
G01 X47.67209 Y61.91020
G01 X47.67415 Y61.90261
G01 X47.67631 Y61.89319
G01 X47.67715 Y61.89339
G01 X47.67631 Y61.89319
G01 X47.67727 Y61.88839
G01 X47.69114 Y61.81087
G01 X47.69188 Y61.80601
G01 X47.70562 Y61.69895
G01 X47.70631 Y61.69115
G01 X47.70920 Y61.63238
G01 X47.70930 Y61.62748
G01 X47.71040 Y61.62748
G01 X47.70930 Y61.62748
G01 X47.70930 Y61.54881
G01 X47.70920 Y61.54391
G01 X47.70631 Y61.48514
G01 X47.70562 Y61.47731
G01 X47.69188 Y61.37028
G01 X47.69140 Y61.36687
G01 X47.68248 Y61.31242
G01 X47.68355 Y61.31221
G01 X47.68248 Y61.31242
G01 X47.68157 Y61.30759
G01 X47.67661 Y61.28453
G01 X47.67631 Y61.28310
G01 X47.67415 Y61.27368
G01 X47.67209 Y61.26611
G01 X47.62505 Y61.11633
G01 X47.62429 Y61.11399
G01 X47.61154 Y61.07665
G01 X47.61233 Y61.07632
G01 X47.61154 Y61.07665
G01 X47.60666 Y61.06487
G01 X47.58926 Y61.02946
G01 X47.58815 Y61.02728
G01 X47.51553 Y60.88811
G01 X47.51161 Y60.88130
G01 X47.50646 Y60.87307
G01 X47.50689 Y60.87282
G01 X47.50646 Y60.87307
G01 X47.50377 Y60.86898
G01 X47.45873 Y60.80436
G01 X47.45581 Y60.80040
G01 X47.40166 Y60.73032
G01 X47.36699 Y60.68158
G01 X47.36115 Y60.67267
G01 X47.35835 Y60.66860
G01 X47.30984 Y60.60188
G01 X47.30687 Y60.59802
G01 X47.28954 Y60.57648
G01 X47.21398 Y60.46596
G01 X47.21329 Y60.46477
G01 X47.21080 Y60.46070
G01 X47.18223 Y60.41638
G01 X47.17656 Y60.38067
G01 X47.17164 Y60.31813
G01 X47.17656 Y60.25562
G01 X47.18223 Y60.21991
G01 X47.17656 Y60.25562
G01 X47.17164 Y60.31813
G01 X47.17656 Y60.38067
G01 X47.18223 Y60.41638
G01 X47.15688 Y60.37709
G01 X47.15431 Y60.37330
G01 X47.13343 Y60.34394
G01 X47.11659 Y60.31813
G01 X47.13359 Y60.29212
G01 X47.15431 Y60.26299
G01 X47.15688 Y60.25920
G01 X47.18223 Y60.21991
G01 X47.21080 Y60.17559
G01 X47.21329 Y60.17152
G01 X47.21405 Y60.17020
G01 X47.28954 Y60.05981
G01 X47.30687 Y60.03828
G01 X47.30984 Y60.03441
G01 X47.35835 Y59.96769
G01 X47.36115 Y59.96362
G01 X47.36696 Y59.95476
G01 X47.40166 Y59.90597
G01 X47.45581 Y59.83589
G01 X47.45873 Y59.83193
G01 X47.50377 Y59.76731
G01 X47.50646 Y59.76322
G01 X47.50686 Y59.76345
G01 X47.50646 Y59.76322
G01 X47.51161 Y59.75499
G01 X47.51553 Y59.74818
G01 X47.58815 Y59.60902
G01 X47.58926 Y59.60683
G01 X47.60666 Y59.57142
G01 X47.60740 Y59.57173
G01 X47.60666 Y59.57142
G01 X47.61154 Y59.55964
G01 X47.62429 Y59.52230
G01 X47.62505 Y59.51996
G01 X47.67209 Y59.37020
G01 X47.67430 Y59.36187
G01 X47.68050 Y59.33396
G01 X47.68134 Y59.33414
G01 X47.68050 Y59.33396
G01 X47.68152 Y59.32875
G01 X47.69135 Y59.26970
G01 X47.69188 Y59.26601
G01 X47.70562 Y59.15895
G01 X47.70631 Y59.15113
G01 X47.70920 Y59.09238
G01 X47.70930 Y59.08748
G01 X47.71019 Y59.08748
G01 X47.70930 Y59.08748
G01 X47.70930 Y59.00881
G01 X47.70920 Y59.00391
G01 X47.70631 Y58.94514
G01 X47.70562 Y58.93731
G01 X47.69188 Y58.83028
G01 X47.69114 Y58.82543
G01 X47.69213 Y58.82527
G01 X47.69114 Y58.82543
G01 X47.67727 Y58.74790
G01 X47.67631 Y58.74310
G01 X47.67415 Y58.73368
G01 X47.67209 Y58.72611
G01 X47.62505 Y58.57633
G01 X47.62429 Y58.57399
G01 X47.61154 Y58.53665
G01 X47.61253 Y58.53625
G01 X47.61154 Y58.53665
G01 X47.60666 Y58.52487
G01 X47.58926 Y58.48946
G01 X47.58815 Y58.48728
G01 X47.51553 Y58.34811
G01 X47.51161 Y58.34130
G01 X47.50646 Y58.33307
G01 X47.50689 Y58.33282
G01 X47.50646 Y58.33307
G01 X47.50377 Y58.32898
G01 X47.45873 Y58.26436
G01 X47.45581 Y58.26040
G01 X47.40166 Y58.19032
G01 X47.36696 Y58.14153
G01 X47.36115 Y58.13267
G01 X47.35835 Y58.12860
G01 X47.30984 Y58.06188
G01 X47.30687 Y58.05802
G01 X47.28954 Y58.03648
G01 X47.21405 Y57.92609
G01 X47.21329 Y57.92477
G01 X47.21080 Y57.92070
G01 X47.18223 Y57.87638
G01 X47.17656 Y57.84067
G01 X47.17164 Y57.77813
G01 X47.17656 Y57.71562
G01 X47.18223 Y57.67991
G01 X47.17656 Y57.71562
G01 X47.17164 Y57.77813
G01 X47.17656 Y57.84067
G01 X47.18223 Y57.87638
G01 X47.15688 Y57.83709
G01 X47.15431 Y57.83330
G01 X47.13359 Y57.80417
G01 X47.11659 Y57.77813
G01 X47.13343 Y57.75235
G01 X47.15431 Y57.72299
G01 X47.15688 Y57.71920
G01 X47.18223 Y57.67991
G01 X47.21080 Y57.63559
G01 X47.21329 Y57.63152
G01 X47.21398 Y57.63033
G01 X47.28954 Y57.51981
G01 X47.30687 Y57.49828
G01 X47.30984 Y57.49441
G01 X47.35835 Y57.42769
G01 X47.36115 Y57.42362
G01 X47.36699 Y57.41471
G01 X47.40166 Y57.36597
G01 X47.45581 Y57.29589
G01 X47.45873 Y57.29193
G01 X47.50377 Y57.22731
G01 X47.50646 Y57.22322
G01 X47.50686 Y57.22345
G01 X47.50646 Y57.22322
G01 X47.51161 Y57.21499
G01 X47.51553 Y57.20818
G01 X47.58815 Y57.06902
G01 X47.58926 Y57.06683
G01 X47.60666 Y57.03142
G01 X47.60735 Y57.03170
G01 X47.60666 Y57.03142
G01 X47.61154 Y57.01964
G01 X47.62429 Y56.98230
G01 X47.62505 Y56.97996
G01 X47.67209 Y56.83020
G01 X47.67415 Y56.82261
G01 X47.67631 Y56.81319
G01 X47.67715 Y56.81339
G01 X47.67631 Y56.81319
G01 X47.67727 Y56.80839
G01 X47.69114 Y56.73087
G01 X47.69188 Y56.72601
G01 X47.70562 Y56.61895
G01 X47.70631 Y56.61115
G01 X47.70920 Y56.55238
G01 X47.70930 Y56.54748
G01 X47.71040 Y56.54748
G01 X47.70930 Y56.54748
G01 X47.70930 Y56.46881
G01 X47.70920 Y56.46391
G01 X47.70631 Y56.40514
G01 X47.70562 Y56.39731
G01 X47.69188 Y56.29028
G01 X47.69140 Y56.28687
G01 X47.68248 Y56.23242
G01 X47.68355 Y56.23221
G01 X47.68248 Y56.23242
G01 X47.68157 Y56.22759
G01 X47.67661 Y56.20453
G01 X47.67631 Y56.20310
G01 X47.67415 Y56.19368
G01 X47.67209 Y56.18611
G01 X47.62505 Y56.03633
G01 X47.62429 Y56.03399
G01 X47.61154 Y55.99665
G01 X47.61233 Y55.99632
G01 X47.61154 Y55.99665
G01 X47.60666 Y55.98487
G01 X47.58926 Y55.94946
G01 X47.58815 Y55.94728
G01 X47.51553 Y55.80811
G01 X47.51161 Y55.80130
G01 X47.50646 Y55.79307
G01 X47.50689 Y55.79282
G01 X47.50646 Y55.79307
G01 X47.50377 Y55.78898
G01 X47.45873 Y55.72436
G01 X47.45581 Y55.72040
G01 X47.40148 Y55.65004
G01 X47.36714 Y55.60181
G01 X47.36115 Y55.59267
G01 X47.35835 Y55.58860
G01 X47.30984 Y55.52188
G01 X47.30687 Y55.51802
G01 X47.28954 Y55.49648
G01 X47.21398 Y55.38596
G01 X47.21329 Y55.38477
G01 X47.21080 Y55.38070
G01 X47.18223 Y55.33638
G01 X47.17656 Y55.30067
G01 X47.17164 Y55.23813
G01 X47.17656 Y55.17562
G01 X47.18223 Y55.13991
G01 X47.17656 Y55.17562
G01 X47.17164 Y55.23813
G01 X47.17656 Y55.30067
G01 X47.18223 Y55.33638
G01 X47.15688 Y55.29709
G01 X47.15431 Y55.29330
G01 X47.13359 Y55.26419
G01 X47.11659 Y55.23816
G01 X47.13359 Y55.21210
G01 X47.15431 Y55.18299
G01 X47.15688 Y55.17920
G01 X47.18223 Y55.13991
G01 X47.21080 Y55.09559
G01 X47.21329 Y55.09152
G01 X47.21400 Y55.09030
G01 X47.28954 Y54.97981
G01 X47.30687 Y54.95828
G01 X47.30984 Y54.95441
G01 X47.35835 Y54.88769
G01 X47.36115 Y54.88362
G01 X47.36696 Y54.87473
G01 X47.40148 Y54.82625
G01 X47.45581 Y54.75589
G01 X47.45873 Y54.75193
G01 X47.50377 Y54.68731
G01 X47.50646 Y54.68322
G01 X47.50686 Y54.68345
G01 X47.50646 Y54.68322
G01 X47.51161 Y54.67499
G01 X47.51553 Y54.66818
G01 X47.58815 Y54.52902
G01 X47.58926 Y54.52683
G01 X47.60666 Y54.49142
G01 X47.60735 Y54.49170
G01 X47.60666 Y54.49142
G01 X47.61154 Y54.47964
G01 X47.62429 Y54.44230
G01 X47.62505 Y54.43996
G01 X47.67209 Y54.29020
G01 X47.67415 Y54.28264
G01 X47.67631 Y54.27319
G01 X47.67715 Y54.27339
G01 X47.67631 Y54.27319
G01 X47.67727 Y54.26839
G01 X47.69114 Y54.19087
G01 X47.69188 Y54.18601
G01 X47.70562 Y54.07895
G01 X47.70631 Y54.07113
G01 X47.70920 Y54.01238
G01 X47.70930 Y54.00748
G01 X47.71024 Y54.00750
G01 X47.70930 Y54.00748
G01 X47.70930 Y53.92881
G01 X47.70920 Y53.92391
G01 X47.70631 Y53.86514
G01 X47.70562 Y53.85731
G01 X47.69188 Y53.75028
G01 X47.69114 Y53.74543
G01 X47.69213 Y53.74527
G01 X47.69114 Y53.74543
G01 X47.67730 Y53.66790
G01 X47.67631 Y53.66310
G01 X47.67415 Y53.65368
G01 X47.67209 Y53.64611
G01 X47.62505 Y53.49633
G01 X47.62429 Y53.49399
G01 X47.61154 Y53.45665
G01 X47.61253 Y53.45625
G01 X47.61154 Y53.45665
G01 X47.60666 Y53.44487
G01 X47.58926 Y53.40946
G01 X47.58815 Y53.40728
G01 X47.51553 Y53.26811
G01 X47.51161 Y53.26130
G01 X47.50646 Y53.25307
G01 X47.50689 Y53.25282
G01 X47.50646 Y53.25307
G01 X47.50377 Y53.24898
G01 X47.45873 Y53.18436
G01 X47.45581 Y53.18040
G01 X47.40166 Y53.11032
G01 X47.36696 Y53.06153
G01 X47.36115 Y53.05267
G01 X47.35835 Y53.04860
G01 X47.30984 Y52.98188
G01 X47.30687 Y52.97802
G01 X47.28954 Y52.95648
G01 X47.21398 Y52.84596
G01 X47.21329 Y52.84477
G01 X47.21080 Y52.84070
G01 X47.18223 Y52.79638
G01 X47.17656 Y52.76067
G01 X47.17164 Y52.69813
G01 X47.17656 Y52.63562
G01 X47.18223 Y52.59991
G01 X47.17656 Y52.63562
G01 X47.17164 Y52.69813
G01 X47.17656 Y52.76067
G01 X47.18223 Y52.79638
G01 X47.15688 Y52.75709
G01 X47.15431 Y52.75330
G01 X47.13343 Y52.72394
G01 X47.11659 Y52.69813
G01 X47.13343 Y52.67235
G01 X47.15431 Y52.64299
G01 X47.15688 Y52.63920
G01 X47.18223 Y52.59991
G01 X47.21080 Y52.55559
G01 X47.21329 Y52.55152
G01 X47.21405 Y52.55020
G01 X47.28954 Y52.43981
G01 X47.30687 Y52.41828
G01 X47.30984 Y52.41441
G01 X47.35835 Y52.34769
G01 X47.36115 Y52.34362
G01 X47.36696 Y52.33476
G01 X47.40166 Y52.28597
G01 X47.45581 Y52.21589
G01 X47.45873 Y52.21193
G01 X47.50377 Y52.14731
G01 X47.50646 Y52.14322
G01 X47.50686 Y52.14345
G01 X47.50646 Y52.14322
G01 X47.51161 Y52.13499
G01 X47.51553 Y52.12818
G01 X47.58815 Y51.98902
G01 X47.58926 Y51.98683
G01 X47.60666 Y51.95142
G01 X47.60735 Y51.95170
G01 X47.60666 Y51.95142
G01 X47.61154 Y51.93964
G01 X47.62429 Y51.90230
G01 X47.62505 Y51.89996
G01 X47.67209 Y51.75020
G01 X47.67415 Y51.74261
G01 X47.67631 Y51.73319
G01 X47.67715 Y51.73339
G01 X47.67631 Y51.73319
G01 X47.67727 Y51.72839
G01 X47.69114 Y51.65087
G01 X47.69188 Y51.64601
G01 X47.70562 Y51.53895
G01 X47.70631 Y51.53115
G01 X47.70920 Y51.47238
G01 X47.70930 Y51.46748
G01 X47.71024 Y51.46750
G01 X47.70930 Y51.46748
G01 X47.70930 Y51.38881
G01 X47.70920 Y51.38391
G01 X47.70631 Y51.32519
G01 X47.70562 Y51.31736
G01 X47.69188 Y51.21028
G01 X47.69112 Y51.20543
G01 X47.69211 Y51.20527
G01 X47.69112 Y51.20543
G01 X47.67727 Y51.12790
G01 X47.67631 Y51.12310
G01 X47.67412 Y51.11366
G01 X47.67207 Y51.10609
G01 X47.62505 Y50.95633
G01 X47.62429 Y50.95399
G01 X47.61154 Y50.91665
G01 X47.61253 Y50.91625
G01 X47.61154 Y50.91665
G01 X47.60666 Y50.90487
G01 X47.58926 Y50.86946
G01 X47.58815 Y50.86728
G01 X47.51553 Y50.72811
G01 X47.51161 Y50.72130
G01 X47.50646 Y50.71307
G01 X47.50689 Y50.71282
G01 X47.50646 Y50.71307
G01 X47.50377 Y50.70898
G01 X47.45873 Y50.64436
G01 X47.45581 Y50.64040
G01 X47.40148 Y50.57004
G01 X47.36696 Y50.52156
G01 X47.36115 Y50.51267
G01 X47.35835 Y50.50860
G01 X47.30984 Y50.44188
G01 X47.30687 Y50.43802
G01 X47.28954 Y50.41648
G01 X47.21400 Y50.30599
G01 X47.21329 Y50.30477
G01 X47.21080 Y50.30070
G01 X47.18223 Y50.25638
G01 X47.17656 Y50.22067
G01 X47.17164 Y50.15813
G01 X47.17656 Y50.09562
G01 X47.18223 Y50.05991
G01 X47.17656 Y50.09562
G01 X47.17164 Y50.15813
G01 X47.17656 Y50.22067
G01 X47.18223 Y50.25638
G01 X47.15688 Y50.21709
G01 X47.15431 Y50.21330
G01 X47.13359 Y50.18419
G01 X47.11659 Y50.15816
G01 X47.13359 Y50.13210
G01 X47.15431 Y50.10299
G01 X47.15688 Y50.09920
G01 X47.18223 Y50.05991
G01 X47.21080 Y50.01559
G01 X47.21329 Y50.01152
G01 X47.21398 Y50.01033
G01 X47.28954 Y49.89981
G01 X47.30687 Y49.87828
G01 X47.30984 Y49.87441
G01 X47.35835 Y49.80769
G01 X47.36115 Y49.80362
G01 X47.36714 Y49.79448
G01 X47.40148 Y49.74625
G01 X47.45581 Y49.67589
G01 X47.45873 Y49.67193
G01 X47.50377 Y49.60731
G01 X47.50646 Y49.60322
G01 X47.50686 Y49.60345
G01 X47.50646 Y49.60322
G01 X47.51161 Y49.59499
G01 X47.51553 Y49.58818
G01 X47.58815 Y49.44902
G01 X47.58926 Y49.44683
G01 X47.60666 Y49.41142
G01 X47.60735 Y49.41170
G01 X47.60666 Y49.41142
G01 X47.61154 Y49.39964
G01 X47.62429 Y49.36230
G01 X47.62505 Y49.35996
G01 X47.67209 Y49.21020
G01 X47.67415 Y49.20261
G01 X47.67631 Y49.19319
G01 X47.67715 Y49.19339
G01 X47.67631 Y49.19319
G01 X47.67727 Y49.18839
G01 X47.69114 Y49.11087
G01 X47.69188 Y49.10601
G01 X47.70562 Y48.99895
G01 X47.70631 Y48.99115
G01 X47.70920 Y48.93238
G01 X47.70930 Y48.92748
G01 X47.71024 Y48.92750
G01 X47.70930 Y48.92748
G01 X47.70930 Y48.84881
G01 X47.70920 Y48.84391
G01 X47.70631 Y48.78519
G01 X47.70562 Y48.77736
G01 X47.69188 Y48.67028
G01 X47.69112 Y48.66545
G01 X47.69211 Y48.66527
G01 X47.69112 Y48.66545
G01 X47.67727 Y48.58790
G01 X47.67631 Y48.58310
G01 X47.67412 Y48.57366
G01 X47.67207 Y48.56606
G01 X47.62505 Y48.41633
G01 X47.62429 Y48.41399
G01 X47.61154 Y48.37665
G01 X47.61253 Y48.37625
G01 X47.61154 Y48.37665
G01 X47.60666 Y48.36487
G01 X47.58926 Y48.32946
G01 X47.58815 Y48.32728
G01 X47.51553 Y48.18811
G01 X47.51161 Y48.18130
G01 X47.50646 Y48.17307
G01 X47.50689 Y48.17282
G01 X47.50646 Y48.17307
G01 X47.50377 Y48.16898
G01 X47.45873 Y48.10436
G01 X47.45581 Y48.10040
G01 X47.40166 Y48.03032
G01 X47.36699 Y47.98158
G01 X47.36115 Y47.97267
G01 X47.35835 Y47.96860
G01 X47.30984 Y47.90188
G01 X47.30687 Y47.89802
G01 X47.28954 Y47.87648
G01 X47.21398 Y47.76596
G01 X47.21329 Y47.76477
G01 X47.21080 Y47.76070
G01 X47.18223 Y47.71638
G01 X47.17656 Y47.68067
G01 X47.17164 Y47.61813
G01 X47.17656 Y47.55562
G01 X47.18223 Y47.51991
G01 X47.17656 Y47.55562
G01 X47.17164 Y47.61813
G01 X47.17656 Y47.68067
G01 X47.18223 Y47.71638
G01 X47.15688 Y47.67709
G01 X47.15431 Y47.67330
G01 X47.13343 Y47.64394
G01 X47.11659 Y47.61813
G01 X47.13359 Y47.59212
G01 X47.15431 Y47.56299
G01 X47.15688 Y47.55920
G01 X47.18223 Y47.51991
G01 X47.21080 Y47.47559
G01 X47.21329 Y47.47152
G01 X47.21405 Y47.47020
G01 X47.28954 Y47.35981
G01 X47.30687 Y47.33828
G01 X47.30984 Y47.33441
G01 X47.35835 Y47.26769
G01 X47.36115 Y47.26362
G01 X47.36696 Y47.25476
G01 X47.40166 Y47.20597
G01 X47.45581 Y47.13589
G01 X47.45873 Y47.13193
G01 X47.50377 Y47.06731
G01 X47.50646 Y47.06322
G01 X47.50686 Y47.06345
G01 X47.50646 Y47.06322
G01 X47.51161 Y47.05499
G01 X47.51553 Y47.04818
G01 X47.58815 Y46.90902
G01 X47.58926 Y46.90683
G01 X47.60666 Y46.87142
G01 X47.60735 Y46.87170
G01 X47.60666 Y46.87142
G01 X47.61154 Y46.85964
G01 X47.62429 Y46.82230
G01 X47.62505 Y46.81996
G01 X47.67209 Y46.67020
G01 X47.67415 Y46.66261
G01 X47.67631 Y46.65319
G01 X47.67715 Y46.65339
G01 X47.67631 Y46.65319
G01 X47.67727 Y46.64839
G01 X47.69114 Y46.57087
G01 X47.69188 Y46.56601
G01 X47.70562 Y46.45895
G01 X47.70631 Y46.45115
G01 X47.70920 Y46.39238
G01 X47.70930 Y46.38748
G01 X47.71040 Y46.38748
G01 X47.70930 Y46.38748
G01 X47.70930 Y46.30881
G01 X47.70920 Y46.30391
G01 X47.70631 Y46.24514
G01 X47.70562 Y46.23731
G01 X47.69188 Y46.13028
G01 X47.69140 Y46.12687
G01 X47.68248 Y46.07242
G01 X47.68355 Y46.07221
G01 X47.68248 Y46.07242
G01 X47.68157 Y46.06759
G01 X47.67661 Y46.04453
G01 X47.67631 Y46.04310
G01 X47.67415 Y46.03368
G01 X47.67209 Y46.02611
G01 X47.62505 Y45.87633
G01 X47.62429 Y45.87399
G01 X47.61154 Y45.83665
G01 X47.61233 Y45.83632
G01 X47.61154 Y45.83665
G01 X47.60666 Y45.82487
G01 X47.58926 Y45.78946
G01 X47.58815 Y45.78728
G01 X47.51553 Y45.64811
G01 X47.51161 Y45.64130
G01 X47.50646 Y45.63307
G01 X47.50689 Y45.63282
G01 X47.50646 Y45.63307
G01 X47.50377 Y45.62898
G01 X47.45873 Y45.56436
G01 X47.45581 Y45.56040
G01 X47.40166 Y45.49032
G01 X47.36696 Y45.44153
G01 X47.36115 Y45.43267
G01 X47.35835 Y45.42860
G01 X47.30984 Y45.36188
G01 X47.30687 Y45.35802
G01 X47.28954 Y45.33648
G01 X47.21405 Y45.22609
G01 X47.21329 Y45.22477
G01 X47.21080 Y45.22070
G01 X47.18223 Y45.17638
G01 X47.17656 Y45.14067
G01 X47.17164 Y45.07813
G01 X47.17656 Y45.01562
G01 X47.18223 Y44.97991
G01 X47.17656 Y45.01562
G01 X47.17164 Y45.07813
G01 X47.17656 Y45.14067
G01 X47.18223 Y45.17638
G01 X47.15688 Y45.13709
G01 X47.15431 Y45.13330
G01 X47.13359 Y45.10417
G01 X47.11659 Y45.07813
G01 X47.13343 Y45.05235
G01 X47.15431 Y45.02299
G01 X47.15688 Y45.01920
G01 X47.18223 Y44.97991
G01 X47.21080 Y44.93559
G01 X47.21329 Y44.93152
G01 X47.21398 Y44.93033
G01 X47.28954 Y44.81981
G01 X47.30687 Y44.79828
G01 X47.30984 Y44.79441
G01 X47.35835 Y44.72769
G01 X47.36115 Y44.72362
G01 X47.36699 Y44.71471
G01 X47.40166 Y44.66597
G01 X47.45581 Y44.59589
G01 X47.45873 Y44.59193
G01 X47.50377 Y44.52731
G01 X47.50646 Y44.52322
G01 X47.50686 Y44.52345
G01 X47.50646 Y44.52322
G01 X47.51161 Y44.51499
G01 X47.51553 Y44.50818
G01 X47.58815 Y44.36902
G01 X47.58926 Y44.36683
G01 X47.60666 Y44.33142
G01 X47.60735 Y44.33170
G01 X47.60666 Y44.33142
G01 X47.61154 Y44.31964
G01 X47.62429 Y44.28230
G01 X47.62505 Y44.27996
G01 X47.67209 Y44.13020
G01 X47.67415 Y44.12261
G01 X47.67631 Y44.11319
G01 X47.67715 Y44.11339
G01 X47.67631 Y44.11319
G01 X47.67727 Y44.10839
G01 X47.69114 Y44.03087
G01 X47.69188 Y44.02601
G01 X47.70562 Y43.91895
G01 X47.70631 Y43.91115
G01 X47.70920 Y43.85238
G01 X47.70930 Y43.84748
G01 X47.71040 Y43.84748
G01 X47.70930 Y43.84748
G01 X47.70930 Y43.76881
G01 X47.70920 Y43.76391
G01 X47.70631 Y43.70514
G01 X47.70562 Y43.69731
G01 X47.69188 Y43.59028
G01 X47.69140 Y43.58687
G01 X47.68248 Y43.53242
G01 X47.68355 Y43.53221
G01 X47.68248 Y43.53242
G01 X47.68157 Y43.52759
G01 X47.67661 Y43.50453
G01 X47.67631 Y43.50310
G01 X47.67415 Y43.49368
G01 X47.67209 Y43.48611
G01 X47.62505 Y43.33633
G01 X47.62429 Y43.33399
G01 X47.61154 Y43.29665
G01 X47.61233 Y43.29632
G01 X47.61154 Y43.29665
G01 X47.60666 Y43.28487
G01 X47.58926 Y43.24946
G01 X47.58815 Y43.24728
G01 X47.51553 Y43.10811
G01 X47.51161 Y43.10130
G01 X47.50646 Y43.09307
G01 X47.50689 Y43.09282
G01 X47.50646 Y43.09307
G01 X47.50377 Y43.08898
G01 X47.45873 Y43.02436
G01 X47.45581 Y43.02040
G01 X47.40148 Y42.95004
G01 X47.36714 Y42.90181
G01 X47.36115 Y42.89267
G01 X47.35835 Y42.88860
G01 X47.30984 Y42.82188
G01 X47.30687 Y42.81802
G01 X47.28954 Y42.79648
G01 X47.21398 Y42.68596
G01 X47.21329 Y42.68477
G01 X47.21080 Y42.68070
G01 X47.18223 Y42.63638
G01 X47.17656 Y42.60067
G01 X47.17164 Y42.53813
G01 X47.17656 Y42.47562
G01 X47.18223 Y42.43991
G01 X47.17656 Y42.47562
G01 X47.17164 Y42.53813
G01 X47.17656 Y42.60067
G01 X47.18223 Y42.63638
G01 X47.15688 Y42.59709
G01 X47.15431 Y42.59330
G01 X47.13359 Y42.56419
G01 X47.11659 Y42.53816
G01 X47.13359 Y42.51210
G01 X47.15431 Y42.48299
G01 X47.15688 Y42.47920
G01 X47.18223 Y42.43991
G01 X47.21080 Y42.39559
G01 X47.21329 Y42.39152
G01 X47.21400 Y42.39030
G01 X47.28954 Y42.27981
G01 X47.30687 Y42.25828
G01 X47.30984 Y42.25441
G01 X47.35835 Y42.18769
G01 X47.36115 Y42.18362
G01 X47.36696 Y42.17473
G01 X47.40148 Y42.12625
G01 X47.45581 Y42.05589
G01 X47.45873 Y42.05193
G01 X47.50377 Y41.98731
G01 X47.50646 Y41.98322
G01 X47.50686 Y41.98345
G01 X47.50646 Y41.98322
G01 X47.51161 Y41.97499
G01 X47.51553 Y41.96818
G01 X47.58815 Y41.82902
G01 X47.58926 Y41.82683
G01 X47.60666 Y41.79142
G01 X47.60735 Y41.79170
G01 X47.60666 Y41.79142
G01 X47.61154 Y41.77964
G01 X47.62429 Y41.74230
G01 X47.62505 Y41.73996
G01 X47.67209 Y41.59020
G01 X47.67415 Y41.58261
G01 X47.67631 Y41.57319
G01 X47.67712 Y41.57339
G01 X47.67631 Y41.57319
G01 X47.67727 Y41.56839
G01 X47.69114 Y41.49087
G01 X47.69188 Y41.48601
G01 X47.70562 Y41.37895
G01 X47.70631 Y41.37115
G01 X47.70920 Y41.31238
G01 X47.71029 Y41.31240
G01 X47.70920 Y41.31238
G01 X47.70930 Y41.30748
G01 X47.70930 Y41.22881
G01 X47.70920 Y41.22391
G01 X47.70631 Y41.16514
G01 X47.70562 Y41.15731
G01 X47.69188 Y41.05028
G01 X47.69140 Y41.04687
G01 X47.68248 Y40.99242
G01 X47.68360 Y40.99221
G01 X47.68248 Y40.99242
G01 X47.68157 Y40.98759
G01 X47.67661 Y40.96453
G01 X47.67631 Y40.96310
G01 X47.67415 Y40.95368
G01 X47.67209 Y40.94611
G01 X47.62505 Y40.79633
G01 X47.62429 Y40.79399
G01 X47.61154 Y40.75665
G01 X47.60666 Y40.74487
G01 X47.60745 Y40.74454
G01 X47.60666 Y40.74487
G01 X47.58926 Y40.70946
G01 X47.58815 Y40.70728
G01 X47.51553 Y40.56811
G01 X47.51161 Y40.56130
G01 X47.50646 Y40.55307
G01 X47.50689 Y40.55282
G01 X47.50646 Y40.55307
G01 X47.50377 Y40.54898
G01 X47.45873 Y40.48436
G01 X47.45581 Y40.48040
G01 X47.40166 Y40.41032
G01 X47.36696 Y40.36153
G01 X47.36115 Y40.35267
G01 X47.35835 Y40.34860
G01 X47.30984 Y40.28188
G01 X47.30687 Y40.27802
G01 X47.28954 Y40.25648
G01 X47.21398 Y40.14596
G01 X47.21329 Y40.14477
G01 X47.21080 Y40.14070
G01 X47.18223 Y40.09638
G01 X47.17656 Y40.06067
G01 X47.17164 Y39.99813
G01 X47.17656 Y39.93562
G01 X47.18223 Y39.89991
G01 X47.17656 Y39.93562
G01 X47.17164 Y39.99813
G01 X47.17656 Y40.06067
G01 X47.18223 Y40.09638
G01 X47.15688 Y40.05709
G01 X47.15431 Y40.05330
G01 X47.13343 Y40.02394
G01 X47.11659 Y39.99813
G01 X47.13343 Y39.97235
G01 X47.15431 Y39.94299
G01 X47.15688 Y39.93920
G01 X47.18223 Y39.89991
G01 X47.21080 Y39.85559
G01 X47.21329 Y39.85152
G01 X47.21405 Y39.85020
G01 X47.28954 Y39.73981
G01 X47.30687 Y39.71828
G01 X47.30984 Y39.71441
G01 X47.35835 Y39.64769
G01 X47.36115 Y39.64362
G01 X47.36696 Y39.63476
G01 X47.40166 Y39.58597
G01 X47.45581 Y39.51589
G01 X47.45873 Y39.51193
G01 X47.50377 Y39.44731
G01 X47.50646 Y39.44322
G01 X47.50689 Y39.44347
G01 X47.50646 Y39.44322
G01 X47.51161 Y39.43499
G01 X47.51553 Y39.42818
G01 X47.58815 Y39.28902
G01 X47.58926 Y39.28683
G01 X47.60666 Y39.25142
G01 X47.61154 Y39.23964
G01 X47.61222 Y39.23992
G01 X47.61154 Y39.23964
G01 X47.62429 Y39.20230
G01 X47.62505 Y39.19996
G01 X47.67209 Y39.05020
G01 X47.67415 Y39.04261
G01 X47.67631 Y39.03319
G01 X47.67710 Y39.03336
G01 X47.67631 Y39.03319
G01 X47.67727 Y39.02839
G01 X47.69114 Y38.95087
G01 X47.69188 Y38.94601
G01 X47.70562 Y38.83895
G01 X47.70631 Y38.83115
G01 X47.70920 Y38.77238
G01 X47.71029 Y38.77240
G01 X47.70920 Y38.77238
G01 X47.70930 Y38.76748
G01 X47.70930 Y38.68881
G01 X47.70920 Y38.68391
G01 X47.70631 Y38.62514
G01 X47.70562 Y38.61731
G01 X47.69188 Y38.51028
G01 X47.69140 Y38.50687
G01 X47.68248 Y38.45242
G01 X47.68360 Y38.45221
G01 X47.68248 Y38.45242
G01 X47.68157 Y38.44759
G01 X47.67661 Y38.42453
G01 X47.67631 Y38.42310
G01 X47.67415 Y38.41368
G01 X47.67209 Y38.40611
G01 X47.62505 Y38.25633
G01 X47.62429 Y38.25399
G01 X47.61154 Y38.21665
G01 X47.60666 Y38.20487
G01 X47.60745 Y38.20454
G01 X47.60666 Y38.20487
G01 X47.58926 Y38.16946
G01 X47.58815 Y38.16728
G01 X47.51553 Y38.02811
G01 X47.51161 Y38.02130
G01 X47.50646 Y38.01307
G01 X47.50686 Y38.01284
G01 X47.50646 Y38.01307
G01 X47.50377 Y38.00898
G01 X47.45873 Y37.94436
G01 X47.45581 Y37.94040
G01 X47.40161 Y37.87027
G01 X47.36661 Y37.82107
G01 X47.36112 Y37.81269
G01 X47.35833 Y37.80863
G01 X47.30981 Y37.74193
G01 X47.30684 Y37.73804
G01 X47.28909 Y37.71597
G01 X47.21380 Y37.60588
G01 X47.21291 Y37.60439
G01 X47.21045 Y37.60035
G01 X47.18192 Y37.55613
G01 X47.15678 Y37.51719
G01 X47.15424 Y37.51343
G01 X47.13318 Y37.48384
G01 X47.08068 Y37.40347
G01 X47.07052 Y37.39042
G01 X47.05838 Y37.37924
G01 X47.04453 Y37.37020
G01 X47.02942 Y37.36357
G01 X47.01339 Y37.35950
G01 X46.99693 Y37.35813
G01 X46.79508 Y37.35813
G01 X44.62503 Y37.35813
G01 X44.61861 Y37.35620
G01 X44.58165 Y37.34299
G01 X44.54616 Y37.32620
G01 X44.39923 Y37.24764
G01 X44.33402 Y37.20408
G01 X44.20522 Y37.09837
G01 X44.17614 Y37.07203
G01 X44.14977 Y37.04292
G01 X44.10481 Y36.98816
G01 X44.11317 Y36.97033
G01 X44.10481 Y36.98816
G01 X43.55455 Y36.98816
G01 X43.49194 Y36.98323
G01 X43.47139 Y36.97995
G01 X43.46392 Y36.96258
G01 X43.47139 Y36.97995
G01 X43.43799 Y37.02069
G01 X43.38254 Y37.07614
G01 X43.25374 Y37.18186
G01 X43.22219 Y37.20522
G01 X43.18853 Y37.22542
G01 X43.04157 Y37.30395
G01 X43.00609 Y37.32074
G01 X42.96913 Y37.33398
G01 X42.96270 Y37.33591
G01 X43.38124 Y37.33591
G01 X43.50941 Y37.23075
G01 X43.55219 Y37.18795
G01 X43.54749 Y37.17535
G01 X43.55219 Y37.18795
G01 X43.55455 Y37.18816
G01 X44.01177 Y37.18816
G01 X44.01655 Y37.17543
G01 X44.01177 Y37.18816
G01 X44.03471 Y37.21343
G01 X44.07835 Y37.25298
G01 X44.20649 Y37.35813
G01 X44.62503 Y37.35813
G01 X44.20649 Y37.35813
G01 X43.72872 Y37.35816
G01 X43.70616 Y37.34980
G01 X43.70509 Y37.34942
G01 X43.68366 Y37.34175
G01 X43.66707 Y37.33738
G01 X43.64998 Y37.33591
G01 X43.65023 Y37.33400
G01 X43.64998 Y37.33591
G01 X43.38124 Y37.33591
G01 X42.96270 Y37.33591
G01 X40.79276 Y37.33591
G01 X40.78633 Y37.33398
G01 X40.74937 Y37.32074
G01 X40.71389 Y37.30395
G01 X40.56695 Y37.22542
G01 X40.50175 Y37.18186
G01 X40.37294 Y37.07614
G01 X40.34386 Y37.04978
G01 X40.31750 Y37.02069
G01 X40.27251 Y36.96588
G01 X40.26388 Y36.96588
G01 X40.11110 Y36.76591
G01 X40.26388 Y36.96588
G01 X40.29667 Y37.01940
G01 X40.35334 Y37.13065
G01 X40.37734 Y37.18861
G01 X40.39199 Y37.24960
G01 X40.41153 Y37.37289
G01 X40.41646 Y37.43548
G01 X40.41153 Y37.49809
G01 X40.40586 Y37.53390
G01 X40.43096 Y37.49499
G01 X40.43350 Y37.49125
G01 X40.45458 Y37.46164
G01 X40.50711 Y37.38122
G01 X40.50452 Y37.37855
G01 X40.50711 Y37.38122
G01 X40.51724 Y37.36819
G01 X40.52938 Y37.35699
G01 X40.54323 Y37.34797
G01 X40.55834 Y37.34132
G01 X40.57437 Y37.33728
G01 X40.57188 Y37.32897
G01 X40.57437 Y37.33728
G01 X40.59083 Y37.33591
G01 X40.79276 Y37.33591
G01 X40.59083 Y37.33591
G01 X40.57437 Y37.33728
G01 X40.55834 Y37.34132
G01 X40.54323 Y37.34797
G01 X40.52938 Y37.35699
G01 X40.51724 Y37.36819
G01 X40.50711 Y37.38122
G01 X40.45458 Y37.46164
G01 X40.43350 Y37.49125
G01 X40.43096 Y37.49499
G01 X40.40586 Y37.53390
G01 X40.37731 Y37.57812
G01 X40.37485 Y37.58216
G01 X40.37391 Y37.58376
G01 X40.29868 Y37.69374
G01 X40.28095 Y37.71576
G01 X40.27800 Y37.71963
G01 X40.22946 Y37.78638
G01 X40.22664 Y37.79047
G01 X40.22115 Y37.79882
G01 X40.18641 Y37.84767
G01 X40.13195 Y37.91818
G01 X40.12905 Y37.92214
G01 X40.08397 Y37.98678
G01 X40.08128 Y37.99090
G01 X40.08087 Y37.99064
G01 X40.08128 Y37.99090
G01 X40.07615 Y37.99905
G01 X40.07226 Y38.00588
G01 X39.99959 Y38.14508
G01 X39.99850 Y38.14726
G01 X39.98112 Y38.18264
G01 X39.98041 Y38.18234
G01 X39.98112 Y38.18264
G01 X39.97625 Y38.19443
G01 X39.96350 Y38.23177
G01 X39.96273 Y38.23410
G01 X39.91569 Y38.38384
G01 X39.91364 Y38.39140
G01 X39.91148 Y38.40088
G01 X39.91049 Y38.40568
G01 X39.90988 Y38.40555
G01 X39.91049 Y38.40568
G01 X39.89667 Y38.48312
G01 X39.89591 Y38.48798
G01 X39.88217 Y38.59506
G01 X39.88176 Y38.59504
G01 X39.88217 Y38.59506
G01 X39.88148 Y38.60289
G01 X39.87858 Y38.66158
G01 X39.87846 Y38.66651
G01 X39.87846 Y38.74528
G01 X39.87858 Y38.75018
G01 X39.87803 Y38.75023
G01 X39.87858 Y38.75018
G01 X39.88148 Y38.80890
G01 X39.88217 Y38.81673
G01 X39.89591 Y38.92381
G01 X39.89667 Y38.92867
G01 X39.91049 Y39.00614
G01 X39.91148 Y39.01094
G01 X39.91069 Y39.01109
G01 X39.91148 Y39.01094
G01 X39.91366 Y39.02041
G01 X39.91569 Y39.02798
G01 X39.96273 Y39.17771
G01 X39.96350 Y39.18005
G01 X39.97625 Y39.21739
G01 X39.97554 Y39.21767
G01 X39.97625 Y39.21739
G01 X39.98112 Y39.22917
G01 X39.99850 Y39.26458
G01 X39.99962 Y39.26676
G01 X40.07226 Y39.40593
G01 X40.07615 Y39.41274
G01 X40.08128 Y39.42094
G01 X40.08087 Y39.42120
G01 X40.08128 Y39.42094
G01 X40.08399 Y39.42503
G01 X40.12903 Y39.48968
G01 X40.13195 Y39.49364
G01 X40.18610 Y39.56372
G01 X40.22087 Y39.61259
G01 X40.22662 Y39.62137
G01 X40.22941 Y39.62544
G01 X40.27792 Y39.69214
G01 X40.28090 Y39.69602
G01 X40.29827 Y39.71761
G01 X40.37373 Y39.82798
G01 X40.37442 Y39.82920
G01 X40.37691 Y39.83324
G01 X40.43088 Y39.91693
G01 X40.43345 Y39.92071
G01 X40.45389 Y39.94944
G01 X40.47119 Y39.97591
G01 X40.45389 Y40.00235
G01 X40.43345 Y40.03110
G01 X40.43088 Y40.03489
G01 X40.40561 Y40.07408
G01 X40.41122 Y40.03847
G01 X40.41615 Y39.97588
G01 X40.41122 Y39.91330
G01 X40.40558 Y39.87771
G01 X40.37691 Y39.83324
G01 X40.40558 Y39.87771
G01 X40.41122 Y39.91330
G01 X40.41615 Y39.97588
G01 X40.41122 Y40.03847
G01 X40.40561 Y40.07408
G01 X40.37691 Y40.11855
G01 X40.37444 Y40.12262
G01 X40.37376 Y40.12376
G01 X40.29827 Y40.23417
G01 X40.28092 Y40.25574
G01 X40.27797 Y40.25960
G01 X40.22943 Y40.32635
G01 X40.22662 Y40.33044
G01 X40.22082 Y40.33928
G01 X40.18603 Y40.38817
G01 X40.13195 Y40.45818
G01 X40.12905 Y40.46214
G01 X40.08397 Y40.52678
G01 X40.08128 Y40.53087
G01 X40.08084 Y40.53062
G01 X40.08128 Y40.53087
G01 X40.07615 Y40.53908
G01 X40.07223 Y40.54588
G01 X39.99959 Y40.68508
G01 X39.99850 Y40.68726
G01 X39.98112 Y40.72264
G01 X39.98041 Y40.72234
G01 X39.98112 Y40.72264
G01 X39.97625 Y40.73443
G01 X39.96350 Y40.77177
G01 X39.96273 Y40.77410
G01 X39.91569 Y40.92384
G01 X39.91364 Y40.93140
G01 X39.91148 Y40.94088
G01 X39.91049 Y40.94568
G01 X39.90988 Y40.94555
G01 X39.91049 Y40.94568
G01 X39.89667 Y41.02312
G01 X39.89591 Y41.02798
G01 X39.88217 Y41.13506
G01 X39.88176 Y41.13504
G01 X39.88217 Y41.13506
G01 X39.88148 Y41.14289
G01 X39.87858 Y41.20158
G01 X39.87846 Y41.20651
G01 X39.87846 Y41.28528
G01 X39.87858 Y41.29018
G01 X39.87803 Y41.29023
G01 X39.87858 Y41.29018
G01 X39.88148 Y41.34890
G01 X39.88217 Y41.35673
G01 X39.89591 Y41.46381
G01 X39.89667 Y41.46867
G01 X39.91049 Y41.54614
G01 X39.91148 Y41.55094
G01 X39.91064 Y41.55111
G01 X39.91148 Y41.55094
G01 X39.91366 Y41.56041
G01 X39.91569 Y41.56798
G01 X39.96273 Y41.71771
G01 X39.96350 Y41.72005
G01 X39.97625 Y41.75739
G01 X39.98112 Y41.76917
G01 X39.98044 Y41.76945
G01 X39.98112 Y41.76917
G01 X39.99850 Y41.80458
G01 X39.99962 Y41.80676
G01 X40.07226 Y41.94593
G01 X40.07615 Y41.95274
G01 X40.08128 Y41.96094
G01 X40.08090 Y41.96117
G01 X40.08128 Y41.96094
G01 X40.08399 Y41.96503
G01 X40.12903 Y42.02968
G01 X40.13195 Y42.03364
G01 X40.18628 Y42.10397
G01 X40.22085 Y42.15254
G01 X40.22662 Y42.16137
G01 X40.22941 Y42.16544
G01 X40.27792 Y42.23214
G01 X40.28090 Y42.23602
G01 X40.29824 Y42.25759
G01 X40.37378 Y42.36808
G01 X40.37442 Y42.36920
G01 X40.37691 Y42.37324
G01 X40.43088 Y42.45693
G01 X40.43345 Y42.46071
G01 X40.45405 Y42.48967
G01 X40.47119 Y42.51591
G01 X40.45407 Y42.54212
G01 X40.43345 Y42.57110
G01 X40.43088 Y42.57489
G01 X40.40561 Y42.61408
G01 X40.41122 Y42.57847
G01 X40.41615 Y42.51588
G01 X40.41122 Y42.45330
G01 X40.40558 Y42.41771
G01 X40.37691 Y42.37324
G01 X40.40558 Y42.41771
G01 X40.41122 Y42.45330
G01 X40.41615 Y42.51588
G01 X40.41122 Y42.57847
G01 X40.40561 Y42.61408
G01 X40.37691 Y42.65855
G01 X40.37444 Y42.66262
G01 X40.37368 Y42.66389
G01 X40.29827 Y42.77417
G01 X40.28092 Y42.79574
G01 X40.27797 Y42.79960
G01 X40.22943 Y42.86635
G01 X40.22662 Y42.87044
G01 X40.22098 Y42.87903
G01 X40.18585 Y42.92845
G01 X40.13195 Y42.99818
G01 X40.12905 Y43.00214
G01 X40.08397 Y43.06678
G01 X40.08128 Y43.07087
G01 X40.08084 Y43.07062
G01 X40.08128 Y43.07087
G01 X40.07615 Y43.07908
G01 X40.07223 Y43.08588
G01 X39.99959 Y43.22508
G01 X39.99850 Y43.22726
G01 X39.98112 Y43.26264
G01 X39.97625 Y43.27443
G01 X39.97523 Y43.27402
G01 X39.97625 Y43.27443
G01 X39.96350 Y43.31177
G01 X39.96273 Y43.31410
G01 X39.91569 Y43.46384
G01 X39.91364 Y43.47140
G01 X39.91148 Y43.48088
G01 X39.91049 Y43.48568
G01 X39.89667 Y43.56312
G01 X39.89568 Y43.56297
G01 X39.89667 Y43.56312
G01 X39.89591 Y43.56798
G01 X39.88217 Y43.67506
G01 X39.88148 Y43.68289
G01 X39.87858 Y43.74158
G01 X39.87846 Y43.74651
G01 X39.87846 Y43.82528
G01 X39.87752 Y43.82530
G01 X39.87846 Y43.82528
G01 X39.87858 Y43.83018
G01 X39.88148 Y43.88890
G01 X39.88217 Y43.89673
G01 X39.89591 Y44.00381
G01 X39.89667 Y44.00867
G01 X39.91049 Y44.08614
G01 X39.91148 Y44.09094
G01 X39.91064 Y44.09111
G01 X39.91148 Y44.09094
G01 X39.91366 Y44.10041
G01 X39.91569 Y44.10798
G01 X39.96273 Y44.25771
G01 X39.96350 Y44.26005
G01 X39.97625 Y44.29739
G01 X39.98112 Y44.30917
G01 X39.98044 Y44.30945
G01 X39.98112 Y44.30917
G01 X39.99850 Y44.34458
G01 X39.99962 Y44.34676
G01 X40.07226 Y44.48593
G01 X40.07615 Y44.49274
G01 X40.08128 Y44.50094
G01 X40.08090 Y44.50117
G01 X40.08128 Y44.50094
G01 X40.08399 Y44.50503
G01 X40.12903 Y44.56968
G01 X40.13195 Y44.57364
G01 X40.18628 Y44.64397
G01 X40.22085 Y44.69254
G01 X40.22662 Y44.70137
G01 X40.22941 Y44.70544
G01 X40.27792 Y44.77214
G01 X40.28090 Y44.77602
G01 X40.29827 Y44.79761
G01 X40.37373 Y44.90798
G01 X40.37442 Y44.90920
G01 X40.37691 Y44.91324
G01 X40.43088 Y44.99693
G01 X40.43345 Y45.00071
G01 X40.45389 Y45.02944
G01 X40.47119 Y45.05591
G01 X40.45407 Y45.08212
G01 X40.43345 Y45.11110
G01 X40.43088 Y45.11489
G01 X40.40561 Y45.15408
G01 X40.41122 Y45.11847
G01 X40.41615 Y45.05588
G01 X40.41122 Y44.99330
G01 X40.40558 Y44.95771
G01 X40.37691 Y44.91324
G01 X40.40558 Y44.95771
G01 X40.41122 Y44.99330
G01 X40.41615 Y45.05588
G01 X40.41122 Y45.11847
G01 X40.40561 Y45.15408
G01 X40.37691 Y45.19855
G01 X40.37444 Y45.20262
G01 X40.37376 Y45.20376
G01 X40.29827 Y45.31415
G01 X40.28092 Y45.33574
G01 X40.27797 Y45.33960
G01 X40.22943 Y45.40635
G01 X40.22662 Y45.41044
G01 X40.22085 Y45.41925
G01 X40.18603 Y45.46817
G01 X40.13195 Y45.53818
G01 X40.12905 Y45.54214
G01 X40.08397 Y45.60678
G01 X40.08128 Y45.61087
G01 X40.08084 Y45.61062
G01 X40.08128 Y45.61087
G01 X40.07615 Y45.61908
G01 X40.07223 Y45.62588
G01 X39.99959 Y45.76508
G01 X39.99850 Y45.76726
G01 X39.98112 Y45.80264
G01 X39.97625 Y45.81443
G01 X39.97523 Y45.81402
G01 X39.97625 Y45.81443
G01 X39.96350 Y45.85177
G01 X39.96273 Y45.85410
G01 X39.91569 Y46.00384
G01 X39.91364 Y46.01140
G01 X39.91148 Y46.02088
G01 X39.91049 Y46.02568
G01 X39.89667 Y46.10312
G01 X39.89568 Y46.10297
G01 X39.89667 Y46.10312
G01 X39.89591 Y46.10798
G01 X39.88217 Y46.21506
G01 X39.88148 Y46.22289
G01 X39.87858 Y46.28158
G01 X39.87846 Y46.28651
G01 X39.87846 Y46.36528
G01 X39.87752 Y46.36530
G01 X39.87846 Y46.36528
G01 X39.87858 Y46.37018
G01 X39.88148 Y46.42890
G01 X39.88217 Y46.43673
G01 X39.89591 Y46.54381
G01 X39.89667 Y46.54867
G01 X39.91049 Y46.62614
G01 X39.91148 Y46.63094
G01 X39.91064 Y46.63111
G01 X39.91148 Y46.63094
G01 X39.91366 Y46.64041
G01 X39.91569 Y46.64798
G01 X39.96273 Y46.79771
G01 X39.96350 Y46.80005
G01 X39.97625 Y46.83739
G01 X39.98112 Y46.84917
G01 X39.98044 Y46.84945
G01 X39.98112 Y46.84917
G01 X39.99850 Y46.88458
G01 X39.99962 Y46.88676
G01 X40.07226 Y47.02593
G01 X40.07615 Y47.03274
G01 X40.08128 Y47.04094
G01 X40.08090 Y47.04117
G01 X40.08128 Y47.04094
G01 X40.08399 Y47.04503
G01 X40.12903 Y47.10968
G01 X40.13195 Y47.11364
G01 X40.18610 Y47.18372
G01 X40.22087 Y47.23259
G01 X40.22662 Y47.24137
G01 X40.22941 Y47.24544
G01 X40.27792 Y47.31214
G01 X40.28090 Y47.31602
G01 X40.29824 Y47.33759
G01 X40.37378 Y47.44808
G01 X40.37442 Y47.44920
G01 X40.37691 Y47.45324
G01 X40.43088 Y47.53693
G01 X40.43345 Y47.54071
G01 X40.45405 Y47.56967
G01 X40.47119 Y47.59591
G01 X40.45389 Y47.62235
G01 X40.43345 Y47.65110
G01 X40.43088 Y47.65489
G01 X40.40561 Y47.69408
G01 X40.41122 Y47.65847
G01 X40.41615 Y47.59588
G01 X40.41122 Y47.53330
G01 X40.40558 Y47.49771
G01 X40.37691 Y47.45324
G01 X40.40558 Y47.49771
G01 X40.41122 Y47.53330
G01 X40.41615 Y47.59588
G01 X40.41122 Y47.65847
G01 X40.40561 Y47.69408
G01 X40.37691 Y47.73855
G01 X40.37444 Y47.74262
G01 X40.37368 Y47.74389
G01 X40.29827 Y47.85417
G01 X40.28092 Y47.87574
G01 X40.27797 Y47.87960
G01 X40.22943 Y47.94635
G01 X40.22662 Y47.95044
G01 X40.22082 Y47.95928
G01 X40.18603 Y48.00817
G01 X40.13195 Y48.07818
G01 X40.12905 Y48.08214
G01 X40.08397 Y48.14678
G01 X40.08128 Y48.15087
G01 X40.07615 Y48.15908
G01 X40.07574 Y48.15882
G01 X40.07615 Y48.15908
G01 X40.07223 Y48.16588
G01 X39.99959 Y48.30508
G01 X39.99850 Y48.30726
G01 X39.98112 Y48.34259
G01 X39.98082 Y48.34246
G01 X39.98112 Y48.34259
G01 X39.97625 Y48.35440
G01 X39.96383 Y48.39083
G01 X39.94351 Y48.44742
G01 X39.90706 Y48.53799
G01 X39.85141 Y48.60586
G01 X39.81145 Y48.64909
G01 X39.79128 Y48.67007
G01 X39.73441 Y48.72694
G01 X39.69131 Y48.76677
G01 X39.60053 Y48.84432
G01 X39.51696 Y48.90513
G01 X39.41615 Y48.92110
G01 X39.32593 Y48.93002
G01 X39.26759 Y48.93233
G01 X39.23792 Y48.93289
G01 X31.02293 Y48.93289
G01 X30.96390 Y48.93058
G01 X30.84495 Y48.92120
G01 X30.74302 Y48.90510
G01 X30.66034 Y48.84505
G01 X30.59047 Y48.78775
G01 X30.54797 Y48.74848
G01 X30.52587 Y48.72722
G01 X27.70624 Y45.90759
G01 X27.66616 Y45.86421
G01 X27.58890 Y45.77374
G01 X27.52806 Y45.69012
G01 X27.51209 Y45.58921
G01 X27.50317 Y45.49926
G01 X27.50089 Y45.44090
G01 X27.50030 Y45.41113
G01 X27.50030 Y21.13442
G01 X27.50261 Y21.07544
G01 X27.51199 Y20.95659
G01 X27.53185 Y20.83200
G01 X27.56004 Y20.71448
G01 X27.58958 Y20.62029
G01 X27.59393 Y20.61521
G01 X27.68222 Y20.52695
G01 X27.72992 Y20.48621
G01 X27.78343 Y20.45344
G01 X27.85374 Y20.41763
G01 X27.85509 Y20.41760
G01 X27.85374 Y20.41763
G01 X27.78343 Y20.45344
G01 X27.72992 Y20.48621
G01 X27.68222 Y20.52695
G01 X27.59393 Y20.61521
G01 X27.58958 Y20.62029
G01 X27.59220 Y20.61191
G01 X27.67693 Y20.52715
G01 X27.79253 Y20.42855
G01 X27.80723 Y20.41783
G01 X27.81412 Y20.41791
G01 X27.81587 Y20.41791
G01 X27.85509 Y20.41760
G01 X27.85687 Y20.41758
G01 X27.91925 Y20.41600
G01 X28.00276 Y20.41776
G01 X28.08374 Y20.42334
G01 X28.08633 Y20.42347
G01 X28.13058 Y20.42538
G01 X28.13319 Y20.42545
G01 X28.16982 Y20.42606
G01 X28.22494 Y20.42898
G01 X28.25791 Y20.43139
G01 X28.26032 Y20.43155
G01 X28.33479 Y20.43520
G01 X28.33726 Y20.43528
G01 X28.37658 Y20.43625
G01 X28.37901 Y20.43630
G01 X29.67904 Y20.43647
G01 X29.68148 Y20.43625
G01 X29.72079 Y20.43528
G01 X29.72326 Y20.43520
G01 X29.78203 Y20.43231
G01 X29.78983 Y20.43162
G01 X29.89689 Y20.41788
G01 X29.89788 Y20.41776
G01 X29.91394 Y20.41552
G01 X29.91879 Y20.41473
G01 X29.91894 Y20.41560
G01 X29.91879 Y20.41473
G01 X29.98033 Y20.40310
G01 X29.98414 Y20.40229
G01 X29.99349 Y20.40015
G01 X30.00108 Y20.39810
G01 X30.15089 Y20.35100
G01 X30.15323 Y20.35024
G01 X30.19049 Y20.33752
G01 X30.19087 Y20.33846
G01 X30.19049 Y20.33752
G01 X30.20228 Y20.33264
G01 X30.23766 Y20.31527
G01 X30.23984 Y20.31417
G01 X30.37904 Y20.24150
G01 X30.38584 Y20.23762
G01 X30.39402 Y20.23249
G01 X30.39448 Y20.23320
G01 X30.39402 Y20.23249
G01 X30.39814 Y20.22980
G01 X30.46278 Y20.18474
G01 X30.46674 Y20.18181
G01 X30.55214 Y20.11585
G01 X30.55816 Y20.11080
G01 X30.60177 Y20.07130
G01 X30.60240 Y20.07196
G01 X30.60177 Y20.07130
G01 X30.60532 Y20.06790
G01 X30.66090 Y20.01232
G01 X30.66430 Y20.00876
G01 X30.70380 Y19.96515
G01 X30.70885 Y19.95913
G01 X30.77482 Y19.87374
G01 X30.77774 Y19.86978
G01 X30.77855 Y19.87039
G01 X30.77774 Y19.86978
G01 X30.82277 Y19.80516
G01 X30.82547 Y19.80107
G01 X30.83062 Y19.79286
G01 X30.83451 Y19.78606
G01 X30.90715 Y19.64689
G01 X30.90827 Y19.64471
G01 X30.92564 Y19.60930
G01 X30.92661 Y19.60973
G01 X30.92564 Y19.60930
G01 X30.93052 Y19.59751
G01 X30.94325 Y19.56023
G01 X30.94401 Y19.55789
G01 X30.99107 Y19.40808
G01 X30.99313 Y19.40051
G01 X30.99394 Y19.40069
G01 X30.99313 Y19.40051
G01 X30.99529 Y19.39111
G01 X30.99628 Y19.38631
G01 X31.01012 Y19.30874
G01 X31.01089 Y19.30389
G01 X31.02460 Y19.19685
G01 X31.02531 Y19.18903
G01 X31.02818 Y19.13025
G01 X31.02915 Y19.13028
G01 X31.02818 Y19.13025
G01 X31.02831 Y19.12535
G01 X31.02831 Y19.04669
G01 X31.02818 Y19.04179
G01 X31.02531 Y18.98301
G01 X31.02460 Y18.97519
G01 X31.01089 Y18.86818
G01 X31.01124 Y18.86813
G01 X31.01089 Y18.86818
G01 X31.01038 Y18.86477
G01 X31.00146 Y18.81029
G01 X31.00057 Y18.80546
G01 X30.99562 Y18.78238
G01 X30.99529 Y18.78095
G01 X30.99313 Y18.77153
G01 X30.99107 Y18.76396
G01 X30.99161 Y18.76381
G01 X30.99107 Y18.76396
G01 X30.94403 Y18.61418
G01 X30.94327 Y18.61184
G01 X30.93052 Y18.57453
G01 X30.92564 Y18.56274
G01 X30.90827 Y18.52739
G01 X30.90880 Y18.52716
G01 X30.90827 Y18.52739
G01 X30.90718 Y18.52520
G01 X30.83451 Y18.38601
G01 X30.83062 Y18.37920
G01 X30.82549 Y18.37102
G01 X30.82280 Y18.36691
G01 X30.82313 Y18.36671
G01 X30.82280 Y18.36691
G01 X30.77774 Y18.30227
G01 X30.77482 Y18.29830
G01 X30.72072 Y18.22825
G01 X30.68592 Y18.17935
G01 X30.68015 Y18.17054
G01 X30.67736 Y18.16648
G01 X30.62884 Y18.09978
G01 X30.62587 Y18.09589
G01 X30.60850 Y18.07430
G01 X30.53304 Y17.96394
G01 X30.53235 Y17.96272
G01 X30.52986 Y17.95865
G01 X30.50121 Y17.91423
G01 X30.49555 Y17.87862
G01 X30.49062 Y17.81601
G01 X30.49555 Y17.75342
G01 X30.50121 Y17.71781
G01 X30.49555 Y17.75342
G01 X30.49062 Y17.81601
G01 X30.49555 Y17.87862
G01 X30.50121 Y17.91423
G01 X30.47583 Y17.87491
G01 X30.47327 Y17.87115
G01 X30.45247 Y17.84192
G01 X30.43558 Y17.81603
G01 X30.45247 Y17.79013
G01 X30.47327 Y17.76089
G01 X30.47583 Y17.75713
G01 X30.50121 Y17.71781
G01 X30.52986 Y17.67339
G01 X30.53235 Y17.66932
G01 X30.53304 Y17.66810
G01 X30.60850 Y17.55774
G01 X30.62587 Y17.53615
G01 X30.62884 Y17.53226
G01 X30.67736 Y17.46556
G01 X30.68015 Y17.46150
G01 X30.68592 Y17.45269
G01 X30.72072 Y17.40379
G01 X30.77482 Y17.33374
G01 X30.77774 Y17.32978
G01 X30.82277 Y17.26516
G01 X30.82547 Y17.26107
G01 X30.82590 Y17.26132
G01 X30.82547 Y17.26107
G01 X30.83062 Y17.25286
G01 X30.83451 Y17.24603
G01 X30.90715 Y17.10689
G01 X30.90827 Y17.10471
G01 X30.92564 Y17.06930
G01 X30.93055 Y17.05751
G01 X30.93154 Y17.05789
G01 X30.93055 Y17.05751
G01 X30.94325 Y17.02023
G01 X30.94401 Y17.01789
G01 X30.99107 Y16.86811
G01 X30.99313 Y16.86054
G01 X30.99529 Y16.85111
G01 X30.99628 Y16.84631
G01 X31.01012 Y16.76874
G01 X31.01137 Y16.76894
G01 X31.01012 Y16.76874
G01 X31.01089 Y16.76389
G01 X31.02460 Y16.65685
G01 X31.02531 Y16.64903
G01 X31.02818 Y16.59025
G01 X31.02831 Y16.58535
G01 X31.02831 Y16.50669
G01 X31.02818 Y16.50179
G01 X31.02531 Y16.44301
G01 X31.02628 Y16.44296
G01 X31.02531 Y16.44301
G01 X31.02460 Y16.43519
G01 X31.01089 Y16.32818
G01 X31.01012 Y16.32333
G01 X30.99628 Y16.24575
G01 X30.99529 Y16.24095
G01 X30.99313 Y16.23153
G01 X30.99377 Y16.23138
G01 X30.99313 Y16.23153
G01 X30.99107 Y16.22396
G01 X30.94403 Y16.07418
G01 X30.94327 Y16.07184
G01 X30.93052 Y16.03453
G01 X30.92564 Y16.02274
G01 X30.92630 Y16.02246
G01 X30.92564 Y16.02274
G01 X30.90827 Y15.98739
G01 X30.90718 Y15.98520
G01 X30.83451 Y15.84601
G01 X30.83062 Y15.83920
G01 X30.82549 Y15.83102
G01 X30.82590 Y15.83077
G01 X30.82549 Y15.83102
G01 X30.82280 Y15.82691
G01 X30.77774 Y15.76227
G01 X30.77482 Y15.75830
G01 X30.72089 Y15.68853
G01 X30.68589 Y15.63933
G01 X30.68015 Y15.63054
G01 X30.67736 Y15.62648
G01 X30.62884 Y15.55978
G01 X30.62587 Y15.55589
G01 X30.60852 Y15.53433
G01 X30.53298 Y15.42384
G01 X30.53235 Y15.42272
G01 X30.52986 Y15.41865
G01 X30.50121 Y15.37423
G01 X30.49555 Y15.33862
G01 X30.49062 Y15.27601
G01 X30.49555 Y15.21342
G01 X30.50121 Y15.17781
G01 X30.49555 Y15.21342
G01 X30.49062 Y15.27601
G01 X30.49555 Y15.33862
G01 X30.50121 Y15.37423
G01 X30.47583 Y15.33491
G01 X30.47327 Y15.33115
G01 X30.45264 Y15.30214
G01 X30.43558 Y15.27601
G01 X30.45247 Y15.25013
G01 X30.47327 Y15.22089
G01 X30.47583 Y15.21713
G01 X30.50121 Y15.17781
G01 X30.52986 Y15.13339
G01 X30.53235 Y15.12932
G01 X30.53296 Y15.12826
G01 X30.60852 Y15.01772
G01 X30.62587 Y14.99615
G01 X30.62884 Y14.99226
G01 X30.67736 Y14.92556
G01 X30.68015 Y14.92150
G01 X30.68592 Y14.91269
G01 X30.72072 Y14.86379
G01 X30.77482 Y14.79374
G01 X30.77774 Y14.78978
G01 X30.82277 Y14.72516
G01 X30.82547 Y14.72107
G01 X30.83062 Y14.71286
G01 X30.83451 Y14.70603
G01 X30.83497 Y14.70631
G01 X30.83451 Y14.70603
G01 X30.90715 Y14.56689
G01 X30.90827 Y14.56471
G01 X30.92564 Y14.52930
G01 X30.93052 Y14.51751
G01 X30.93118 Y14.51777
G01 X30.93052 Y14.51751
G01 X30.94325 Y14.48023
G01 X30.94401 Y14.47789
G01 X30.99107 Y14.32808
G01 X30.99313 Y14.32051
G01 X30.99529 Y14.31111
G01 X30.99590 Y14.31124
G01 X30.99529 Y14.31111
G01 X30.99628 Y14.30631
G01 X31.01012 Y14.22874
G01 X31.01089 Y14.22389
G01 X31.02460 Y14.11685
G01 X31.02531 Y14.10903
G01 X31.02585 Y14.10906
G01 X31.02531 Y14.10903
G01 X31.02818 Y14.05025
G01 X31.02831 Y14.04535
G01 X31.02831 Y13.96669
G01 X31.02818 Y13.96179
G01 X31.02531 Y13.90301
G01 X31.02623 Y13.90293
G01 X31.02531 Y13.90301
G01 X31.02460 Y13.89519
G01 X31.01089 Y13.78818
G01 X31.01012 Y13.78333
G01 X30.99628 Y13.70575
G01 X30.99529 Y13.70095
G01 X30.99247 Y13.68863
G01 X30.99181 Y13.68597
G01 X30.98109 Y13.64462
G01 X30.95671 Y13.53852
G01 X30.95650 Y13.53761
G01 X30.95295 Y13.52280
G01 X30.95275 Y13.52191
G01 X30.93687 Y13.45823
G01 X30.92336 Y13.39326
G01 X30.90624 Y13.29173
G01 X30.90601 Y13.29044
G01 X30.90118 Y13.26387
G01 X30.90093 Y13.26258
G01 X30.89910 Y13.25320
G01 X30.90362 Y13.23441
G01 X30.92765 Y13.17644
G01 X30.98432 Y13.06522
G01 X31.01711 Y13.01167
G01 X31.05788 Y12.96395
G01 X31.14614 Y12.87568
G01 X31.19387 Y12.83492
G01 X31.24741 Y12.80212
G01 X31.35864 Y12.74546
G01 X31.41660 Y12.72143
G01 X31.43860 Y12.71614
G01 X31.41660 Y12.72143
G01 X31.35864 Y12.74546
G01 X31.24741 Y12.80212
G01 X31.19387 Y12.83492
G01 X31.14614 Y12.87568
G01 X31.05788 Y12.96395
G01 X31.01711 Y13.01167
G01 X30.98432 Y13.06522
G01 X30.92765 Y13.17644
G01 X30.90362 Y13.23441
G01 X30.89910 Y13.25320
G01 X30.88617 Y13.18711
G01 X30.87063 Y13.08406
G01 X30.86138 Y12.99869
G01 X30.86113 Y12.99666
G01 X30.85320 Y12.93507
G01 X30.85292 Y12.93314
G01 X30.84871 Y12.90487
G01 X30.85531 Y12.89412
G01 X30.91645 Y12.82252
G01 X31.00471 Y12.73426
G01 X31.07632 Y12.67312
G01 X31.09112 Y12.66402
G01 X31.07632 Y12.67312
G01 X31.00471 Y12.73426
G01 X30.91645 Y12.82252
G01 X30.85531 Y12.89412
G01 X30.84871 Y12.90487
G01 X30.83794 Y12.83268
G01 X30.83077 Y12.77390
G01 X30.84721 Y12.75828
G01 X30.86235 Y12.74434
G01 X30.92907 Y12.71670
G01 X31.08513 Y12.66308
G01 X31.09112 Y12.66402
G01 X31.11279 Y12.66748
G01 X31.11520 Y12.66783
G01 X31.19148 Y12.67804
G01 X31.19399 Y12.67835
G01 X31.26443 Y12.68600
G01 X31.38043 Y12.70408
G01 X31.43860 Y12.71614
G01 X31.44345 Y12.71716
G01 X31.44528 Y12.71752
G01 X31.48310 Y12.72463
G01 X31.48498 Y12.72496
G01 X31.57499 Y12.74012
G01 X31.64987 Y12.75618
G01 X31.70288 Y12.77009
G01 X31.70438 Y12.77048
G01 X31.72930 Y12.77660
G01 X31.73082 Y12.77695
G01 X31.82607 Y12.79885
G01 X31.87979 Y12.81320
G01 X31.88325 Y12.81406
G01 X31.89300 Y12.81630
G01 X31.89780 Y12.81729
G01 X31.97532 Y12.83113
G01 X31.98018 Y12.83187
G01 X32.08721 Y12.84561
G01 X32.09501 Y12.84629
G01 X32.09493 Y12.84723
G01 X32.09501 Y12.84629
G01 X32.15378 Y12.84919
G01 X32.15622 Y12.84927
G01 X32.19557 Y12.85023
G01 X32.19803 Y12.85028
G01 X33.49800 Y12.85028
G01 X33.50047 Y12.85023
G01 X33.53979 Y12.84927
G01 X33.53981 Y12.84972
G01 X33.53979 Y12.84927
G01 X33.54225 Y12.84919
G01 X33.60103 Y12.84629
G01 X33.60885 Y12.84561
G01 X33.71588 Y12.83187
G01 X33.71687 Y12.83174
G01 X33.73295 Y12.82951
G01 X33.73780 Y12.82872
G01 X33.79925 Y12.81711
G01 X33.80306 Y12.81630
G01 X33.81251 Y12.81414
G01 X33.82007 Y12.81208
G01 X33.82028 Y12.81289
G01 X33.82007 Y12.81208
G01 X33.96983 Y12.76504
G01 X33.97217 Y12.76428
G01 X34.00951 Y12.75153
G01 X34.02129 Y12.74665
G01 X34.02157 Y12.74729
G01 X34.02129 Y12.74665
G01 X34.05670 Y12.72925
G01 X34.05889 Y12.72816
G01 X34.19808 Y12.65552
G01 X34.20488 Y12.65160
G01 X34.21306 Y12.64650
G01 X34.21350 Y12.64716
G01 X34.21306 Y12.64650
G01 X34.21715 Y12.64378
G01 X34.28180 Y12.59875
G01 X34.28576 Y12.59583
G01 X34.37113 Y12.52986
G01 X34.37715 Y12.52481
G01 X34.42076 Y12.48531
G01 X34.42139 Y12.48597
G01 X34.42076 Y12.48531
G01 X34.42432 Y12.48193
G01 X34.47989 Y12.42633
G01 X34.48329 Y12.42277
G01 X34.52282 Y12.37916
G01 X34.52787 Y12.37312
G01 X34.59381 Y12.28777
G01 X34.59673 Y12.28381
G01 X34.59757 Y12.28440
G01 X34.59673 Y12.28381
G01 X34.64176 Y12.21919
G01 X34.64446 Y12.21510
G01 X34.64961 Y12.20687
G01 X34.65353 Y12.20007
G01 X34.72614 Y12.06090
G01 X34.72726 Y12.05872
G01 X34.74466 Y12.02331
G01 X34.74560 Y12.02374
G01 X34.74466 Y12.02331
G01 X34.74954 Y12.01152
G01 X34.76229 Y11.97416
G01 X34.76305 Y11.97182
G01 X34.81009 Y11.82206
G01 X34.81215 Y11.81450
G01 X34.81296 Y11.81467
G01 X34.81215 Y11.81450
G01 X34.81431 Y11.80505
G01 X34.81530 Y11.80025
G01 X34.82914 Y11.72273
G01 X34.82988 Y11.71787
G01 X34.84362 Y11.61084
G01 X34.84430 Y11.60304
G01 X34.84720 Y11.54427
G01 X34.84817 Y11.54429
G01 X34.84720 Y11.54427
G01 X34.84730 Y11.53936
G01 X34.84730 Y11.46070
G01 X34.84720 Y11.45580
G01 X34.84430 Y11.39705
G01 X34.84362 Y11.38922
G01 X34.82988 Y11.28216
G01 X34.82914 Y11.27731
G01 X34.83013 Y11.27716
G01 X34.82914 Y11.27731
G01 X34.81530 Y11.19982
G01 X34.81431 Y11.19502
G01 X34.81212 Y11.18554
G01 X34.81007 Y11.17795
G01 X34.76305 Y11.02821
G01 X34.76229 Y11.02588
G01 X34.74954 Y10.98854
G01 X34.75055 Y10.98816
G01 X34.74954 Y10.98854
G01 X34.74466 Y10.97675
G01 X34.72724 Y10.94129
G01 X34.72614 Y10.93911
G01 X34.65350 Y10.79999
G01 X34.64961 Y10.79316
G01 X34.64446 Y10.78493
G01 X34.64517 Y10.78447
G01 X34.64446 Y10.78493
G01 X34.64174 Y10.78084
G01 X34.59673 Y10.71625
G01 X34.59381 Y10.71229
G01 X34.52787 Y10.62694
G01 X34.52282 Y10.62090
G01 X34.48329 Y10.57729
G01 X34.48395 Y10.57665
G01 X34.48329 Y10.57729
G01 X34.47989 Y10.57373
G01 X34.42432 Y10.51813
G01 X34.42076 Y10.51475
G01 X34.37715 Y10.47526
G01 X34.37113 Y10.47020
G01 X34.28576 Y10.40424
G01 X34.28180 Y10.40132
G01 X34.28238 Y10.40050
G01 X34.28180 Y10.40132
G01 X34.21715 Y10.35628
G01 X34.21306 Y10.35356
G01 X34.20486 Y10.34843
G01 X34.19805 Y10.34455
G01 X34.05889 Y10.27190
G01 X34.05670 Y10.27079
G01 X34.02127 Y10.25339
G01 X34.02173 Y10.25240
G01 X34.02127 Y10.25339
G01 X34.00951 Y10.24851
G01 X33.97222 Y10.23581
G01 X33.96991 Y10.23502
G01 X33.82010 Y10.18796
G01 X33.81251 Y10.18590
G01 X33.80311 Y10.18374
G01 X33.79831 Y10.18277
G01 X33.79851 Y10.18181
G01 X33.79831 Y10.18277
G01 X33.72074 Y10.16891
G01 X33.71588 Y10.16817
G01 X33.60885 Y10.15443
G01 X33.60103 Y10.15374
G01 X33.54225 Y10.15085
G01 X33.53979 Y10.15077
G01 X33.50047 Y10.14981
G01 X33.50049 Y10.14950
G01 X33.50047 Y10.14981
G01 X33.49800 Y10.14975
G01 X32.19803 Y10.14975
G01 X32.19557 Y10.14981
G01 X32.15622 Y10.15077
G01 X32.15378 Y10.15085
G01 X32.15376 Y10.15047
G01 X32.15378 Y10.15085
G01 X32.09501 Y10.15374
G01 X32.08721 Y10.15443
G01 X31.98018 Y10.16817
G01 X31.97532 Y10.16891
G01 X31.89775 Y10.18277
G01 X31.89770 Y10.18249
G01 X31.89775 Y10.18277
G01 X31.89295 Y10.18374
G01 X31.88360 Y10.18590
G01 X31.87601 Y10.18796
G01 X31.85886 Y10.19334
G01 X31.80133 Y10.20899
G01 X31.73133 Y10.22507
G01 X31.72831 Y10.22583
G01 X31.67832 Y10.23896
G01 X31.67532 Y10.23980
G01 X31.64916 Y10.24757
G01 X31.54921 Y10.27061
G01 X31.48805 Y10.28089
G01 X31.48477 Y10.28150
G01 X31.42282 Y10.29405
G01 X31.39191 Y10.28666
G01 X31.33395 Y10.26263
G01 X31.22272 Y10.20596
G01 X31.16918 Y10.17317
G01 X31.12145 Y10.13241
G01 X31.03316 Y10.04412
G01 X30.99239 Y9.99639
G01 X30.95960 Y9.94285
G01 X30.90294 Y9.83162
G01 X30.87891 Y9.77366
G01 X30.86753 Y9.72623
G01 X30.87891 Y9.77366
G01 X30.90294 Y9.83162
G01 X30.95960 Y9.94285
G01 X30.99239 Y9.99639
G01 X31.03316 Y10.04412
G01 X31.12145 Y10.13241
G01 X31.16918 Y10.17317
G01 X31.22272 Y10.20596
G01 X31.33395 Y10.26263
G01 X31.39191 Y10.28666
G01 X31.42282 Y10.29405
G01 X31.41853 Y10.29494
G01 X31.41536 Y10.29565
G01 X31.38404 Y10.30307
G01 X31.23608 Y10.32816
G01 X31.20230 Y10.33185
G01 X31.20085 Y10.33200
G01 X31.17566 Y10.33512
G01 X31.13941 Y10.32641
G01 X30.98086 Y10.27452
G01 X30.98002 Y10.27383
G01 X30.89173 Y10.18554
G01 X30.83060 Y10.11394
G01 X30.80398 Y10.07048
G01 X30.83060 Y10.11394
G01 X30.89173 Y10.18554
G01 X30.98002 Y10.27383
G01 X30.98086 Y10.27452
G01 X30.93514 Y10.25958
G01 X30.84901 Y10.22392
G01 X30.84500 Y10.22009
G01 X30.92293 Y10.46601
G01 X31.08117 Y10.51780
G01 X31.08894 Y10.51998
G01 X31.14657 Y10.53383
G01 X31.16428 Y10.53642
G01 X31.16395 Y10.54104
G01 X31.16428 Y10.53642
G01 X31.18216 Y10.53583
G01 X31.22463 Y10.53060
G01 X31.26085 Y10.52666
G01 X31.26682 Y10.52583
G01 X31.42069 Y10.49989
G01 X31.42699 Y10.49842
G01 X31.45991 Y10.49062
G01 X31.52292 Y10.47785
G01 X31.58523 Y10.46736
G01 X31.59110 Y10.46619
G01 X31.69722 Y10.44173
G01 X31.70319 Y10.44015
G01 X31.73070 Y10.43200
G01 X31.77766 Y10.41965
G01 X31.84784 Y10.40353
G01 X31.85165 Y10.40256
G01 X31.91294 Y10.38592
G01 X31.91673 Y10.38481
G01 X31.93222 Y10.37993
G01 X31.93534 Y10.37922
G01 X32.00806 Y10.36624
G01 X32.10875 Y10.35331
G01 X32.16234 Y10.35067
G01 X32.19922 Y10.34978
G01 X33.49681 Y10.34978
G01 X33.53366 Y10.35067
G01 X33.58728 Y10.35331
G01 X33.68797 Y10.36624
G01 X33.76072 Y10.37922
G01 X33.76389 Y10.37995
G01 X33.90880 Y10.42547
G01 X33.93885 Y10.43573
G01 X33.96745 Y10.44978
G01 X34.10201 Y10.52001
G01 X34.10481 Y10.52176
G01 X34.16541 Y10.56400
G01 X34.24575 Y10.62608
G01 X34.28462 Y10.66128
G01 X34.33676 Y10.71343
G01 X34.37202 Y10.75232
G01 X34.43404 Y10.83263
G01 X34.47626 Y10.89319
G01 X34.47804 Y10.89603
G01 X34.54827 Y11.03058
G01 X34.56231 Y11.05918
G01 X34.57260 Y11.08933
G01 X34.61809 Y11.23413
G01 X34.61883 Y11.23738
G01 X34.63181 Y11.31005
G01 X34.64474 Y11.41079
G01 X34.64730 Y11.46316
G01 X34.54705 Y11.48041
G01 X34.54705 Y11.51963
G01 X34.53072 Y11.68544
G01 X34.52785 Y11.70487
G01 X34.52307 Y11.72389
G01 X34.47471 Y11.88336
G01 X34.45970 Y11.91958
G01 X34.38114 Y12.06651
G01 X34.37105 Y12.08335
G01 X34.35937 Y12.09913
G01 X34.25365 Y12.22793
G01 X34.22594 Y12.25564
G01 X34.09714 Y12.36136
G01 X34.06452 Y12.38315
G01 X33.91759 Y12.46169
G01 X33.89983 Y12.47010
G01 X33.88134 Y12.47670
G01 X33.72190 Y12.52506
G01 X33.68345 Y12.53271
G01 X33.51761 Y12.54904
G01 X33.49800 Y12.55000
G01 X32.19801 Y12.55000
G01 X32.17840 Y12.54904
G01 X32.01259 Y12.53271
G01 X31.97413 Y12.52506
G01 X31.81467 Y12.47670
G01 X31.79620 Y12.47010
G01 X31.77845 Y12.46169
G01 X31.63151 Y12.38315
G01 X31.59890 Y12.36136
G01 X31.47009 Y12.25564
G01 X31.44238 Y12.22793
G01 X31.33667 Y12.09913
G01 X31.32498 Y12.08335
G01 X31.31487 Y12.06651
G01 X31.31462 Y12.06601
G01 X30.53964 Y12.06601
G01 X30.43466 Y12.19392
G01 X30.40692 Y12.22166
G01 X30.27812 Y12.32737
G01 X30.24553 Y12.34914
G01 X30.09857 Y12.42770
G01 X30.08084 Y12.43608
G01 X30.06235 Y12.44269
G01 X29.90289 Y12.49108
G01 X29.86443 Y12.49872
G01 X29.69862 Y12.51505
G01 X29.67901 Y12.51602
G01 X28.37901 Y12.51602
G01 X28.35941 Y12.51505
G01 X28.19359 Y12.49872
G01 X28.15514 Y12.49108
G01 X27.99568 Y12.44269
G01 X27.97719 Y12.43608
G01 X27.95946 Y12.42770
G01 X27.81249 Y12.34914
G01 X27.77990 Y12.32737
G01 X27.65110 Y12.22166
G01 X27.62336 Y12.19392
G01 X27.51765 Y12.06512
G01 X27.50597 Y12.04937
G01 X27.49588 Y12.03253
G01 X27.41732 Y11.88556
G01 X27.40233 Y11.84934
G01 X27.35395 Y11.68991
G01 X27.34920 Y11.67086
G01 X27.34630 Y11.65145
G01 X27.32997 Y11.48562
G01 X27.32997 Y11.44640
G01 X27.34630 Y11.28059
G01 X27.34920 Y11.26116
G01 X27.35395 Y11.24213
G01 X27.40233 Y11.08267
G01 X27.41732 Y11.04645
G01 X27.49588 Y10.89949
G01 X27.50597 Y10.88267
G01 X27.51765 Y10.86690
G01 X27.62336 Y10.73809
G01 X27.65110 Y10.71036
G01 X27.77990 Y10.60467
G01 X27.81249 Y10.58288
G01 X27.95946 Y10.50434
G01 X27.97719 Y10.49593
G01 X27.99568 Y10.48933
G01 X28.15514 Y10.44097
G01 X28.19359 Y10.43332
G01 X28.35941 Y10.41699
G01 X28.37901 Y10.41602
G01 X29.67901 Y10.41602
G01 X29.69862 Y10.41699
G01 X29.86443 Y10.43332
G01 X29.90289 Y10.44097
G01 X30.06235 Y10.48933
G01 X30.08084 Y10.49593
G01 X30.09857 Y10.50434
G01 X30.24553 Y10.58288
G01 X30.27812 Y10.60467
G01 X30.40692 Y10.71036
G01 X30.43466 Y10.73809
G01 X30.53964 Y10.86603
G01 X31.36529 Y10.86601
G01 X31.44238 Y10.77211
G01 X31.47009 Y10.74437
G01 X31.59890 Y10.63865
G01 X31.63151 Y10.61689
G01 X31.77845 Y10.53832
G01 X31.79620 Y10.52994
G01 X31.81467 Y10.52334
G01 X31.97413 Y10.47495
G01 X32.01259 Y10.46731
G01 X32.17840 Y10.45097
G01 X32.19801 Y10.45001
G01 X33.49800 Y10.45001
G01 X33.51761 Y10.45097
G01 X33.68345 Y10.46731
G01 X33.72190 Y10.47495
G01 X33.88134 Y10.52334
G01 X33.89983 Y10.52994
G01 X33.91759 Y10.53832
G01 X34.06452 Y10.61689
G01 X34.09714 Y10.63865
G01 X34.22594 Y10.74437
G01 X34.25365 Y10.77211
G01 X34.35937 Y10.90091
G01 X34.37105 Y10.91666
G01 X34.38114 Y10.93350
G01 X34.45970 Y11.08046
G01 X34.47471 Y11.11668
G01 X34.52307 Y11.27612
G01 X34.52785 Y11.29517
G01 X34.53072 Y11.31457
G01 X34.54705 Y11.48041
G01 X34.64730 Y11.46316
G01 X34.64730 Y11.53690
G01 X34.64474 Y11.58930
G01 X34.63181 Y11.68998
G01 X34.61883 Y11.76265
G01 X34.61809 Y11.76591
G01 X34.57260 Y11.91071
G01 X34.56231 Y11.94089
G01 X34.54827 Y11.96946
G01 X34.47804 Y12.10403
G01 X34.47628 Y12.10685
G01 X34.43404 Y12.16743
G01 X34.37202 Y12.24774
G01 X34.33676 Y12.28663
G01 X34.28462 Y12.33875
G01 X34.24575 Y12.37398
G01 X34.16541 Y12.43606
G01 X34.10481 Y12.47830
G01 X34.10204 Y12.48003
G01 X33.96745 Y12.55028
G01 X33.93887 Y12.56430
G01 X33.90872 Y12.57459
G01 X33.76389 Y12.62008
G01 X33.76016 Y12.62095
G01 X33.70306 Y12.63174
G01 X33.68998 Y12.63354
G01 X33.58728 Y12.64673
G01 X33.53364 Y12.64937
G01 X33.49676 Y12.65026
G01 X32.19928 Y12.65026
G01 X32.16234 Y12.64937
G01 X32.10875 Y12.64673
G01 X32.00806 Y12.63380
