( pcb2gcode 2.5.0 )
( Software-independent Gcode )
( This file uses a mill head of 0.80000mm to drill the 2 hole sizes. )
( Hole sizes: [1.00076mm] [3.0988mm] )

G94       (Millimeters per minute feed rate.)
G21       (Units == Millimeters.)
G90       (Absolute coordinates.)
S11000    (RPM spindle speed.)

G01 F150.00000 (Feedrate)
G00 Z3.00000 (Retract to tool change height)
T1
M5        (Spindle stop.)
G04 P1.00000
(MSG, Change tool bit to drill size 0.80000mm)
M6        (Tool change.)
M0        (Temporary machine stop.)
M3        (Spindle on clockwise.)
G04 P1.00000
G00 Z3.00000

G0 X6.82818 Y58.98796
G1 Z0.34000 F150.00000
G1 F150.00000
G2 X6.82818 Y58.98796 Z-0.00000 I-0.10038 J0.00000
G2 X6.82818 Y58.98796 Z-0.34000 I-0.10038 J0.00000
G2 X6.82818 Y58.98796 Z-0.68000 I-0.10038 J0.00000
G2 X6.82818 Y58.98796 Z-1.02000 I-0.10038 J0.00000
G2 X6.82818 Y58.98796 Z-1.36000 I-0.10038 J0.00000
G2 X6.82818 Y58.98796 Z-1.70000 I-0.10038 J0.00000
G2 X6.82818 Y58.98796 I-0.10038 J0.00000
G1 Z3.00000 F150.00000

G0 X6.82818 Y56.48860
G1 Z0.34000 F150.00000
G1 F150.00000
G2 X6.82818 Y56.48860 Z-0.00000 I-0.10038 J0.00000
G2 X6.82818 Y56.48860 Z-0.34000 I-0.10038 J0.00000
G2 X6.82818 Y56.48860 Z-0.68000 I-0.10038 J0.00000
G2 X6.82818 Y56.48860 Z-1.02000 I-0.10038 J0.00000
G2 X6.82818 Y56.48860 Z-1.36000 I-0.10038 J0.00000
G2 X6.82818 Y56.48860 Z-1.70000 I-0.10038 J0.00000
G2 X6.82818 Y56.48860 I-0.10038 J0.00000
G1 Z3.00000 F150.00000

G0 X6.82818 Y53.98924
G1 Z0.34000 F150.00000
G1 F150.00000
G2 X6.82818 Y53.98924 Z-0.00000 I-0.10038 J0.00000
G2 X6.82818 Y53.98924 Z-0.34000 I-0.10038 J0.00000
G2 X6.82818 Y53.98924 Z-0.68000 I-0.10038 J0.00000
G2 X6.82818 Y53.98924 Z-1.02000 I-0.10038 J0.00000
G2 X6.82818 Y53.98924 Z-1.36000 I-0.10038 J0.00000
G2 X6.82818 Y53.98924 Z-1.70000 I-0.10038 J0.00000
G2 X6.82818 Y53.98924 I-0.10038 J0.00000
G1 Z3.00000 F150.00000

G0 X6.82818 Y51.48734
G1 Z0.34000 F150.00000
G1 F150.00000
G2 X6.82818 Y51.48734 Z-0.00000 I-0.10038 J0.00000
G2 X6.82818 Y51.48734 Z-0.34000 I-0.10038 J0.00000
G2 X6.82818 Y51.48734 Z-0.68000 I-0.10038 J0.00000
G2 X6.82818 Y51.48734 Z-1.02000 I-0.10038 J0.00000
G2 X6.82818 Y51.48734 Z-1.36000 I-0.10038 J0.00000
G2 X6.82818 Y51.48734 Z-1.70000 I-0.10038 J0.00000
G2 X6.82818 Y51.48734 I-0.10038 J0.00000
G1 Z3.00000 F150.00000

G0 X12.78956 Y56.51400
G1 Z0.34000 F150.00000
G1 F150.00000
G2 X12.78956 Y56.51400 Z-0.00000 I-0.10038 J0.00000
G2 X12.78956 Y56.51400 Z-0.34000 I-0.10038 J0.00000
G2 X12.78956 Y56.51400 Z-0.68000 I-0.10038 J0.00000
G2 X12.78956 Y56.51400 Z-1.02000 I-0.10038 J0.00000
G2 X12.78956 Y56.51400 Z-1.36000 I-0.10038 J0.00000
G2 X12.78956 Y56.51400 Z-1.70000 I-0.10038 J0.00000
G2 X12.78956 Y56.51400 I-0.10038 J0.00000
G1 Z3.00000 F150.00000

G0 X12.78956 Y59.05400
G1 Z0.34000 F150.00000
G1 F150.00000
G2 X12.78956 Y59.05400 Z-0.00000 I-0.10038 J0.00000
G2 X12.78956 Y59.05400 Z-0.34000 I-0.10038 J0.00000
G2 X12.78956 Y59.05400 Z-0.68000 I-0.10038 J0.00000
G2 X12.78956 Y59.05400 Z-1.02000 I-0.10038 J0.00000
G2 X12.78956 Y59.05400 Z-1.36000 I-0.10038 J0.00000
G2 X12.78956 Y59.05400 Z-1.70000 I-0.10038 J0.00000
G2 X12.78956 Y59.05400 I-0.10038 J0.00000
G1 Z3.00000 F150.00000

G0 X12.78956 Y61.59400
G1 Z0.34000 F150.00000
G1 F150.00000
G2 X12.78956 Y61.59400 Z-0.00000 I-0.10038 J0.00000
G2 X12.78956 Y61.59400 Z-0.34000 I-0.10038 J0.00000
G2 X12.78956 Y61.59400 Z-0.68000 I-0.10038 J0.00000
G2 X12.78956 Y61.59400 Z-1.02000 I-0.10038 J0.00000
G2 X12.78956 Y61.59400 Z-1.36000 I-0.10038 J0.00000
G2 X12.78956 Y61.59400 Z-1.70000 I-0.10038 J0.00000
G2 X12.78956 Y61.59400 I-0.10038 J0.00000
G1 Z3.00000 F150.00000

G0 X12.78956 Y64.13400
G1 Z0.34000 F150.00000
G1 F150.00000
G2 X12.78956 Y64.13400 Z-0.00000 I-0.10038 J0.00000
G2 X12.78956 Y64.13400 Z-0.34000 I-0.10038 J0.00000
G2 X12.78956 Y64.13400 Z-0.68000 I-0.10038 J0.00000
G2 X12.78956 Y64.13400 Z-1.02000 I-0.10038 J0.00000
G2 X12.78956 Y64.13400 Z-1.36000 I-0.10038 J0.00000
G2 X12.78956 Y64.13400 Z-1.70000 I-0.10038 J0.00000
G2 X12.78956 Y64.13400 I-0.10038 J0.00000
G1 Z3.00000 F150.00000

G0 X12.78956 Y66.67400
G1 Z0.34000 F150.00000
G1 F150.00000
G2 X12.78956 Y66.67400 Z-0.00000 I-0.10038 J0.00000
G2 X12.78956 Y66.67400 Z-0.34000 I-0.10038 J0.00000
G2 X12.78956 Y66.67400 Z-0.68000 I-0.10038 J0.00000
G2 X12.78956 Y66.67400 Z-1.02000 I-0.10038 J0.00000
G2 X12.78956 Y66.67400 Z-1.36000 I-0.10038 J0.00000
G2 X12.78956 Y66.67400 Z-1.70000 I-0.10038 J0.00000
G2 X12.78956 Y66.67400 I-0.10038 J0.00000
G1 Z3.00000 F150.00000

G0 X12.78956 Y69.21400
G1 Z0.34000 F150.00000
G1 F150.00000
G2 X12.78956 Y69.21400 Z-0.00000 I-0.10038 J0.00000
G2 X12.78956 Y69.21400 Z-0.34000 I-0.10038 J0.00000
G2 X12.78956 Y69.21400 Z-0.68000 I-0.10038 J0.00000
G2 X12.78956 Y69.21400 Z-1.02000 I-0.10038 J0.00000
G2 X12.78956 Y69.21400 Z-1.36000 I-0.10038 J0.00000
G2 X12.78956 Y69.21400 Z-1.70000 I-0.10038 J0.00000
G2 X12.78956 Y69.21400 I-0.10038 J0.00000
G1 Z3.00000 F150.00000

G0 X16.57924 Y69.18606
G1 Z0.34000 F150.00000
G1 F150.00000
G2 X16.57924 Y69.18606 Z-0.00000 I-0.10038 J0.00000
G2 X16.57924 Y69.18606 Z-0.34000 I-0.10038 J0.00000
G2 X16.57924 Y69.18606 Z-0.68000 I-0.10038 J0.00000
G2 X16.57924 Y69.18606 Z-1.02000 I-0.10038 J0.00000
G2 X16.57924 Y69.18606 Z-1.36000 I-0.10038 J0.00000
G2 X16.57924 Y69.18606 Z-1.70000 I-0.10038 J0.00000
G2 X16.57924 Y69.18606 I-0.10038 J0.00000
G1 Z3.00000 F150.00000

G0 X16.57924 Y66.64606
G1 Z0.34000 F150.00000
G1 F150.00000
G2 X16.57924 Y66.64606 Z-0.00000 I-0.10038 J0.00000
G2 X16.57924 Y66.64606 Z-0.34000 I-0.10038 J0.00000
G2 X16.57924 Y66.64606 Z-0.68000 I-0.10038 J0.00000
G2 X16.57924 Y66.64606 Z-1.02000 I-0.10038 J0.00000
G2 X16.57924 Y66.64606 Z-1.36000 I-0.10038 J0.00000
G2 X16.57924 Y66.64606 Z-1.70000 I-0.10038 J0.00000
G2 X16.57924 Y66.64606 I-0.10038 J0.00000
G1 Z3.00000 F150.00000

G0 X16.57924 Y64.10606
G1 Z0.34000 F150.00000
G1 F150.00000
G2 X16.57924 Y64.10606 Z-0.00000 I-0.10038 J0.00000
G2 X16.57924 Y64.10606 Z-0.34000 I-0.10038 J0.00000
G2 X16.57924 Y64.10606 Z-0.68000 I-0.10038 J0.00000
G2 X16.57924 Y64.10606 Z-1.02000 I-0.10038 J0.00000
G2 X16.57924 Y64.10606 Z-1.36000 I-0.10038 J0.00000
G2 X16.57924 Y64.10606 Z-1.70000 I-0.10038 J0.00000
G2 X16.57924 Y64.10606 I-0.10038 J0.00000
G1 Z3.00000 F150.00000

G0 X16.57924 Y61.56606
G1 Z0.34000 F150.00000
G1 F150.00000
G2 X16.57924 Y61.56606 Z-0.00000 I-0.10038 J0.00000
G2 X16.57924 Y61.56606 Z-0.34000 I-0.10038 J0.00000
G2 X16.57924 Y61.56606 Z-0.68000 I-0.10038 J0.00000
G2 X16.57924 Y61.56606 Z-1.02000 I-0.10038 J0.00000
G2 X16.57924 Y61.56606 Z-1.36000 I-0.10038 J0.00000
G2 X16.57924 Y61.56606 Z-1.70000 I-0.10038 J0.00000
G2 X16.57924 Y61.56606 I-0.10038 J0.00000
G1 Z3.00000 F150.00000

G0 X16.57924 Y59.02606
G1 Z0.34000 F150.00000
G1 F150.00000
G2 X16.57924 Y59.02606 Z-0.00000 I-0.10038 J0.00000
G2 X16.57924 Y59.02606 Z-0.34000 I-0.10038 J0.00000
G2 X16.57924 Y59.02606 Z-0.68000 I-0.10038 J0.00000
G2 X16.57924 Y59.02606 Z-1.02000 I-0.10038 J0.00000
G2 X16.57924 Y59.02606 Z-1.36000 I-0.10038 J0.00000
G2 X16.57924 Y59.02606 Z-1.70000 I-0.10038 J0.00000
G2 X16.57924 Y59.02606 I-0.10038 J0.00000
G1 Z3.00000 F150.00000

G0 X16.57924 Y56.48606
G1 Z0.34000 F150.00000
G1 F150.00000
G2 X16.57924 Y56.48606 Z-0.00000 I-0.10038 J0.00000
G2 X16.57924 Y56.48606 Z-0.34000 I-0.10038 J0.00000
G2 X16.57924 Y56.48606 Z-0.68000 I-0.10038 J0.00000
G2 X16.57924 Y56.48606 Z-1.02000 I-0.10038 J0.00000
G2 X16.57924 Y56.48606 Z-1.36000 I-0.10038 J0.00000
G2 X16.57924 Y56.48606 Z-1.70000 I-0.10038 J0.00000
G2 X16.57924 Y56.48606 I-0.10038 J0.00000
G1 Z3.00000 F150.00000

G0 X16.57924 Y53.94606
G1 Z0.34000 F150.00000
G1 F150.00000
G2 X16.57924 Y53.94606 Z-0.00000 I-0.10038 J0.00000
G2 X16.57924 Y53.94606 Z-0.34000 I-0.10038 J0.00000
G2 X16.57924 Y53.94606 Z-0.68000 I-0.10038 J0.00000
G2 X16.57924 Y53.94606 Z-1.02000 I-0.10038 J0.00000
G2 X16.57924 Y53.94606 Z-1.36000 I-0.10038 J0.00000
G2 X16.57924 Y53.94606 Z-1.70000 I-0.10038 J0.00000
G2 X16.57924 Y53.94606 I-0.10038 J0.00000
G1 Z3.00000 F150.00000

G0 X12.78956 Y53.97400
G1 Z0.34000 F150.00000
G1 F150.00000
G2 X12.78956 Y53.97400 Z-0.00000 I-0.10038 J0.00000
G2 X12.78956 Y53.97400 Z-0.34000 I-0.10038 J0.00000
G2 X12.78956 Y53.97400 Z-0.68000 I-0.10038 J0.00000
G2 X12.78956 Y53.97400 Z-1.02000 I-0.10038 J0.00000
G2 X12.78956 Y53.97400 Z-1.36000 I-0.10038 J0.00000
G2 X12.78956 Y53.97400 Z-1.70000 I-0.10038 J0.00000
G2 X12.78956 Y53.97400 I-0.10038 J0.00000
G1 Z3.00000 F150.00000

G0 X12.78956 Y51.43400
G1 Z0.34000 F150.00000
G1 F150.00000
G2 X12.78956 Y51.43400 Z-0.00000 I-0.10038 J0.00000
G2 X12.78956 Y51.43400 Z-0.34000 I-0.10038 J0.00000
G2 X12.78956 Y51.43400 Z-0.68000 I-0.10038 J0.00000
G2 X12.78956 Y51.43400 Z-1.02000 I-0.10038 J0.00000
G2 X12.78956 Y51.43400 Z-1.36000 I-0.10038 J0.00000
G2 X12.78956 Y51.43400 Z-1.70000 I-0.10038 J0.00000
G2 X12.78956 Y51.43400 I-0.10038 J0.00000
G1 Z3.00000 F150.00000

G0 X16.57924 Y51.40606
G1 Z0.34000 F150.00000
G1 F150.00000
G2 X16.57924 Y51.40606 Z-0.00000 I-0.10038 J0.00000
G2 X16.57924 Y51.40606 Z-0.34000 I-0.10038 J0.00000
G2 X16.57924 Y51.40606 Z-0.68000 I-0.10038 J0.00000
G2 X16.57924 Y51.40606 Z-1.02000 I-0.10038 J0.00000
G2 X16.57924 Y51.40606 Z-1.36000 I-0.10038 J0.00000
G2 X16.57924 Y51.40606 Z-1.70000 I-0.10038 J0.00000
G2 X16.57924 Y51.40606 I-0.10038 J0.00000
G1 Z3.00000 F150.00000

G0 X16.57924 Y48.86606
G1 Z0.34000 F150.00000
G1 F150.00000
G2 X16.57924 Y48.86606 Z-0.00000 I-0.10038 J0.00000
G2 X16.57924 Y48.86606 Z-0.34000 I-0.10038 J0.00000
G2 X16.57924 Y48.86606 Z-0.68000 I-0.10038 J0.00000
G2 X16.57924 Y48.86606 Z-1.02000 I-0.10038 J0.00000
G2 X16.57924 Y48.86606 Z-1.36000 I-0.10038 J0.00000
G2 X16.57924 Y48.86606 Z-1.70000 I-0.10038 J0.00000
G2 X16.57924 Y48.86606 I-0.10038 J0.00000
G1 Z3.00000 F150.00000

G0 X12.78956 Y48.89400
G1 Z0.34000 F150.00000
G1 F150.00000
G2 X12.78956 Y48.89400 Z-0.00000 I-0.10038 J0.00000
G2 X12.78956 Y48.89400 Z-0.34000 I-0.10038 J0.00000
G2 X12.78956 Y48.89400 Z-0.68000 I-0.10038 J0.00000
G2 X12.78956 Y48.89400 Z-1.02000 I-0.10038 J0.00000
G2 X12.78956 Y48.89400 Z-1.36000 I-0.10038 J0.00000
G2 X12.78956 Y48.89400 Z-1.70000 I-0.10038 J0.00000
G2 X12.78956 Y48.89400 I-0.10038 J0.00000
G1 Z3.00000 F150.00000

G0 X12.78956 Y46.35400
G1 Z0.34000 F150.00000
G1 F150.00000
G2 X12.78956 Y46.35400 Z-0.00000 I-0.10038 J0.00000
G2 X12.78956 Y46.35400 Z-0.34000 I-0.10038 J0.00000
G2 X12.78956 Y46.35400 Z-0.68000 I-0.10038 J0.00000
G2 X12.78956 Y46.35400 Z-1.02000 I-0.10038 J0.00000
G2 X12.78956 Y46.35400 Z-1.36000 I-0.10038 J0.00000
G2 X12.78956 Y46.35400 Z-1.70000 I-0.10038 J0.00000
G2 X12.78956 Y46.35400 I-0.10038 J0.00000
G1 Z3.00000 F150.00000

G0 X16.57924 Y46.32606
G1 Z0.34000 F150.00000
G1 F150.00000
G2 X16.57924 Y46.32606 Z-0.00000 I-0.10038 J0.00000
G2 X16.57924 Y46.32606 Z-0.34000 I-0.10038 J0.00000
G2 X16.57924 Y46.32606 Z-0.68000 I-0.10038 J0.00000
G2 X16.57924 Y46.32606 Z-1.02000 I-0.10038 J0.00000
G2 X16.57924 Y46.32606 Z-1.36000 I-0.10038 J0.00000
G2 X16.57924 Y46.32606 Z-1.70000 I-0.10038 J0.00000
G2 X16.57924 Y46.32606 I-0.10038 J0.00000
G1 Z3.00000 F150.00000

G0 X16.57924 Y43.78606
G1 Z0.34000 F150.00000
G1 F150.00000
G2 X16.57924 Y43.78606 Z-0.00000 I-0.10038 J0.00000
G2 X16.57924 Y43.78606 Z-0.34000 I-0.10038 J0.00000
G2 X16.57924 Y43.78606 Z-0.68000 I-0.10038 J0.00000
G2 X16.57924 Y43.78606 Z-1.02000 I-0.10038 J0.00000
G2 X16.57924 Y43.78606 Z-1.36000 I-0.10038 J0.00000
G2 X16.57924 Y43.78606 Z-1.70000 I-0.10038 J0.00000
G2 X16.57924 Y43.78606 I-0.10038 J0.00000
G1 Z3.00000 F150.00000

G0 X12.78956 Y43.81400
G1 Z0.34000 F150.00000
G1 F150.00000
G2 X12.78956 Y43.81400 Z-0.00000 I-0.10038 J0.00000
G2 X12.78956 Y43.81400 Z-0.34000 I-0.10038 J0.00000
G2 X12.78956 Y43.81400 Z-0.68000 I-0.10038 J0.00000
G2 X12.78956 Y43.81400 Z-1.02000 I-0.10038 J0.00000
G2 X12.78956 Y43.81400 Z-1.36000 I-0.10038 J0.00000
G2 X12.78956 Y43.81400 Z-1.70000 I-0.10038 J0.00000
G2 X12.78956 Y43.81400 I-0.10038 J0.00000
G1 Z3.00000 F150.00000

G0 X12.78956 Y41.27400
G1 Z0.34000 F150.00000
G1 F150.00000
G2 X12.78956 Y41.27400 Z-0.00000 I-0.10038 J0.00000
G2 X12.78956 Y41.27400 Z-0.34000 I-0.10038 J0.00000
G2 X12.78956 Y41.27400 Z-0.68000 I-0.10038 J0.00000
G2 X12.78956 Y41.27400 Z-1.02000 I-0.10038 J0.00000
G2 X12.78956 Y41.27400 Z-1.36000 I-0.10038 J0.00000
G2 X12.78956 Y41.27400 Z-1.70000 I-0.10038 J0.00000
G2 X12.78956 Y41.27400 I-0.10038 J0.00000
G1 Z3.00000 F150.00000

G0 X16.57924 Y41.24606
G1 Z0.34000 F150.00000
G1 F150.00000
G2 X16.57924 Y41.24606 Z-0.00000 I-0.10038 J0.00000
G2 X16.57924 Y41.24606 Z-0.34000 I-0.10038 J0.00000
G2 X16.57924 Y41.24606 Z-0.68000 I-0.10038 J0.00000
G2 X16.57924 Y41.24606 Z-1.02000 I-0.10038 J0.00000
G2 X16.57924 Y41.24606 Z-1.36000 I-0.10038 J0.00000
G2 X16.57924 Y41.24606 Z-1.70000 I-0.10038 J0.00000
G2 X16.57924 Y41.24606 I-0.10038 J0.00000
G1 Z3.00000 F150.00000

G0 X16.57924 Y38.70606
G1 Z0.34000 F150.00000
G1 F150.00000
G2 X16.57924 Y38.70606 Z-0.00000 I-0.10038 J0.00000
G2 X16.57924 Y38.70606 Z-0.34000 I-0.10038 J0.00000
G2 X16.57924 Y38.70606 Z-0.68000 I-0.10038 J0.00000
G2 X16.57924 Y38.70606 Z-1.02000 I-0.10038 J0.00000
G2 X16.57924 Y38.70606 Z-1.36000 I-0.10038 J0.00000
G2 X16.57924 Y38.70606 Z-1.70000 I-0.10038 J0.00000
G2 X16.57924 Y38.70606 I-0.10038 J0.00000
G1 Z3.00000 F150.00000

G0 X16.57924 Y36.16606
G1 Z0.34000 F150.00000
G1 F150.00000
G2 X16.57924 Y36.16606 Z-0.00000 I-0.10038 J0.00000
G2 X16.57924 Y36.16606 Z-0.34000 I-0.10038 J0.00000
G2 X16.57924 Y36.16606 Z-0.68000 I-0.10038 J0.00000
G2 X16.57924 Y36.16606 Z-1.02000 I-0.10038 J0.00000
G2 X16.57924 Y36.16606 Z-1.36000 I-0.10038 J0.00000
G2 X16.57924 Y36.16606 Z-1.70000 I-0.10038 J0.00000
G2 X16.57924 Y36.16606 I-0.10038 J0.00000
G1 Z3.00000 F150.00000

G0 X16.57924 Y33.62606
G1 Z0.34000 F150.00000
G1 F150.00000
G2 X16.57924 Y33.62606 Z-0.00000 I-0.10038 J0.00000
G2 X16.57924 Y33.62606 Z-0.34000 I-0.10038 J0.00000
G2 X16.57924 Y33.62606 Z-0.68000 I-0.10038 J0.00000
G2 X16.57924 Y33.62606 Z-1.02000 I-0.10038 J0.00000
G2 X16.57924 Y33.62606 Z-1.36000 I-0.10038 J0.00000
G2 X16.57924 Y33.62606 Z-1.70000 I-0.10038 J0.00000
G2 X16.57924 Y33.62606 I-0.10038 J0.00000
G1 Z3.00000 F150.00000

G0 X16.57924 Y31.08606
G1 Z0.34000 F150.00000
G1 F150.00000
G2 X16.57924 Y31.08606 Z-0.00000 I-0.10038 J0.00000
G2 X16.57924 Y31.08606 Z-0.34000 I-0.10038 J0.00000
G2 X16.57924 Y31.08606 Z-0.68000 I-0.10038 J0.00000
G2 X16.57924 Y31.08606 Z-1.02000 I-0.10038 J0.00000
G2 X16.57924 Y31.08606 Z-1.36000 I-0.10038 J0.00000
G2 X16.57924 Y31.08606 Z-1.70000 I-0.10038 J0.00000
G2 X16.57924 Y31.08606 I-0.10038 J0.00000
G1 Z3.00000 F150.00000

G0 X16.57924 Y28.54606
G1 Z0.34000 F150.00000
G1 F150.00000
G2 X16.57924 Y28.54606 Z-0.00000 I-0.10038 J0.00000
G2 X16.57924 Y28.54606 Z-0.34000 I-0.10038 J0.00000
G2 X16.57924 Y28.54606 Z-0.68000 I-0.10038 J0.00000
G2 X16.57924 Y28.54606 Z-1.02000 I-0.10038 J0.00000
G2 X16.57924 Y28.54606 Z-1.36000 I-0.10038 J0.00000
G2 X16.57924 Y28.54606 Z-1.70000 I-0.10038 J0.00000
G2 X16.57924 Y28.54606 I-0.10038 J0.00000
G1 Z3.00000 F150.00000

G0 X16.58178 Y26.00860
G1 Z0.34000 F150.00000
G1 F150.00000
G2 X16.58178 Y26.00860 Z-0.00000 I-0.10038 J0.00000
G2 X16.58178 Y26.00860 Z-0.34000 I-0.10038 J0.00000
G2 X16.58178 Y26.00860 Z-0.68000 I-0.10038 J0.00000
G2 X16.58178 Y26.00860 Z-1.02000 I-0.10038 J0.00000
G2 X16.58178 Y26.00860 Z-1.36000 I-0.10038 J0.00000
G2 X16.58178 Y26.00860 Z-1.70000 I-0.10038 J0.00000
G2 X16.58178 Y26.00860 I-0.10038 J0.00000
G1 Z3.00000 F150.00000

G0 X16.58178 Y23.46860
G1 Z0.34000 F150.00000
G1 F150.00000
G2 X16.58178 Y23.46860 Z-0.00000 I-0.10038 J0.00000
G2 X16.58178 Y23.46860 Z-0.34000 I-0.10038 J0.00000
G2 X16.58178 Y23.46860 Z-0.68000 I-0.10038 J0.00000
G2 X16.58178 Y23.46860 Z-1.02000 I-0.10038 J0.00000
G2 X16.58178 Y23.46860 Z-1.36000 I-0.10038 J0.00000
G2 X16.58178 Y23.46860 Z-1.70000 I-0.10038 J0.00000
G2 X16.58178 Y23.46860 I-0.10038 J0.00000
G1 Z3.00000 F150.00000

G0 X12.78956 Y26.03400
G1 Z0.34000 F150.00000
G1 F150.00000
G2 X12.78956 Y26.03400 Z-0.00000 I-0.10038 J0.00000
G2 X12.78956 Y26.03400 Z-0.34000 I-0.10038 J0.00000
G2 X12.78956 Y26.03400 Z-0.68000 I-0.10038 J0.00000
G2 X12.78956 Y26.03400 Z-1.02000 I-0.10038 J0.00000
G2 X12.78956 Y26.03400 Z-1.36000 I-0.10038 J0.00000
G2 X12.78956 Y26.03400 Z-1.70000 I-0.10038 J0.00000
G2 X12.78956 Y26.03400 I-0.10038 J0.00000
G1 Z3.00000 F150.00000

G0 X12.78956 Y28.57400
G1 Z0.34000 F150.00000
G1 F150.00000
G2 X12.78956 Y28.57400 Z-0.00000 I-0.10038 J0.00000
G2 X12.78956 Y28.57400 Z-0.34000 I-0.10038 J0.00000
G2 X12.78956 Y28.57400 Z-0.68000 I-0.10038 J0.00000
G2 X12.78956 Y28.57400 Z-1.02000 I-0.10038 J0.00000
G2 X12.78956 Y28.57400 Z-1.36000 I-0.10038 J0.00000
G2 X12.78956 Y28.57400 Z-1.70000 I-0.10038 J0.00000
G2 X12.78956 Y28.57400 I-0.10038 J0.00000
G1 Z3.00000 F150.00000

G0 X12.78956 Y31.11400
G1 Z0.34000 F150.00000
G1 F150.00000
G2 X12.78956 Y31.11400 Z-0.00000 I-0.10038 J0.00000
G2 X12.78956 Y31.11400 Z-0.34000 I-0.10038 J0.00000
G2 X12.78956 Y31.11400 Z-0.68000 I-0.10038 J0.00000
G2 X12.78956 Y31.11400 Z-1.02000 I-0.10038 J0.00000
G2 X12.78956 Y31.11400 Z-1.36000 I-0.10038 J0.00000
G2 X12.78956 Y31.11400 Z-1.70000 I-0.10038 J0.00000
G2 X12.78956 Y31.11400 I-0.10038 J0.00000
G1 Z3.00000 F150.00000

G0 X12.78956 Y33.65400
G1 Z0.34000 F150.00000
G1 F150.00000
G2 X12.78956 Y33.65400 Z-0.00000 I-0.10038 J0.00000
G2 X12.78956 Y33.65400 Z-0.34000 I-0.10038 J0.00000
G2 X12.78956 Y33.65400 Z-0.68000 I-0.10038 J0.00000
G2 X12.78956 Y33.65400 Z-1.02000 I-0.10038 J0.00000
G2 X12.78956 Y33.65400 Z-1.36000 I-0.10038 J0.00000
G2 X12.78956 Y33.65400 Z-1.70000 I-0.10038 J0.00000
G2 X12.78956 Y33.65400 I-0.10038 J0.00000
G1 Z3.00000 F150.00000

G0 X12.78956 Y36.19400
G1 Z0.34000 F150.00000
G1 F150.00000
G2 X12.78956 Y36.19400 Z-0.00000 I-0.10038 J0.00000
G2 X12.78956 Y36.19400 Z-0.34000 I-0.10038 J0.00000
G2 X12.78956 Y36.19400 Z-0.68000 I-0.10038 J0.00000
G2 X12.78956 Y36.19400 Z-1.02000 I-0.10038 J0.00000
G2 X12.78956 Y36.19400 Z-1.36000 I-0.10038 J0.00000
G2 X12.78956 Y36.19400 Z-1.70000 I-0.10038 J0.00000
G2 X12.78956 Y36.19400 I-0.10038 J0.00000
G1 Z3.00000 F150.00000

G0 X12.78956 Y38.73400
G1 Z0.34000 F150.00000
G1 F150.00000
G2 X12.78956 Y38.73400 Z-0.00000 I-0.10038 J0.00000
G2 X12.78956 Y38.73400 Z-0.34000 I-0.10038 J0.00000
G2 X12.78956 Y38.73400 Z-0.68000 I-0.10038 J0.00000
G2 X12.78956 Y38.73400 Z-1.02000 I-0.10038 J0.00000
G2 X12.78956 Y38.73400 Z-1.36000 I-0.10038 J0.00000
G2 X12.78956 Y38.73400 Z-1.70000 I-0.10038 J0.00000
G2 X12.78956 Y38.73400 I-0.10038 J0.00000
G1 Z3.00000 F150.00000

G0 X6.82818 Y32.05126
G1 Z0.34000 F150.00000
G1 F150.00000
G2 X6.82818 Y32.05126 Z-0.00000 I-0.10038 J0.00000
G2 X6.82818 Y32.05126 Z-0.34000 I-0.10038 J0.00000
G2 X6.82818 Y32.05126 Z-0.68000 I-0.10038 J0.00000
G2 X6.82818 Y32.05126 Z-1.02000 I-0.10038 J0.00000
G2 X6.82818 Y32.05126 Z-1.36000 I-0.10038 J0.00000
G2 X6.82818 Y32.05126 Z-1.70000 I-0.10038 J0.00000
G2 X6.82818 Y32.05126 I-0.10038 J0.00000
G1 Z3.00000 F150.00000

G0 X6.82818 Y29.54936
G1 Z0.34000 F150.00000
G1 F150.00000
G2 X6.82818 Y29.54936 Z-0.00000 I-0.10038 J0.00000
G2 X6.82818 Y29.54936 Z-0.34000 I-0.10038 J0.00000
G2 X6.82818 Y29.54936 Z-0.68000 I-0.10038 J0.00000
G2 X6.82818 Y29.54936 Z-1.02000 I-0.10038 J0.00000
G2 X6.82818 Y29.54936 Z-1.36000 I-0.10038 J0.00000
G2 X6.82818 Y29.54936 Z-1.70000 I-0.10038 J0.00000
G2 X6.82818 Y29.54936 I-0.10038 J0.00000
G1 Z3.00000 F150.00000

G0 X12.78956 Y23.49400
G1 Z0.34000 F150.00000
G1 F150.00000
G2 X12.78956 Y23.49400 Z-0.00000 I-0.10038 J0.00000
G2 X12.78956 Y23.49400 Z-0.34000 I-0.10038 J0.00000
G2 X12.78956 Y23.49400 Z-0.68000 I-0.10038 J0.00000
G2 X12.78956 Y23.49400 Z-1.02000 I-0.10038 J0.00000
G2 X12.78956 Y23.49400 Z-1.36000 I-0.10038 J0.00000
G2 X12.78956 Y23.49400 Z-1.70000 I-0.10038 J0.00000
G2 X12.78956 Y23.49400 I-0.10038 J0.00000
G1 Z3.00000 F150.00000

G0 X6.82818 Y16.80110
G1 Z0.34000 F150.00000
G1 F150.00000
G2 X6.82818 Y16.80110 Z-0.00000 I-0.10038 J0.00000
G2 X6.82818 Y16.80110 Z-0.34000 I-0.10038 J0.00000
G2 X6.82818 Y16.80110 Z-0.68000 I-0.10038 J0.00000
G2 X6.82818 Y16.80110 Z-1.02000 I-0.10038 J0.00000
G2 X6.82818 Y16.80110 Z-1.36000 I-0.10038 J0.00000
G2 X6.82818 Y16.80110 Z-1.70000 I-0.10038 J0.00000
G2 X6.82818 Y16.80110 I-0.10038 J0.00000
G1 Z3.00000 F150.00000

G0 X6.82818 Y14.29920
G1 Z0.34000 F150.00000
G1 F150.00000
G2 X6.82818 Y14.29920 Z-0.00000 I-0.10038 J0.00000
G2 X6.82818 Y14.29920 Z-0.34000 I-0.10038 J0.00000
G2 X6.82818 Y14.29920 Z-0.68000 I-0.10038 J0.00000
G2 X6.82818 Y14.29920 Z-1.02000 I-0.10038 J0.00000
G2 X6.82818 Y14.29920 Z-1.36000 I-0.10038 J0.00000
G2 X6.82818 Y14.29920 Z-1.70000 I-0.10038 J0.00000
G2 X6.82818 Y14.29920 I-0.10038 J0.00000
G1 Z3.00000 F150.00000

G0 X16.42938 Y13.21716
G1 Z0.34000 F150.00000
G1 F150.00000
G2 X16.42938 Y13.21716 Z-0.00000 I-0.10038 J0.00000
G2 X16.42938 Y13.21716 Z-0.34000 I-0.10038 J0.00000
G2 X16.42938 Y13.21716 Z-0.68000 I-0.10038 J0.00000
G2 X16.42938 Y13.21716 Z-1.02000 I-0.10038 J0.00000
G2 X16.42938 Y13.21716 Z-1.36000 I-0.10038 J0.00000
G2 X16.42938 Y13.21716 Z-1.70000 I-0.10038 J0.00000
G2 X16.42938 Y13.21716 I-0.10038 J0.00000
G1 Z3.00000 F150.00000

G0 X16.42938 Y9.71704
G1 Z0.34000 F150.00000
G1 F150.00000
G2 X16.42938 Y9.71704 Z-0.00000 I-0.10038 J0.00000
G2 X16.42938 Y9.71704 Z-0.34000 I-0.10038 J0.00000
G2 X16.42938 Y9.71704 Z-0.68000 I-0.10038 J0.00000
G2 X16.42938 Y9.71704 Z-1.02000 I-0.10038 J0.00000
G2 X16.42938 Y9.71704 Z-1.36000 I-0.10038 J0.00000
G2 X16.42938 Y9.71704 Z-1.70000 I-0.10038 J0.00000
G2 X16.42938 Y9.71704 I-0.10038 J0.00000
G1 Z3.00000 F150.00000

G0 X29.12938 Y3.84710
G1 Z0.34000 F150.00000
G1 F150.00000
G2 X29.12938 Y3.84710 Z-0.00000 I-0.10038 J0.00000
G2 X29.12938 Y3.84710 Z-0.34000 I-0.10038 J0.00000
G2 X29.12938 Y3.84710 Z-0.68000 I-0.10038 J0.00000
G2 X29.12938 Y3.84710 Z-1.02000 I-0.10038 J0.00000
G2 X29.12938 Y3.84710 Z-1.36000 I-0.10038 J0.00000
G2 X29.12938 Y3.84710 Z-1.70000 I-0.10038 J0.00000
G2 X29.12938 Y3.84710 I-0.10038 J0.00000
G1 Z3.00000 F150.00000

G0 X29.12938 Y6.38710
G1 Z0.34000 F150.00000
G1 F150.00000
G2 X29.12938 Y6.38710 Z-0.00000 I-0.10038 J0.00000
G2 X29.12938 Y6.38710 Z-0.34000 I-0.10038 J0.00000
G2 X29.12938 Y6.38710 Z-0.68000 I-0.10038 J0.00000
G2 X29.12938 Y6.38710 Z-1.02000 I-0.10038 J0.00000
G2 X29.12938 Y6.38710 Z-1.36000 I-0.10038 J0.00000
G2 X29.12938 Y6.38710 Z-1.70000 I-0.10038 J0.00000
G2 X29.12938 Y6.38710 I-0.10038 J0.00000
G1 Z3.00000 F150.00000

G0 X29.12938 Y8.92710
G1 Z0.34000 F150.00000
G1 F150.00000
G2 X29.12938 Y8.92710 Z-0.00000 I-0.10038 J0.00000
G2 X29.12938 Y8.92710 Z-0.34000 I-0.10038 J0.00000
G2 X29.12938 Y8.92710 Z-0.68000 I-0.10038 J0.00000
G2 X29.12938 Y8.92710 Z-1.02000 I-0.10038 J0.00000
G2 X29.12938 Y8.92710 Z-1.36000 I-0.10038 J0.00000
G2 X29.12938 Y8.92710 Z-1.70000 I-0.10038 J0.00000
G2 X29.12938 Y8.92710 I-0.10038 J0.00000
G1 Z3.00000 F150.00000

G0 X29.12938 Y11.46710
G1 Z0.34000 F150.00000
G1 F150.00000
G2 X29.12938 Y11.46710 Z-0.00000 I-0.10038 J0.00000
G2 X29.12938 Y11.46710 Z-0.34000 I-0.10038 J0.00000
G2 X29.12938 Y11.46710 Z-0.68000 I-0.10038 J0.00000
G2 X29.12938 Y11.46710 Z-1.02000 I-0.10038 J0.00000
G2 X29.12938 Y11.46710 Z-1.36000 I-0.10038 J0.00000
G2 X29.12938 Y11.46710 Z-1.70000 I-0.10038 J0.00000
G2 X29.12938 Y11.46710 I-0.10038 J0.00000
G1 Z3.00000 F150.00000

G0 X29.12938 Y14.00710
G1 Z0.34000 F150.00000
G1 F150.00000
G2 X29.12938 Y14.00710 Z-0.00000 I-0.10038 J0.00000
G2 X29.12938 Y14.00710 Z-0.34000 I-0.10038 J0.00000
G2 X29.12938 Y14.00710 Z-0.68000 I-0.10038 J0.00000
G2 X29.12938 Y14.00710 Z-1.02000 I-0.10038 J0.00000
G2 X29.12938 Y14.00710 Z-1.36000 I-0.10038 J0.00000
G2 X29.12938 Y14.00710 Z-1.70000 I-0.10038 J0.00000
G2 X29.12938 Y14.00710 I-0.10038 J0.00000
G1 Z3.00000 F150.00000

G0 X29.12938 Y16.54710
G1 Z0.34000 F150.00000
G1 F150.00000
G2 X29.12938 Y16.54710 Z-0.00000 I-0.10038 J0.00000
G2 X29.12938 Y16.54710 Z-0.34000 I-0.10038 J0.00000
G2 X29.12938 Y16.54710 Z-0.68000 I-0.10038 J0.00000
G2 X29.12938 Y16.54710 Z-1.02000 I-0.10038 J0.00000
G2 X29.12938 Y16.54710 Z-1.36000 I-0.10038 J0.00000
G2 X29.12938 Y16.54710 Z-1.70000 I-0.10038 J0.00000
G2 X29.12938 Y16.54710 I-0.10038 J0.00000
G1 Z3.00000 F150.00000

G0 X29.12938 Y19.08710
G1 Z0.34000 F150.00000
G1 F150.00000
G2 X29.12938 Y19.08710 Z-0.00000 I-0.10038 J0.00000
G2 X29.12938 Y19.08710 Z-0.34000 I-0.10038 J0.00000
G2 X29.12938 Y19.08710 Z-0.68000 I-0.10038 J0.00000
G2 X29.12938 Y19.08710 Z-1.02000 I-0.10038 J0.00000
G2 X29.12938 Y19.08710 Z-1.36000 I-0.10038 J0.00000
G2 X29.12938 Y19.08710 Z-1.70000 I-0.10038 J0.00000
G2 X29.12938 Y19.08710 I-0.10038 J0.00000
G1 Z3.00000 F150.00000

G0 X32.94954 Y11.50012
G1 Z0.34000 F150.00000
G1 F150.00000
G2 X32.94954 Y11.50012 Z-0.00000 I-0.10038 J0.00000
G2 X32.94954 Y11.50012 Z-0.34000 I-0.10038 J0.00000
G2 X32.94954 Y11.50012 Z-0.68000 I-0.10038 J0.00000
G2 X32.94954 Y11.50012 Z-1.02000 I-0.10038 J0.00000
G2 X32.94954 Y11.50012 Z-1.36000 I-0.10038 J0.00000
G2 X32.94954 Y11.50012 Z-1.70000 I-0.10038 J0.00000
G2 X32.94954 Y11.50012 I-0.10038 J0.00000
G1 Z3.00000 F150.00000

G0 X40.56954 Y11.50012
G1 Z0.34000 F150.00000
G1 F150.00000
G2 X40.56954 Y11.50012 Z-0.00000 I-0.10038 J0.00000
G2 X40.56954 Y11.50012 Z-0.34000 I-0.10038 J0.00000
G2 X40.56954 Y11.50012 Z-0.68000 I-0.10038 J0.00000
G2 X40.56954 Y11.50012 Z-1.02000 I-0.10038 J0.00000
G2 X40.56954 Y11.50012 Z-1.36000 I-0.10038 J0.00000
G2 X40.56954 Y11.50012 Z-1.70000 I-0.10038 J0.00000
G2 X40.56954 Y11.50012 I-0.10038 J0.00000
G1 Z3.00000 F150.00000

G0 X41.97924 Y23.46606
G1 Z0.34000 F150.00000
G1 F150.00000
G2 X41.97924 Y23.46606 Z-0.00000 I-0.10038 J0.00000
G2 X41.97924 Y23.46606 Z-0.34000 I-0.10038 J0.00000
G2 X41.97924 Y23.46606 Z-0.68000 I-0.10038 J0.00000
G2 X41.97924 Y23.46606 Z-1.02000 I-0.10038 J0.00000
G2 X41.97924 Y23.46606 Z-1.36000 I-0.10038 J0.00000
G2 X41.97924 Y23.46606 Z-1.70000 I-0.10038 J0.00000
G2 X41.97924 Y23.46606 I-0.10038 J0.00000
G1 Z3.00000 F150.00000

G0 X41.97924 Y26.00606
G1 Z0.34000 F150.00000
G1 F150.00000
G2 X41.97924 Y26.00606 Z-0.00000 I-0.10038 J0.00000
G2 X41.97924 Y26.00606 Z-0.34000 I-0.10038 J0.00000
G2 X41.97924 Y26.00606 Z-0.68000 I-0.10038 J0.00000
G2 X41.97924 Y26.00606 Z-1.02000 I-0.10038 J0.00000
G2 X41.97924 Y26.00606 Z-1.36000 I-0.10038 J0.00000
G2 X41.97924 Y26.00606 Z-1.70000 I-0.10038 J0.00000
G2 X41.97924 Y26.00606 I-0.10038 J0.00000
G1 Z3.00000 F150.00000

G0 X41.97924 Y28.54606
G1 Z0.34000 F150.00000
G1 F150.00000
G2 X41.97924 Y28.54606 Z-0.00000 I-0.10038 J0.00000
G2 X41.97924 Y28.54606 Z-0.34000 I-0.10038 J0.00000
G2 X41.97924 Y28.54606 Z-0.68000 I-0.10038 J0.00000
G2 X41.97924 Y28.54606 Z-1.02000 I-0.10038 J0.00000
G2 X41.97924 Y28.54606 Z-1.36000 I-0.10038 J0.00000
G2 X41.97924 Y28.54606 Z-1.70000 I-0.10038 J0.00000
G2 X41.97924 Y28.54606 I-0.10038 J0.00000
G1 Z3.00000 F150.00000

G0 X41.97924 Y31.08606
G1 Z0.34000 F150.00000
G1 F150.00000
G2 X41.97924 Y31.08606 Z-0.00000 I-0.10038 J0.00000
G2 X41.97924 Y31.08606 Z-0.34000 I-0.10038 J0.00000
G2 X41.97924 Y31.08606 Z-0.68000 I-0.10038 J0.00000
G2 X41.97924 Y31.08606 Z-1.02000 I-0.10038 J0.00000
G2 X41.97924 Y31.08606 Z-1.36000 I-0.10038 J0.00000
G2 X41.97924 Y31.08606 Z-1.70000 I-0.10038 J0.00000
G2 X41.97924 Y31.08606 I-0.10038 J0.00000
G1 Z3.00000 F150.00000

G0 X41.97924 Y33.62606
G1 Z0.34000 F150.00000
G1 F150.00000
G2 X41.97924 Y33.62606 Z-0.00000 I-0.10038 J0.00000
G2 X41.97924 Y33.62606 Z-0.34000 I-0.10038 J0.00000
G2 X41.97924 Y33.62606 Z-0.68000 I-0.10038 J0.00000
G2 X41.97924 Y33.62606 Z-1.02000 I-0.10038 J0.00000
G2 X41.97924 Y33.62606 Z-1.36000 I-0.10038 J0.00000
G2 X41.97924 Y33.62606 Z-1.70000 I-0.10038 J0.00000
G2 X41.97924 Y33.62606 I-0.10038 J0.00000
G1 Z3.00000 F150.00000

G0 X41.97924 Y36.16606
G1 Z0.34000 F150.00000
G1 F150.00000
G2 X41.97924 Y36.16606 Z-0.00000 I-0.10038 J0.00000
G2 X41.97924 Y36.16606 Z-0.34000 I-0.10038 J0.00000
G2 X41.97924 Y36.16606 Z-0.68000 I-0.10038 J0.00000
G2 X41.97924 Y36.16606 Z-1.02000 I-0.10038 J0.00000
G2 X41.97924 Y36.16606 Z-1.36000 I-0.10038 J0.00000
G2 X41.97924 Y36.16606 Z-1.70000 I-0.10038 J0.00000
G2 X41.97924 Y36.16606 I-0.10038 J0.00000
G1 Z3.00000 F150.00000

G0 X41.97924 Y38.70606
G1 Z0.34000 F150.00000
G1 F150.00000
G2 X41.97924 Y38.70606 Z-0.00000 I-0.10038 J0.00000
G2 X41.97924 Y38.70606 Z-0.34000 I-0.10038 J0.00000
G2 X41.97924 Y38.70606 Z-0.68000 I-0.10038 J0.00000
G2 X41.97924 Y38.70606 Z-1.02000 I-0.10038 J0.00000
G2 X41.97924 Y38.70606 Z-1.36000 I-0.10038 J0.00000
G2 X41.97924 Y38.70606 Z-1.70000 I-0.10038 J0.00000
G2 X41.97924 Y38.70606 I-0.10038 J0.00000
G1 Z3.00000 F150.00000

G0 X41.97924 Y41.24606
G1 Z0.34000 F150.00000
G1 F150.00000
G2 X41.97924 Y41.24606 Z-0.00000 I-0.10038 J0.00000
G2 X41.97924 Y41.24606 Z-0.34000 I-0.10038 J0.00000
G2 X41.97924 Y41.24606 Z-0.68000 I-0.10038 J0.00000
G2 X41.97924 Y41.24606 Z-1.02000 I-0.10038 J0.00000
G2 X41.97924 Y41.24606 Z-1.36000 I-0.10038 J0.00000
G2 X41.97924 Y41.24606 Z-1.70000 I-0.10038 J0.00000
G2 X41.97924 Y41.24606 I-0.10038 J0.00000
G1 Z3.00000 F150.00000

G0 X41.97924 Y43.78606
G1 Z0.34000 F150.00000
G1 F150.00000
G2 X41.97924 Y43.78606 Z-0.00000 I-0.10038 J0.00000
G2 X41.97924 Y43.78606 Z-0.34000 I-0.10038 J0.00000
G2 X41.97924 Y43.78606 Z-0.68000 I-0.10038 J0.00000
G2 X41.97924 Y43.78606 Z-1.02000 I-0.10038 J0.00000
G2 X41.97924 Y43.78606 Z-1.36000 I-0.10038 J0.00000
G2 X41.97924 Y43.78606 Z-1.70000 I-0.10038 J0.00000
G2 X41.97924 Y43.78606 I-0.10038 J0.00000
G1 Z3.00000 F150.00000

G0 X41.97924 Y46.32606
G1 Z0.34000 F150.00000
G1 F150.00000
G2 X41.97924 Y46.32606 Z-0.00000 I-0.10038 J0.00000
G2 X41.97924 Y46.32606 Z-0.34000 I-0.10038 J0.00000
G2 X41.97924 Y46.32606 Z-0.68000 I-0.10038 J0.00000
G2 X41.97924 Y46.32606 Z-1.02000 I-0.10038 J0.00000
G2 X41.97924 Y46.32606 Z-1.36000 I-0.10038 J0.00000
G2 X41.97924 Y46.32606 Z-1.70000 I-0.10038 J0.00000
G2 X41.97924 Y46.32606 I-0.10038 J0.00000
G1 Z3.00000 F150.00000

G0 X41.97924 Y48.86606
G1 Z0.34000 F150.00000
G1 F150.00000
G2 X41.97924 Y48.86606 Z-0.00000 I-0.10038 J0.00000
G2 X41.97924 Y48.86606 Z-0.34000 I-0.10038 J0.00000
G2 X41.97924 Y48.86606 Z-0.68000 I-0.10038 J0.00000
G2 X41.97924 Y48.86606 Z-1.02000 I-0.10038 J0.00000
G2 X41.97924 Y48.86606 Z-1.36000 I-0.10038 J0.00000
G2 X41.97924 Y48.86606 Z-1.70000 I-0.10038 J0.00000
G2 X41.97924 Y48.86606 I-0.10038 J0.00000
G1 Z3.00000 F150.00000

G0 X41.97924 Y51.40606
G1 Z0.34000 F150.00000
G1 F150.00000
G2 X41.97924 Y51.40606 Z-0.00000 I-0.10038 J0.00000
G2 X41.97924 Y51.40606 Z-0.34000 I-0.10038 J0.00000
G2 X41.97924 Y51.40606 Z-0.68000 I-0.10038 J0.00000
G2 X41.97924 Y51.40606 Z-1.02000 I-0.10038 J0.00000
G2 X41.97924 Y51.40606 Z-1.36000 I-0.10038 J0.00000
G2 X41.97924 Y51.40606 Z-1.70000 I-0.10038 J0.00000
G2 X41.97924 Y51.40606 I-0.10038 J0.00000
G1 Z3.00000 F150.00000

G0 X41.97924 Y53.94606
G1 Z0.34000 F150.00000
G1 F150.00000
G2 X41.97924 Y53.94606 Z-0.00000 I-0.10038 J0.00000
G2 X41.97924 Y53.94606 Z-0.34000 I-0.10038 J0.00000
G2 X41.97924 Y53.94606 Z-0.68000 I-0.10038 J0.00000
G2 X41.97924 Y53.94606 Z-1.02000 I-0.10038 J0.00000
G2 X41.97924 Y53.94606 Z-1.36000 I-0.10038 J0.00000
G2 X41.97924 Y53.94606 Z-1.70000 I-0.10038 J0.00000
G2 X41.97924 Y53.94606 I-0.10038 J0.00000
G1 Z3.00000 F150.00000

G0 X41.97924 Y56.48606
G1 Z0.34000 F150.00000
G1 F150.00000
G2 X41.97924 Y56.48606 Z-0.00000 I-0.10038 J0.00000
G2 X41.97924 Y56.48606 Z-0.34000 I-0.10038 J0.00000
G2 X41.97924 Y56.48606 Z-0.68000 I-0.10038 J0.00000
G2 X41.97924 Y56.48606 Z-1.02000 I-0.10038 J0.00000
G2 X41.97924 Y56.48606 Z-1.36000 I-0.10038 J0.00000
G2 X41.97924 Y56.48606 Z-1.70000 I-0.10038 J0.00000
G2 X41.97924 Y56.48606 I-0.10038 J0.00000
G1 Z3.00000 F150.00000

G0 X41.97924 Y59.02606
G1 Z0.34000 F150.00000
G1 F150.00000
G2 X41.97924 Y59.02606 Z-0.00000 I-0.10038 J0.00000
G2 X41.97924 Y59.02606 Z-0.34000 I-0.10038 J0.00000
G2 X41.97924 Y59.02606 Z-0.68000 I-0.10038 J0.00000
G2 X41.97924 Y59.02606 Z-1.02000 I-0.10038 J0.00000
G2 X41.97924 Y59.02606 Z-1.36000 I-0.10038 J0.00000
G2 X41.97924 Y59.02606 Z-1.70000 I-0.10038 J0.00000
G2 X41.97924 Y59.02606 I-0.10038 J0.00000
G1 Z3.00000 F150.00000

G0 X41.97924 Y61.56606
G1 Z0.34000 F150.00000
G1 F150.00000
G2 X41.97924 Y61.56606 Z-0.00000 I-0.10038 J0.00000
G2 X41.97924 Y61.56606 Z-0.34000 I-0.10038 J0.00000
G2 X41.97924 Y61.56606 Z-0.68000 I-0.10038 J0.00000
G2 X41.97924 Y61.56606 Z-1.02000 I-0.10038 J0.00000
G2 X41.97924 Y61.56606 Z-1.36000 I-0.10038 J0.00000
G2 X41.97924 Y61.56606 Z-1.70000 I-0.10038 J0.00000
G2 X41.97924 Y61.56606 I-0.10038 J0.00000
G1 Z3.00000 F150.00000

G0 X41.97924 Y64.10606
G1 Z0.34000 F150.00000
G1 F150.00000
G2 X41.97924 Y64.10606 Z-0.00000 I-0.10038 J0.00000
G2 X41.97924 Y64.10606 Z-0.34000 I-0.10038 J0.00000
G2 X41.97924 Y64.10606 Z-0.68000 I-0.10038 J0.00000
G2 X41.97924 Y64.10606 Z-1.02000 I-0.10038 J0.00000
G2 X41.97924 Y64.10606 Z-1.36000 I-0.10038 J0.00000
G2 X41.97924 Y64.10606 Z-1.70000 I-0.10038 J0.00000
G2 X41.97924 Y64.10606 I-0.10038 J0.00000
G1 Z3.00000 F150.00000

G0 X41.97924 Y66.64606
G1 Z0.34000 F150.00000
G1 F150.00000
G2 X41.97924 Y66.64606 Z-0.00000 I-0.10038 J0.00000
G2 X41.97924 Y66.64606 Z-0.34000 I-0.10038 J0.00000
G2 X41.97924 Y66.64606 Z-0.68000 I-0.10038 J0.00000
G2 X41.97924 Y66.64606 Z-1.02000 I-0.10038 J0.00000
G2 X41.97924 Y66.64606 Z-1.36000 I-0.10038 J0.00000
G2 X41.97924 Y66.64606 Z-1.70000 I-0.10038 J0.00000
G2 X41.97924 Y66.64606 I-0.10038 J0.00000
G1 Z3.00000 F150.00000

G0 X41.97924 Y69.18606
G1 Z0.34000 F150.00000
G1 F150.00000
G2 X41.97924 Y69.18606 Z-0.00000 I-0.10038 J0.00000
G2 X41.97924 Y69.18606 Z-0.34000 I-0.10038 J0.00000
G2 X41.97924 Y69.18606 Z-0.68000 I-0.10038 J0.00000
G2 X41.97924 Y69.18606 Z-1.02000 I-0.10038 J0.00000
G2 X41.97924 Y69.18606 Z-1.36000 I-0.10038 J0.00000
G2 X41.97924 Y69.18606 Z-1.70000 I-0.10038 J0.00000
G2 X41.97924 Y69.18606 I-0.10038 J0.00000
G1 Z3.00000 F150.00000

G0 X45.80956 Y69.20892
G1 Z0.34000 F150.00000
G1 F150.00000
G2 X45.80956 Y69.20892 Z-0.00000 I-0.10038 J0.00000
G2 X45.80956 Y69.20892 Z-0.34000 I-0.10038 J0.00000
G2 X45.80956 Y69.20892 Z-0.68000 I-0.10038 J0.00000
G2 X45.80956 Y69.20892 Z-1.02000 I-0.10038 J0.00000
G2 X45.80956 Y69.20892 Z-1.36000 I-0.10038 J0.00000
G2 X45.80956 Y69.20892 Z-1.70000 I-0.10038 J0.00000
G2 X45.80956 Y69.20892 I-0.10038 J0.00000
G1 Z3.00000 F150.00000

G0 X45.80956 Y66.66892
G1 Z0.34000 F150.00000
G1 F150.00000
G2 X45.80956 Y66.66892 Z-0.00000 I-0.10038 J0.00000
G2 X45.80956 Y66.66892 Z-0.34000 I-0.10038 J0.00000
G2 X45.80956 Y66.66892 Z-0.68000 I-0.10038 J0.00000
G2 X45.80956 Y66.66892 Z-1.02000 I-0.10038 J0.00000
G2 X45.80956 Y66.66892 Z-1.36000 I-0.10038 J0.00000
G2 X45.80956 Y66.66892 Z-1.70000 I-0.10038 J0.00000
G2 X45.80956 Y66.66892 I-0.10038 J0.00000
G1 Z3.00000 F150.00000

G0 X45.80956 Y64.12892
G1 Z0.34000 F150.00000
G1 F150.00000
G2 X45.80956 Y64.12892 Z-0.00000 I-0.10038 J0.00000
G2 X45.80956 Y64.12892 Z-0.34000 I-0.10038 J0.00000
G2 X45.80956 Y64.12892 Z-0.68000 I-0.10038 J0.00000
G2 X45.80956 Y64.12892 Z-1.02000 I-0.10038 J0.00000
G2 X45.80956 Y64.12892 Z-1.36000 I-0.10038 J0.00000
G2 X45.80956 Y64.12892 Z-1.70000 I-0.10038 J0.00000
G2 X45.80956 Y64.12892 I-0.10038 J0.00000
G1 Z3.00000 F150.00000

G0 X45.80956 Y61.58892
G1 Z0.34000 F150.00000
G1 F150.00000
G2 X45.80956 Y61.58892 Z-0.00000 I-0.10038 J0.00000
G2 X45.80956 Y61.58892 Z-0.34000 I-0.10038 J0.00000
G2 X45.80956 Y61.58892 Z-0.68000 I-0.10038 J0.00000
G2 X45.80956 Y61.58892 Z-1.02000 I-0.10038 J0.00000
G2 X45.80956 Y61.58892 Z-1.36000 I-0.10038 J0.00000
G2 X45.80956 Y61.58892 Z-1.70000 I-0.10038 J0.00000
G2 X45.80956 Y61.58892 I-0.10038 J0.00000
G1 Z3.00000 F150.00000

G0 X45.80956 Y59.04892
G1 Z0.34000 F150.00000
G1 F150.00000
G2 X45.80956 Y59.04892 Z-0.00000 I-0.10038 J0.00000
G2 X45.80956 Y59.04892 Z-0.34000 I-0.10038 J0.00000
G2 X45.80956 Y59.04892 Z-0.68000 I-0.10038 J0.00000
G2 X45.80956 Y59.04892 Z-1.02000 I-0.10038 J0.00000
G2 X45.80956 Y59.04892 Z-1.36000 I-0.10038 J0.00000
G2 X45.80956 Y59.04892 Z-1.70000 I-0.10038 J0.00000
G2 X45.80956 Y59.04892 I-0.10038 J0.00000
G1 Z3.00000 F150.00000

G0 X45.80956 Y56.50892
G1 Z0.34000 F150.00000
G1 F150.00000
G2 X45.80956 Y56.50892 Z-0.00000 I-0.10038 J0.00000
G2 X45.80956 Y56.50892 Z-0.34000 I-0.10038 J0.00000
G2 X45.80956 Y56.50892 Z-0.68000 I-0.10038 J0.00000
G2 X45.80956 Y56.50892 Z-1.02000 I-0.10038 J0.00000
G2 X45.80956 Y56.50892 Z-1.36000 I-0.10038 J0.00000
G2 X45.80956 Y56.50892 Z-1.70000 I-0.10038 J0.00000
G2 X45.80956 Y56.50892 I-0.10038 J0.00000
G1 Z3.00000 F150.00000

G0 X45.80956 Y53.96892
G1 Z0.34000 F150.00000
G1 F150.00000
G2 X45.80956 Y53.96892 Z-0.00000 I-0.10038 J0.00000
G2 X45.80956 Y53.96892 Z-0.34000 I-0.10038 J0.00000
G2 X45.80956 Y53.96892 Z-0.68000 I-0.10038 J0.00000
G2 X45.80956 Y53.96892 Z-1.02000 I-0.10038 J0.00000
G2 X45.80956 Y53.96892 Z-1.36000 I-0.10038 J0.00000
G2 X45.80956 Y53.96892 Z-1.70000 I-0.10038 J0.00000
G2 X45.80956 Y53.96892 I-0.10038 J0.00000
G1 Z3.00000 F150.00000

G0 X45.80956 Y51.42892
G1 Z0.34000 F150.00000
G1 F150.00000
G2 X45.80956 Y51.42892 Z-0.00000 I-0.10038 J0.00000
G2 X45.80956 Y51.42892 Z-0.34000 I-0.10038 J0.00000
G2 X45.80956 Y51.42892 Z-0.68000 I-0.10038 J0.00000
G2 X45.80956 Y51.42892 Z-1.02000 I-0.10038 J0.00000
G2 X45.80956 Y51.42892 Z-1.36000 I-0.10038 J0.00000
G2 X45.80956 Y51.42892 Z-1.70000 I-0.10038 J0.00000
G2 X45.80956 Y51.42892 I-0.10038 J0.00000
G1 Z3.00000 F150.00000

G0 X45.80956 Y48.88892
G1 Z0.34000 F150.00000
G1 F150.00000
G2 X45.80956 Y48.88892 Z-0.00000 I-0.10038 J0.00000
G2 X45.80956 Y48.88892 Z-0.34000 I-0.10038 J0.00000
G2 X45.80956 Y48.88892 Z-0.68000 I-0.10038 J0.00000
G2 X45.80956 Y48.88892 Z-1.02000 I-0.10038 J0.00000
G2 X45.80956 Y48.88892 Z-1.36000 I-0.10038 J0.00000
G2 X45.80956 Y48.88892 Z-1.70000 I-0.10038 J0.00000
G2 X45.80956 Y48.88892 I-0.10038 J0.00000
G1 Z3.00000 F150.00000

G0 X45.80956 Y46.34892
G1 Z0.34000 F150.00000
G1 F150.00000
G2 X45.80956 Y46.34892 Z-0.00000 I-0.10038 J0.00000
G2 X45.80956 Y46.34892 Z-0.34000 I-0.10038 J0.00000
G2 X45.80956 Y46.34892 Z-0.68000 I-0.10038 J0.00000
G2 X45.80956 Y46.34892 Z-1.02000 I-0.10038 J0.00000
G2 X45.80956 Y46.34892 Z-1.36000 I-0.10038 J0.00000
G2 X45.80956 Y46.34892 Z-1.70000 I-0.10038 J0.00000
G2 X45.80956 Y46.34892 I-0.10038 J0.00000
G1 Z3.00000 F150.00000

G0 X45.80956 Y43.80892
G1 Z0.34000 F150.00000
G1 F150.00000
G2 X45.80956 Y43.80892 Z-0.00000 I-0.10038 J0.00000
G2 X45.80956 Y43.80892 Z-0.34000 I-0.10038 J0.00000
G2 X45.80956 Y43.80892 Z-0.68000 I-0.10038 J0.00000
G2 X45.80956 Y43.80892 Z-1.02000 I-0.10038 J0.00000
G2 X45.80956 Y43.80892 Z-1.36000 I-0.10038 J0.00000
G2 X45.80956 Y43.80892 Z-1.70000 I-0.10038 J0.00000
G2 X45.80956 Y43.80892 I-0.10038 J0.00000
G1 Z3.00000 F150.00000

G0 X45.80956 Y41.26892
G1 Z0.34000 F150.00000
G1 F150.00000
G2 X45.80956 Y41.26892 Z-0.00000 I-0.10038 J0.00000
G2 X45.80956 Y41.26892 Z-0.34000 I-0.10038 J0.00000
G2 X45.80956 Y41.26892 Z-0.68000 I-0.10038 J0.00000
G2 X45.80956 Y41.26892 Z-1.02000 I-0.10038 J0.00000
G2 X45.80956 Y41.26892 Z-1.36000 I-0.10038 J0.00000
G2 X45.80956 Y41.26892 Z-1.70000 I-0.10038 J0.00000
G2 X45.80956 Y41.26892 I-0.10038 J0.00000
G1 Z3.00000 F150.00000

G0 X45.80956 Y38.72892
G1 Z0.34000 F150.00000
G1 F150.00000
G2 X45.80956 Y38.72892 Z-0.00000 I-0.10038 J0.00000
G2 X45.80956 Y38.72892 Z-0.34000 I-0.10038 J0.00000
G2 X45.80956 Y38.72892 Z-0.68000 I-0.10038 J0.00000
G2 X45.80956 Y38.72892 Z-1.02000 I-0.10038 J0.00000
G2 X45.80956 Y38.72892 Z-1.36000 I-0.10038 J0.00000
G2 X45.80956 Y38.72892 Z-1.70000 I-0.10038 J0.00000
G2 X45.80956 Y38.72892 I-0.10038 J0.00000
G1 Z3.00000 F150.00000

G0 X45.80956 Y36.18892
G1 Z0.34000 F150.00000
G1 F150.00000
G2 X45.80956 Y36.18892 Z-0.00000 I-0.10038 J0.00000
G2 X45.80956 Y36.18892 Z-0.34000 I-0.10038 J0.00000
G2 X45.80956 Y36.18892 Z-0.68000 I-0.10038 J0.00000
G2 X45.80956 Y36.18892 Z-1.02000 I-0.10038 J0.00000
G2 X45.80956 Y36.18892 Z-1.36000 I-0.10038 J0.00000
G2 X45.80956 Y36.18892 Z-1.70000 I-0.10038 J0.00000
G2 X45.80956 Y36.18892 I-0.10038 J0.00000
G1 Z3.00000 F150.00000

G0 X45.80956 Y33.64892
G1 Z0.34000 F150.00000
G1 F150.00000
G2 X45.80956 Y33.64892 Z-0.00000 I-0.10038 J0.00000
G2 X45.80956 Y33.64892 Z-0.34000 I-0.10038 J0.00000
G2 X45.80956 Y33.64892 Z-0.68000 I-0.10038 J0.00000
G2 X45.80956 Y33.64892 Z-1.02000 I-0.10038 J0.00000
G2 X45.80956 Y33.64892 Z-1.36000 I-0.10038 J0.00000
G2 X45.80956 Y33.64892 Z-1.70000 I-0.10038 J0.00000
G2 X45.80956 Y33.64892 I-0.10038 J0.00000
G1 Z3.00000 F150.00000

G0 X45.80956 Y31.10892
G1 Z0.34000 F150.00000
G1 F150.00000
G2 X45.80956 Y31.10892 Z-0.00000 I-0.10038 J0.00000
G2 X45.80956 Y31.10892 Z-0.34000 I-0.10038 J0.00000
G2 X45.80956 Y31.10892 Z-0.68000 I-0.10038 J0.00000
G2 X45.80956 Y31.10892 Z-1.02000 I-0.10038 J0.00000
G2 X45.80956 Y31.10892 Z-1.36000 I-0.10038 J0.00000
G2 X45.80956 Y31.10892 Z-1.70000 I-0.10038 J0.00000
G2 X45.80956 Y31.10892 I-0.10038 J0.00000
G1 Z3.00000 F150.00000

G0 X45.80956 Y28.56892
G1 Z0.34000 F150.00000
G1 F150.00000
G2 X45.80956 Y28.56892 Z-0.00000 I-0.10038 J0.00000
G2 X45.80956 Y28.56892 Z-0.34000 I-0.10038 J0.00000
G2 X45.80956 Y28.56892 Z-0.68000 I-0.10038 J0.00000
G2 X45.80956 Y28.56892 Z-1.02000 I-0.10038 J0.00000
G2 X45.80956 Y28.56892 Z-1.36000 I-0.10038 J0.00000
G2 X45.80956 Y28.56892 Z-1.70000 I-0.10038 J0.00000
G2 X45.80956 Y28.56892 I-0.10038 J0.00000
G1 Z3.00000 F150.00000

G0 X45.80956 Y26.02892
G1 Z0.34000 F150.00000
G1 F150.00000
G2 X45.80956 Y26.02892 Z-0.00000 I-0.10038 J0.00000
G2 X45.80956 Y26.02892 Z-0.34000 I-0.10038 J0.00000
G2 X45.80956 Y26.02892 Z-0.68000 I-0.10038 J0.00000
G2 X45.80956 Y26.02892 Z-1.02000 I-0.10038 J0.00000
G2 X45.80956 Y26.02892 Z-1.36000 I-0.10038 J0.00000
G2 X45.80956 Y26.02892 Z-1.70000 I-0.10038 J0.00000
G2 X45.80956 Y26.02892 I-0.10038 J0.00000
G1 Z3.00000 F150.00000

G0 X45.80956 Y23.48892
G1 Z0.34000 F150.00000
G1 F150.00000
G2 X45.80956 Y23.48892 Z-0.00000 I-0.10038 J0.00000
G2 X45.80956 Y23.48892 Z-0.34000 I-0.10038 J0.00000
G2 X45.80956 Y23.48892 Z-0.68000 I-0.10038 J0.00000
G2 X45.80956 Y23.48892 Z-1.02000 I-0.10038 J0.00000
G2 X45.80956 Y23.48892 Z-1.36000 I-0.10038 J0.00000
G2 X45.80956 Y23.48892 Z-1.70000 I-0.10038 J0.00000
G2 X45.80956 Y23.48892 I-0.10038 J0.00000
G1 Z3.00000 F150.00000

G0 X7.27522 Y66.60034
G1 Z0.34000 F150.00000
G1 F150.00000
G2 X7.27522 Y66.60034 Z-0.00000 I-1.14940 J0.00000
G2 X7.27522 Y66.60034 Z-0.34000 I-1.14940 J0.00000
G2 X7.27522 Y66.60034 Z-0.68000 I-1.14940 J0.00000
G2 X7.27522 Y66.60034 Z-1.02000 I-1.14940 J0.00000
G2 X7.27522 Y66.60034 Z-1.36000 I-1.14940 J0.00000
G2 X7.27522 Y66.60034 Z-1.70000 I-1.14940 J0.00000
G2 X7.27522 Y66.60034 I-1.14940 J0.00000
G1 Z3.00000 F150.00000

G0 X46.18040 Y5.58700
G1 Z0.34000 F150.00000
G1 F150.00000
G2 X46.18040 Y5.58700 Z-0.00000 I-1.14940 J0.00000
G2 X46.18040 Y5.58700 Z-0.34000 I-1.14940 J0.00000
G2 X46.18040 Y5.58700 Z-0.68000 I-1.14940 J0.00000
G2 X46.18040 Y5.58700 Z-1.02000 I-1.14940 J0.00000
G2 X46.18040 Y5.58700 Z-1.36000 I-1.14940 J0.00000
G2 X46.18040 Y5.58700 Z-1.70000 I-1.14940 J0.00000
G2 X46.18040 Y5.58700 I-1.14940 J0.00000
G1 Z3.00000 F150.00000

G0 X7.31840 Y5.58700
G1 Z0.34000 F150.00000
G1 F150.00000
G2 X7.31840 Y5.58700 Z-0.00000 I-1.14940 J0.00000
G2 X7.31840 Y5.58700 Z-0.34000 I-1.14940 J0.00000
G2 X7.31840 Y5.58700 Z-0.68000 I-1.14940 J0.00000
G2 X7.31840 Y5.58700 Z-1.02000 I-1.14940 J0.00000
G2 X7.31840 Y5.58700 Z-1.36000 I-1.14940 J0.00000
G2 X7.31840 Y5.58700 Z-1.70000 I-1.14940 J0.00000
G2 X7.31840 Y5.58700 I-1.14940 J0.00000
G1 Z3.00000 F150.00000

G00 Z3.000000 ( All done -- retract )

M5      (Spindle off.)
G04 P1.000000
M9      (Coolant off.)
M2      (Program end.)

