( pcb2gcode 2.5.0 )
( Software-independent Gcode )

G94 ( Millimeters per minute feed rate. )
G21 ( Units == Millimeters. )

G90 ( Absolute coordinates. )
G00 S11000 ( RPM spindle speed. )
G01 F150.00000 ( Feedrate. )


G00 Z3.00000 (Retract to tool change height)
M3 ( Spindle on clockwise. )
G04 P1.00000 (Wait for spindle to get up to speed)
G04 P0 ( dwell for no time -- G64 should not smooth over this point )
G00 Z3.00000 ( retract )

G00 X49.57503 Y0.82501 ( rapid move to begin. )
G01 Z-0.34000 F150.00000 ( plunge. )
G04 P0 ( dwell for no time -- G64 should not smooth over this point )
G01 F150.00000
G01 X49.57503 Y34.67501
G01 X49.57503 Y36.97501
G01 X49.57503 Y70.82502
G01 X49.56734 Y70.90307
G01 X49.54458 Y70.97811
G01 X49.50762 Y71.04727
G01 X49.45786 Y71.10787
G01 X49.39726 Y71.15763
G01 X49.32810 Y71.19459
G01 X49.25306 Y71.21735
G01 X49.17501 Y71.22504
G01 X26.32501 Y71.22504
G01 X24.02501 Y71.22504
G01 X1.17500 Y71.22504
G01 X1.09698 Y71.21735
G01 X1.02194 Y71.19459
G01 X0.95278 Y71.15763
G01 X0.89218 Y71.10787
G01 X0.84242 Y71.04727
G01 X0.80546 Y70.97811
G01 X0.78270 Y70.90307
G01 X0.77501 Y70.82502
G01 X0.77501 Y36.97501
G01 X0.77501 Y34.67501
G01 X0.77501 Y0.82501
G01 X0.78270 Y0.74698
G01 X0.80546 Y0.67195
G01 X0.84242 Y0.60278
G01 X0.89218 Y0.54218
G01 X0.95278 Y0.49242
G01 X1.02194 Y0.45546
G01 X1.09698 Y0.43270
G01 X1.17500 Y0.42501
G01 X24.02501 Y0.42501
G01 X26.32501 Y0.42501
G01 X49.17501 Y0.42501
G01 X49.25306 Y0.43270
G01 X49.32810 Y0.45546
G01 X49.39726 Y0.49242
G01 X49.45786 Y0.54218
G01 X49.50762 Y0.60278
G01 X49.54458 Y0.67195
G01 X49.56734 Y0.74698
G01 X49.57503 Y0.82501
G01 Z-0.68000 F150.00000 ( plunge. )
G04 P0 ( dwell for no time -- G64 should not smooth over this point )
G01 F150.00000
G01 X49.57503 Y34.67501
G01 X49.57503 Y36.97501
G01 X49.57503 Y70.82502
G01 X49.56734 Y70.90307
G01 X49.54458 Y70.97811
G01 X49.50762 Y71.04727
G01 X49.45786 Y71.10787
G01 X49.39726 Y71.15763
G01 X49.32810 Y71.19459
G01 X49.25306 Y71.21735
G01 X49.17501 Y71.22504
G01 X26.32501 Y71.22504
G01 X24.02501 Y71.22504
G01 X1.17500 Y71.22504
G01 X1.09698 Y71.21735
G01 X1.02194 Y71.19459
G01 X0.95278 Y71.15763
G01 X0.89218 Y71.10787
G01 X0.84242 Y71.04727
G01 X0.80546 Y70.97811
G01 X0.78270 Y70.90307
G01 X0.77501 Y70.82502
G01 X0.77501 Y36.97501
G01 X0.77501 Y34.67501
G01 X0.77501 Y0.82501
G01 X0.78270 Y0.74698
G01 X0.80546 Y0.67195
G01 X0.84242 Y0.60278
G01 X0.89218 Y0.54218
G01 X0.95278 Y0.49242
G01 X1.02194 Y0.45546
G01 X1.09698 Y0.43270
G01 X1.17500 Y0.42501
G01 X24.02501 Y0.42501
G01 X26.32501 Y0.42501
G01 X49.17501 Y0.42501
G01 X49.25306 Y0.43270
G01 X49.32810 Y0.45546
G01 X49.39726 Y0.49242
G01 X49.45786 Y0.54218
G01 X49.50762 Y0.60278
G01 X49.54458 Y0.67195
G01 X49.56734 Y0.74698
G01 X49.57503 Y0.82501
G01 Z-1.02000 F150.00000 ( plunge. )
G04 P0 ( dwell for no time -- G64 should not smooth over this point )
G01 F150.00000
G01 X49.57503 Y34.67501
G00 Z-1.00000
G01 X49.57503 Y36.97501
G01 Z-1.02000 F150.00000
G01 F150.00000
G01 X49.57503 Y70.82502
G01 X49.56734 Y70.90307
G01 X49.54458 Y70.97811
G01 X49.50762 Y71.04727
G01 X49.45786 Y71.10787
G01 X49.39726 Y71.15763
G01 X49.32810 Y71.19459
G01 X49.25306 Y71.21735
G01 X49.17501 Y71.22504
G01 X26.32501 Y71.22504
G00 Z-1.00000
G01 X24.02501 Y71.22504
G01 Z-1.02000 F150.00000
G01 F150.00000
G01 X1.17500 Y71.22504
G01 X1.09698 Y71.21735
G01 X1.02194 Y71.19459
G01 X0.95278 Y71.15763
G01 X0.89218 Y71.10787
G01 X0.84242 Y71.04727
G01 X0.80546 Y70.97811
G01 X0.78270 Y70.90307
G01 X0.77501 Y70.82502
G01 X0.77501 Y36.97501
G00 Z-1.00000
G01 X0.77501 Y34.67501
G01 Z-1.02000 F150.00000
G01 F150.00000
G01 X0.77501 Y0.82501
G01 X0.78270 Y0.74698
G01 X0.80546 Y0.67195
G01 X0.84242 Y0.60278
G01 X0.89218 Y0.54218
G01 X0.95278 Y0.49242
G01 X1.02194 Y0.45546
G01 X1.09698 Y0.43270
G01 X1.17500 Y0.42501
G01 X24.02501 Y0.42501
G00 Z-1.00000
G01 X26.32501 Y0.42501
G01 Z-1.02000 F150.00000
G01 F150.00000
G01 X49.17501 Y0.42501
G01 X49.25306 Y0.43270
G01 X49.32810 Y0.45546
G01 X49.39726 Y0.49242
G01 X49.45786 Y0.54218
G01 X49.50762 Y0.60278
G01 X49.54458 Y0.67195
G01 X49.56734 Y0.74698
G01 X49.57503 Y0.82501
G01 Z-1.36000 F150.00000 ( plunge. )
G04 P0 ( dwell for no time -- G64 should not smooth over this point )
G01 F150.00000
G01 X49.57503 Y34.67501
G00 Z-1.00000
G01 X49.57503 Y36.97501
G01 Z-1.36000 F150.00000
G01 F150.00000
G01 X49.57503 Y70.82502
G01 X49.56734 Y70.90307
G01 X49.54458 Y70.97811
G01 X49.50762 Y71.04727
G01 X49.45786 Y71.10787
G01 X49.39726 Y71.15763
G01 X49.32810 Y71.19459
G01 X49.25306 Y71.21735
G01 X49.17501 Y71.22504
G01 X26.32501 Y71.22504
G00 Z-1.00000
G01 X24.02501 Y71.22504
G01 Z-1.36000 F150.00000
G01 F150.00000
G01 X1.17500 Y71.22504
G01 X1.09698 Y71.21735
G01 X1.02194 Y71.19459
G01 X0.95278 Y71.15763
G01 X0.89218 Y71.10787
G01 X0.84242 Y71.04727
G01 X0.80546 Y70.97811
G01 X0.78270 Y70.90307
G01 X0.77501 Y70.82502
G01 X0.77501 Y36.97501
G00 Z-1.00000
G01 X0.77501 Y34.67501
G01 Z-1.36000 F150.00000
G01 F150.00000
G01 X0.77501 Y0.82501
G01 X0.78270 Y0.74698
G01 X0.80546 Y0.67195
G01 X0.84242 Y0.60278
G01 X0.89218 Y0.54218
G01 X0.95278 Y0.49242
G01 X1.02194 Y0.45546
G01 X1.09698 Y0.43270
G01 X1.17500 Y0.42501
G01 X24.02501 Y0.42501
G00 Z-1.00000
G01 X26.32501 Y0.42501
G01 Z-1.36000 F150.00000
G01 F150.00000
G01 X49.17501 Y0.42501
G01 X49.25306 Y0.43270
G01 X49.32810 Y0.45546
G01 X49.39726 Y0.49242
G01 X49.45786 Y0.54218
G01 X49.50762 Y0.60278
G01 X49.54458 Y0.67195
G01 X49.56734 Y0.74698
G01 X49.57503 Y0.82501
G01 Z-1.70000 F150.00000 ( plunge. )
G04 P0 ( dwell for no time -- G64 should not smooth over this point )
G01 F150.00000
G01 X49.57503 Y34.67501
G00 Z-1.00000
G01 X49.57503 Y36.97501
G01 Z-1.70000 F150.00000
G01 F150.00000
G01 X49.57503 Y70.82502
G01 X49.56734 Y70.90307
G01 X49.54458 Y70.97811
G01 X49.50762 Y71.04727
G01 X49.45786 Y71.10787
G01 X49.39726 Y71.15763
G01 X49.32810 Y71.19459
G01 X49.25306 Y71.21735
G01 X49.17501 Y71.22504
G01 X26.32501 Y71.22504
G00 Z-1.00000
G01 X24.02501 Y71.22504
G01 Z-1.70000 F150.00000
G01 F150.00000
G01 X1.17500 Y71.22504
G01 X1.09698 Y71.21735
G01 X1.02194 Y71.19459
G01 X0.95278 Y71.15763
G01 X0.89218 Y71.10787
G01 X0.84242 Y71.04727
G01 X0.80546 Y70.97811
G01 X0.78270 Y70.90307
G01 X0.77501 Y70.82502
G01 X0.77501 Y36.97501
G00 Z-1.00000
G01 X0.77501 Y34.67501
G01 Z-1.70000 F150.00000
G01 F150.00000
G01 X0.77501 Y0.82501
G01 X0.78270 Y0.74698
G01 X0.80546 Y0.67195
G01 X0.84242 Y0.60278
G01 X0.89218 Y0.54218
G01 X0.95278 Y0.49242
G01 X1.02194 Y0.45546
G01 X1.09698 Y0.43270
G01 X1.17500 Y0.42501
G01 X24.02501 Y0.42501
G00 Z-1.00000
G01 X26.32501 Y0.42501
G01 Z-1.70000 F150.00000
G01 F150.00000
G01 X49.17501 Y0.42501
G01 X49.25306 Y0.43270
G01 X49.32810 Y0.45546
G01 X49.39726 Y0.49242
G01 X49.45786 Y0.54218
G01 X49.50762 Y0.60278
G01 X49.54458 Y0.67195
G01 X49.56734 Y0.74698
G01 X49.57503 Y0.82501

G04 P0 ( dwell for no time -- G64 should not smooth over this point )
G00 Z3.000000 ( retract )

M5 ( Spindle off. )
G04 P1.000000
M9 ( Coolant off. )
M2 ( Program end. )

